N10 (Generated with: DXF2GCODE, Version: Py3.6.7 PyQt5.11.3, Date: $Date: Fri Oct 25 20:45:56 2019 +0200 $)
N15 (Created from file: C:/Users/wryan/SkyDrive/cad/5x7 laser gun/plot-barrel.dxf)
N20 (Output format description: G-CODE for LinuxCNC)
N25 (Time: Sun Mar  1 00:58:27 2020)
N30 G21 (Units in millimeters)
N35 G90 (Absolute programming)
N40 G64 (Default cutting) 
N45 G17 (XY plane) 
N50 G40 (Cancel radius comp.) 
N55 G49 (Cancel length comp.)
N60 G0 Z   0.000 
N65 
(*** LAYER: case5 ***)
N70 T1 M6
N75 S10000
N80 
(* SHAPE Nr: 37 *)
N85 G0 X 154.201 Y  23.694
N90 M3 M8
N95 G0 Z   0.050 
N100 F1000
N105 G1 Z   0.000
N110 F40
N115 G1 X 154.201 Y  26.694
N120 G1 X 154.201 Y  29.694
N125 G1 X 155.501 Y  29.694
N130 G1 X 156.801 Y  29.694
N135 G1 X 156.801 Y  26.694
N140 G1 X 156.801 Y  23.694
N145 G1 X 155.501 Y  23.694
N150 G1 X 154.201 Y  23.694
N155 F1000
N160 G1 Z  -0.050
N165 F40
N170 G1 X 154.201 Y  26.694
N175 G1 X 154.201 Y  29.694
N180 G1 X 155.501 Y  29.694
N185 G1 X 156.801 Y  29.694
N190 G1 X 156.801 Y  26.694
N195 G1 X 156.801 Y  23.694
N200 G1 X 155.501 Y  23.694
N205 G1 X 154.201 Y  23.694
N210 F1000
N215 G1 Z  -0.100
N220 F40
N225 G1 X 154.201 Y  26.694
N230 G1 X 154.201 Y  29.694
N235 G1 X 155.501 Y  29.694
N240 G1 X 156.801 Y  29.694
N245 G1 X 156.801 Y  26.694
N250 G1 X 156.801 Y  23.694
N255 G1 X 155.501 Y  23.694
N260 G1 X 154.201 Y  23.694
N265 F1000
N270 G1 Z  -0.150
N275 F40
N280 G1 X 154.201 Y  26.694
N285 G1 X 154.201 Y  29.694
N290 G1 X 155.501 Y  29.694
N295 G1 X 156.801 Y  29.694
N300 G1 X 156.801 Y  26.694
N305 G1 X 156.801 Y  23.694
N310 G1 X 155.501 Y  23.694
N315 G1 X 154.201 Y  23.694
N320 F1000
N325 G1 Z  -0.200
N330 F40
N335 G1 X 154.201 Y  26.694
N340 G1 X 154.201 Y  29.694
N345 G1 X 155.501 Y  29.694
N350 G1 X 156.801 Y  29.694
N355 G1 X 156.801 Y  26.694
N360 G1 X 156.801 Y  23.694
N365 G1 X 155.501 Y  23.694
N370 G1 X 154.201 Y  23.694
N375 F1000
N380 G1 Z  -0.250
N385 F40
N390 G1 X 154.201 Y  26.694
N395 G1 X 154.201 Y  29.694
N400 G1 X 155.501 Y  29.694
N405 G1 X 156.801 Y  29.694
N410 G1 X 156.801 Y  26.694
N415 G1 X 156.801 Y  23.694
N420 G1 X 155.501 Y  23.694
N425 G1 X 154.201 Y  23.694
N430 F1000
N435 G1 Z  -0.300
N440 F40
N445 G1 X 154.201 Y  26.694
N450 G1 X 154.201 Y  29.694
N455 G1 X 155.501 Y  29.694
N460 G1 X 156.801 Y  29.694
N465 G1 X 156.801 Y  26.694
N470 G1 X 156.801 Y  23.694
N475 G1 X 155.501 Y  23.694
N480 G1 X 154.201 Y  23.694
N485 F1000
N490 G1 Z   0.050
N495 G0 Z   0.000 
N500 M9 M5
N505 
(* SHAPE Nr: 38 *)
N510 G0 X 113.888 Y  15.546
N515 M3 M8
N520 G0 Z   0.050 
N525 G1 Z   0.000
N530 F40
N535 G1 X 116.790 Y  16.307
N540 G1 X 119.691 Y  17.068
N545 G1 X 120.021 Y  15.811
N550 G1 X 120.351 Y  14.553
N555 G1 X 117.449 Y  13.792
N560 G1 X 114.547 Y  13.031
N565 G1 X 114.218 Y  14.289
N570 G1 X 113.888 Y  15.546
N575 F1000
N580 G1 Z  -0.050
N585 F40
N590 G1 X 116.790 Y  16.307
N595 G1 X 119.691 Y  17.068
N600 G1 X 120.021 Y  15.811
N605 G1 X 120.351 Y  14.553
N610 G1 X 117.449 Y  13.792
N615 G1 X 114.547 Y  13.031
N620 G1 X 114.218 Y  14.289
N625 G1 X 113.888 Y  15.546
N630 F1000
N635 G1 Z  -0.100
N640 F40
N645 G1 X 116.790 Y  16.307
N650 G1 X 119.691 Y  17.068
N655 G1 X 120.021 Y  15.811
N660 G1 X 120.351 Y  14.553
N665 G1 X 117.449 Y  13.792
N670 G1 X 114.547 Y  13.031
N675 G1 X 114.218 Y  14.289
N680 G1 X 113.888 Y  15.546
N685 F1000
N690 G1 Z  -0.150
N695 F40
N700 G1 X 116.790 Y  16.307
N705 G1 X 119.691 Y  17.068
N710 G1 X 120.021 Y  15.811
N715 G1 X 120.351 Y  14.553
N720 G1 X 117.449 Y  13.792
N725 G1 X 114.547 Y  13.031
N730 G1 X 114.218 Y  14.289
N735 G1 X 113.888 Y  15.546
N740 F1000
N745 G1 Z  -0.200
N750 F40
N755 G1 X 116.790 Y  16.307
N760 G1 X 119.691 Y  17.068
N765 G1 X 120.021 Y  15.811
N770 G1 X 120.351 Y  14.553
N775 G1 X 117.449 Y  13.792
N780 G1 X 114.547 Y  13.031
N785 G1 X 114.218 Y  14.289
N790 G1 X 113.888 Y  15.546
N795 F1000
N800 G1 Z  -0.250
N805 F40
N810 G1 X 116.790 Y  16.307
N815 G1 X 119.691 Y  17.068
N820 G1 X 120.021 Y  15.811
N825 G1 X 120.351 Y  14.553
N830 G1 X 117.449 Y  13.792
N835 G1 X 114.547 Y  13.031
N840 G1 X 114.218 Y  14.289
N845 G1 X 113.888 Y  15.546
N850 F1000
N855 G1 Z  -0.300
N860 F40
N865 G1 X 116.790 Y  16.307
N870 G1 X 119.691 Y  17.068
N875 G1 X 120.021 Y  15.811
N880 G1 X 120.351 Y  14.553
N885 G1 X 117.449 Y  13.792
N890 G1 X 114.547 Y  13.031
N895 G1 X 114.218 Y  14.289
N900 G1 X 113.888 Y  15.546
N905 F1000
N910 G1 Z   0.050
N915 G0 Z   0.000 
N920 M9 M5
N925 
(* SHAPE Nr: 41 *)
N930 G0 X   9.696 Y  91.910
N935 M3 M8
N940 G0 Z   0.050 
N945 G1 Z   0.000
N950 F40
N955 G1 X   9.907 Y  94.903
N960 G1 X  10.118 Y  97.896
N965 G1 X  11.414 Y  97.804
N970 G1 X  12.711 Y  97.713
N975 G1 X  12.500 Y  94.720
N980 G1 X  12.290 Y  91.728
N985 G1 X  10.993 Y  91.819
N990 G1 X   9.696 Y  91.910
N995 F1000
N1000 G1 Z  -0.050
N1005 F40
N1010 G1 X   9.907 Y  94.903
N1015 G1 X  10.118 Y  97.896
N1020 G1 X  11.414 Y  97.804
N1025 G1 X  12.711 Y  97.713
N1030 G1 X  12.500 Y  94.720
N1035 G1 X  12.290 Y  91.728
N1040 G1 X  10.993 Y  91.819
N1045 G1 X   9.696 Y  91.910
N1050 F1000
N1055 G1 Z  -0.100
N1060 F40
N1065 G1 X   9.907 Y  94.903
N1070 G1 X  10.118 Y  97.896
N1075 G1 X  11.414 Y  97.804
N1080 G1 X  12.711 Y  97.713
N1085 G1 X  12.500 Y  94.720
N1090 G1 X  12.290 Y  91.728
N1095 G1 X  10.993 Y  91.819
N1100 G1 X   9.696 Y  91.910
N1105 F1000
N1110 G1 Z  -0.150
N1115 F40
N1120 G1 X   9.907 Y  94.903
N1125 G1 X  10.118 Y  97.896
N1130 G1 X  11.414 Y  97.804
N1135 G1 X  12.711 Y  97.713
N1140 G1 X  12.500 Y  94.720
N1145 G1 X  12.290 Y  91.728
N1150 G1 X  10.993 Y  91.819
N1155 G1 X   9.696 Y  91.910
N1160 F1000
N1165 G1 Z  -0.200
N1170 F40
N1175 G1 X   9.907 Y  94.903
N1180 G1 X  10.118 Y  97.896
N1185 G1 X  11.414 Y  97.804
N1190 G1 X  12.711 Y  97.713
N1195 G1 X  12.500 Y  94.720
N1200 G1 X  12.290 Y  91.728
N1205 G1 X  10.993 Y  91.819
N1210 G1 X   9.696 Y  91.910
N1215 F1000
N1220 G1 Z  -0.250
N1225 F40
N1230 G1 X   9.907 Y  94.903
N1235 G1 X  10.118 Y  97.896
N1240 G1 X  11.414 Y  97.804
N1245 G1 X  12.711 Y  97.713
N1250 G1 X  12.500 Y  94.720
N1255 G1 X  12.290 Y  91.728
N1260 G1 X  10.993 Y  91.819
N1265 G1 X   9.696 Y  91.910
N1270 F1000
N1275 G1 Z  -0.300
N1280 F40
N1285 G1 X   9.907 Y  94.903
N1290 G1 X  10.118 Y  97.896
N1295 G1 X  11.414 Y  97.804
N1300 G1 X  12.711 Y  97.713
N1305 G1 X  12.500 Y  94.720
N1310 G1 X  12.290 Y  91.728
N1315 G1 X  10.993 Y  91.819
N1320 G1 X   9.696 Y  91.910
N1325 F1000
N1330 G1 Z   0.050
N1335 G0 Z   0.000 
N1340 M9 M5
N1345 
(* SHAPE Nr: 42 *)
N1350 G0 X  45.414 Y  80.232
N1355 M3 M8
N1360 G0 Z   0.050 
N1365 G1 Z   0.000
N1370 F40
N1375 G1 X  45.831 Y  81.463
N1380 G1 X  46.248 Y  82.694
N1385 G1 X  49.089 Y  81.731
N1390 G1 X  51.931 Y  80.768
N1395 G1 X  51.513 Y  79.537
N1400 G1 X  51.096 Y  78.305
N1405 G1 X  48.255 Y  79.269
N1410 G1 X  45.414 Y  80.232
N1415 F1000
N1420 G1 Z  -0.050
N1425 F40
N1430 G1 X  45.831 Y  81.463
N1435 G1 X  46.248 Y  82.694
N1440 G1 X  49.089 Y  81.731
N1445 G1 X  51.931 Y  80.768
N1450 G1 X  51.513 Y  79.537
N1455 G1 X  51.096 Y  78.305
N1460 G1 X  48.255 Y  79.269
N1465 G1 X  45.414 Y  80.232
N1470 F1000
N1475 G1 Z  -0.100
N1480 F40
N1485 G1 X  45.831 Y  81.463
N1490 G1 X  46.248 Y  82.694
N1495 G1 X  49.089 Y  81.731
N1500 G1 X  51.931 Y  80.768
N1505 G1 X  51.513 Y  79.537
N1510 G1 X  51.096 Y  78.305
N1515 G1 X  48.255 Y  79.269
N1520 G1 X  45.414 Y  80.232
N1525 F1000
N1530 G1 Z  -0.150
N1535 F40
N1540 G1 X  45.831 Y  81.463
N1545 G1 X  46.248 Y  82.694
N1550 G1 X  49.089 Y  81.731
N1555 G1 X  51.931 Y  80.768
N1560 G1 X  51.513 Y  79.537
N1565 G1 X  51.096 Y  78.305
N1570 G1 X  48.255 Y  79.269
N1575 G1 X  45.414 Y  80.232
N1580 F1000
N1585 G1 Z  -0.200
N1590 F40
N1595 G1 X  45.831 Y  81.463
N1600 G1 X  46.248 Y  82.694
N1605 G1 X  49.089 Y  81.731
N1610 G1 X  51.931 Y  80.768
N1615 G1 X  51.513 Y  79.537
N1620 G1 X  51.096 Y  78.305
N1625 G1 X  48.255 Y  79.269
N1630 G1 X  45.414 Y  80.232
N1635 F1000
N1640 G1 Z  -0.250
N1645 F40
N1650 G1 X  45.831 Y  81.463
N1655 G1 X  46.248 Y  82.694
N1660 G1 X  49.089 Y  81.731
N1665 G1 X  51.931 Y  80.768
N1670 G1 X  51.513 Y  79.537
N1675 G1 X  51.096 Y  78.305
N1680 G1 X  48.255 Y  79.269
N1685 G1 X  45.414 Y  80.232
N1690 F1000
N1695 G1 Z  -0.300
N1700 F40
N1705 G1 X  45.831 Y  81.463
N1710 G1 X  46.248 Y  82.694
N1715 G1 X  49.089 Y  81.731
N1720 G1 X  51.931 Y  80.768
N1725 G1 X  51.513 Y  79.537
N1730 G1 X  51.096 Y  78.305
N1735 G1 X  48.255 Y  79.269
N1740 G1 X  45.414 Y  80.232
N1745 F1000
N1750 G1 Z   0.050
N1755 G0 Z   0.000 
N1760 M9 M5
N1765 
(*** LAYER: case2 ***)
N1770 
(* SHAPE Nr: 3 *)
N1775 G0 X  87.737 Y  25.563
N1780 M3 M8
N1785 G0 Z   0.050 
N1790 G1 Z   0.000
N1795 F40
N1800 G2 X  90.000 Y  27.826 I   1.131 J   1.131
N1805 G2 X  87.737 Y  25.563 I  -1.131 J  -1.131
N1810 F1000
N1815 G1 Z  -0.050
N1820 F40
N1825 G2 X  90.000 Y  27.826 I   1.131 J   1.131
N1830 G2 X  87.737 Y  25.563 I  -1.131 J  -1.131
N1835 F1000
N1840 G1 Z  -0.100
N1845 F40
N1850 G2 X  90.000 Y  27.826 I   1.131 J   1.131
N1855 G2 X  87.737 Y  25.563 I  -1.131 J  -1.131
N1860 F1000
N1865 G1 Z  -0.150
N1870 F40
N1875 G2 X  90.000 Y  27.826 I   1.131 J   1.131
N1880 G2 X  87.737 Y  25.563 I  -1.131 J  -1.131
N1885 F1000
N1890 G1 Z  -0.200
N1895 F40
N1900 G2 X  90.000 Y  27.826 I   1.131 J   1.131
N1905 G2 X  87.737 Y  25.563 I  -1.131 J  -1.131
N1910 F1000
N1915 G1 Z  -0.250
N1920 F40
N1925 G2 X  90.000 Y  27.826 I   1.131 J   1.131
N1930 G2 X  87.737 Y  25.563 I  -1.131 J  -1.131
N1935 F1000
N1940 G1 Z  -0.300
N1945 F40
N1950 G2 X  90.000 Y  27.826 I   1.131 J   1.131
N1955 G2 X  87.737 Y  25.563 I  -1.131 J  -1.131
N1960 F1000
N1965 G1 Z   0.050
N1970 G0 Z   0.000 
N1975 M9 M5
N1980 
(* SHAPE Nr: 4 *)
N1985 G0 X  96.976 Y  29.390
N1990 M3 M8
N1995 G0 Z   0.050 
N2000 G1 Z   0.000
N2005 F40
N2010 G2 X  99.239 Y  31.653 I   1.131 J   1.131
N2015 G2 X  96.976 Y  29.390 I  -1.131 J  -1.131
N2020 F1000
N2025 G1 Z  -0.050
N2030 F40
N2035 G2 X  99.239 Y  31.653 I   1.131 J   1.131
N2040 G2 X  96.976 Y  29.390 I  -1.131 J  -1.131
N2045 F1000
N2050 G1 Z  -0.100
N2055 F40
N2060 G2 X  99.239 Y  31.653 I   1.131 J   1.131
N2065 G2 X  96.976 Y  29.390 I  -1.131 J  -1.131
N2070 F1000
N2075 G1 Z  -0.150
N2080 F40
N2085 G2 X  99.239 Y  31.653 I   1.131 J   1.131
N2090 G2 X  96.976 Y  29.390 I  -1.131 J  -1.131
N2095 F1000
N2100 G1 Z  -0.200
N2105 F40
N2110 G2 X  99.239 Y  31.653 I   1.131 J   1.131
N2115 G2 X  96.976 Y  29.390 I  -1.131 J  -1.131
N2120 F1000
N2125 G1 Z  -0.250
N2130 F40
N2135 G2 X  99.239 Y  31.653 I   1.131 J   1.131
N2140 G2 X  96.976 Y  29.390 I  -1.131 J  -1.131
N2145 F1000
N2150 G1 Z  -0.300
N2155 F40
N2160 G2 X  99.239 Y  31.653 I   1.131 J   1.131
N2165 G2 X  96.976 Y  29.390 I  -1.131 J  -1.131
N2170 F1000
N2175 G1 Z   0.050
N2180 G0 Z   0.000 
N2185 M9 M5
N2190 
(* SHAPE Nr: 5 *)
N2195 G0 X  83.910 Y  34.802
N2200 M3 M8
N2205 G0 Z   0.050 
N2210 G1 Z   0.000
N2215 F40
N2220 G2 X  86.173 Y  37.064 I   1.131 J   1.131
N2225 G2 X  83.910 Y  34.802 I  -1.131 J  -1.131
N2230 F1000
N2235 G1 Z  -0.050
N2240 F40
N2245 G2 X  86.173 Y  37.064 I   1.131 J   1.131
N2250 G2 X  83.910 Y  34.802 I  -1.131 J  -1.131
N2255 F1000
N2260 G1 Z  -0.100
N2265 F40
N2270 G2 X  86.173 Y  37.064 I   1.131 J   1.131
N2275 G2 X  83.910 Y  34.802 I  -1.131 J  -1.131
N2280 F1000
N2285 G1 Z  -0.150
N2290 F40
N2295 G2 X  86.173 Y  37.064 I   1.131 J   1.131
N2300 G2 X  83.910 Y  34.802 I  -1.131 J  -1.131
N2305 F1000
N2310 G1 Z  -0.200
N2315 F40
N2320 G2 X  86.173 Y  37.064 I   1.131 J   1.131
N2325 G2 X  83.910 Y  34.802 I  -1.131 J  -1.131
N2330 F1000
N2335 G1 Z  -0.250
N2340 F40
N2345 G2 X  86.173 Y  37.064 I   1.131 J   1.131
N2350 G2 X  83.910 Y  34.802 I  -1.131 J  -1.131
N2355 F1000
N2360 G1 Z  -0.300
N2365 F40
N2370 G2 X  86.173 Y  37.064 I   1.131 J   1.131
N2375 G2 X  83.910 Y  34.802 I  -1.131 J  -1.131
N2380 F1000
N2385 G1 Z   0.050
N2390 G0 Z   0.000 
N2395 M9 M5
N2400 
(* SHAPE Nr: 6 *)
N2405 G0 X  78.499 Y  21.736
N2410 M3 M8
N2415 G0 Z   0.050 
N2420 G1 Z   0.000
N2425 F40
N2430 G2 X  80.761 Y  23.999 I   1.131 J   1.131
N2435 G2 X  78.499 Y  21.736 I  -1.131 J  -1.131
N2440 F1000
N2445 G1 Z  -0.050
N2450 F40
N2455 G2 X  80.761 Y  23.999 I   1.131 J   1.131
N2460 G2 X  78.499 Y  21.736 I  -1.131 J  -1.131
N2465 F1000
N2470 G1 Z  -0.100
N2475 F40
N2480 G2 X  80.761 Y  23.999 I   1.131 J   1.131
N2485 G2 X  78.499 Y  21.736 I  -1.131 J  -1.131
N2490 F1000
N2495 G1 Z  -0.150
N2500 F40
N2505 G2 X  80.761 Y  23.999 I   1.131 J   1.131
N2510 G2 X  78.499 Y  21.736 I  -1.131 J  -1.131
N2515 F1000
N2520 G1 Z  -0.200
N2525 F40
N2530 G2 X  80.761 Y  23.999 I   1.131 J   1.131
N2535 G2 X  78.499 Y  21.736 I  -1.131 J  -1.131
N2540 F1000
N2545 G1 Z  -0.250
N2550 F40
N2555 G2 X  80.761 Y  23.999 I   1.131 J   1.131
N2560 G2 X  78.499 Y  21.736 I  -1.131 J  -1.131
N2565 F1000
N2570 G1 Z  -0.300
N2575 F40
N2580 G2 X  80.761 Y  23.999 I   1.131 J   1.131
N2585 G2 X  78.499 Y  21.736 I  -1.131 J  -1.131
N2590 F1000
N2595 G1 Z   0.050
N2600 G0 Z   0.000 
N2605 M9 M5
N2610 
(* SHAPE Nr: 7 *)
N2615 G0 X  91.564 Y  16.324
N2620 M3 M8
N2625 G0 Z   0.050 
N2630 G1 Z   0.000
N2635 F40
N2640 G2 X  93.827 Y  18.587 I   1.131 J   1.131
N2645 G2 X  91.564 Y  16.324 I  -1.131 J  -1.131
N2650 F1000
N2655 G1 Z  -0.050
N2660 F40
N2665 G2 X  93.827 Y  18.587 I   1.131 J   1.131
N2670 G2 X  91.564 Y  16.324 I  -1.131 J  -1.131
N2675 F1000
N2680 G1 Z  -0.100
N2685 F40
N2690 G2 X  93.827 Y  18.587 I   1.131 J   1.131
N2695 G2 X  91.564 Y  16.324 I  -1.131 J  -1.131
N2700 F1000
N2705 G1 Z  -0.150
N2710 F40
N2715 G2 X  93.827 Y  18.587 I   1.131 J   1.131
N2720 G2 X  91.564 Y  16.324 I  -1.131 J  -1.131
N2725 F1000
N2730 G1 Z  -0.200
N2735 F40
N2740 G2 X  93.827 Y  18.587 I   1.131 J   1.131
N2745 G2 X  91.564 Y  16.324 I  -1.131 J  -1.131
N2750 F1000
N2755 G1 Z  -0.250
N2760 F40
N2765 G2 X  93.827 Y  18.587 I   1.131 J   1.131
N2770 G2 X  91.564 Y  16.324 I  -1.131 J  -1.131
N2775 F1000
N2780 G1 Z  -0.300
N2785 F40
N2790 G2 X  93.827 Y  18.587 I   1.131 J   1.131
N2795 G2 X  91.564 Y  16.324 I  -1.131 J  -1.131
N2800 F1000
N2805 G1 Z   0.050
N2810 G0 Z   0.000 
N2815 M9 M5
N2820 
(* SHAPE Nr: 8 *)
N2825 G0 X  96.976 Y  21.736
N2830 M3 M8
N2835 G0 Z   0.050 
N2840 G1 Z   0.000
N2845 F40
N2850 G2 X  99.239 Y  23.999 I   1.131 J   1.131
N2855 G2 X  96.976 Y  21.736 I  -1.131 J  -1.131
N2860 F1000
N2865 G1 Z  -0.050
N2870 F40
N2875 G2 X  99.239 Y  23.999 I   1.131 J   1.131
N2880 G2 X  96.976 Y  21.736 I  -1.131 J  -1.131
N2885 F1000
N2890 G1 Z  -0.100
N2895 F40
N2900 G2 X  99.239 Y  23.999 I   1.131 J   1.131
N2905 G2 X  96.976 Y  21.736 I  -1.131 J  -1.131
N2910 F1000
N2915 G1 Z  -0.150
N2920 F40
N2925 G2 X  99.239 Y  23.999 I   1.131 J   1.131
N2930 G2 X  96.976 Y  21.736 I  -1.131 J  -1.131
N2935 F1000
N2940 G1 Z  -0.200
N2945 F40
N2950 G2 X  99.239 Y  23.999 I   1.131 J   1.131
N2955 G2 X  96.976 Y  21.736 I  -1.131 J  -1.131
N2960 F1000
N2965 G1 Z  -0.250
N2970 F40
N2975 G2 X  99.239 Y  23.999 I   1.131 J   1.131
N2980 G2 X  96.976 Y  21.736 I  -1.131 J  -1.131
N2985 F1000
N2990 G1 Z  -0.300
N2995 F40
N3000 G2 X  99.239 Y  23.999 I   1.131 J   1.131
N3005 G2 X  96.976 Y  21.736 I  -1.131 J  -1.131
N3010 F1000
N3015 G1 Z   0.050
N3020 G0 Z   0.000 
N3025 M9 M5
N3030 
(* SHAPE Nr: 9 *)
N3035 G0 X  91.564 Y  34.802
N3040 M3 M8
N3045 G0 Z   0.050 
N3050 G1 Z   0.000
N3055 F40
N3060 G2 X  93.827 Y  37.064 I   1.131 J   1.131
N3065 G2 X  91.564 Y  34.802 I  -1.131 J  -1.131
N3070 F1000
N3075 G1 Z  -0.050
N3080 F40
N3085 G2 X  93.827 Y  37.064 I   1.131 J   1.131
N3090 G2 X  91.564 Y  34.802 I  -1.131 J  -1.131
N3095 F1000
N3100 G1 Z  -0.100
N3105 F40
N3110 G2 X  93.827 Y  37.064 I   1.131 J   1.131
N3115 G2 X  91.564 Y  34.802 I  -1.131 J  -1.131
N3120 F1000
N3125 G1 Z  -0.150
N3130 F40
N3135 G2 X  93.827 Y  37.064 I   1.131 J   1.131
N3140 G2 X  91.564 Y  34.802 I  -1.131 J  -1.131
N3145 F1000
N3150 G1 Z  -0.200
N3155 F40
N3160 G2 X  93.827 Y  37.064 I   1.131 J   1.131
N3165 G2 X  91.564 Y  34.802 I  -1.131 J  -1.131
N3170 F1000
N3175 G1 Z  -0.250
N3180 F40
N3185 G2 X  93.827 Y  37.064 I   1.131 J   1.131
N3190 G2 X  91.564 Y  34.802 I  -1.131 J  -1.131
N3195 F1000
N3200 G1 Z  -0.300
N3205 F40
N3210 G2 X  93.827 Y  37.064 I   1.131 J   1.131
N3215 G2 X  91.564 Y  34.802 I  -1.131 J  -1.131
N3220 F1000
N3225 G1 Z   0.050
N3230 G0 Z   0.000 
N3235 M9 M5
N3240 
(* SHAPE Nr: 10 *)
N3245 G0 X  78.499 Y  29.390
N3250 M3 M8
N3255 G0 Z   0.050 
N3260 G1 Z   0.000
N3265 F40
N3270 G2 X  80.761 Y  31.653 I   1.131 J   1.131
N3275 G2 X  78.499 Y  29.390 I  -1.131 J  -1.131
N3280 F1000
N3285 G1 Z  -0.050
N3290 F40
N3295 G2 X  80.761 Y  31.653 I   1.131 J   1.131
N3300 G2 X  78.499 Y  29.390 I  -1.131 J  -1.131
N3305 F1000
N3310 G1 Z  -0.100
N3315 F40
N3320 G2 X  80.761 Y  31.653 I   1.131 J   1.131
N3325 G2 X  78.499 Y  29.390 I  -1.131 J  -1.131
N3330 F1000
N3335 G1 Z  -0.150
N3340 F40
N3345 G2 X  80.761 Y  31.653 I   1.131 J   1.131
N3350 G2 X  78.499 Y  29.390 I  -1.131 J  -1.131
N3355 F1000
N3360 G1 Z  -0.200
N3365 F40
N3370 G2 X  80.761 Y  31.653 I   1.131 J   1.131
N3375 G2 X  78.499 Y  29.390 I  -1.131 J  -1.131
N3380 F1000
N3385 G1 Z  -0.250
N3390 F40
N3395 G2 X  80.761 Y  31.653 I   1.131 J   1.131
N3400 G2 X  78.499 Y  29.390 I  -1.131 J  -1.131
N3405 F1000
N3410 G1 Z  -0.300
N3415 F40
N3420 G2 X  80.761 Y  31.653 I   1.131 J   1.131
N3425 G2 X  78.499 Y  29.390 I  -1.131 J  -1.131
N3430 F1000
N3435 G1 Z   0.050
N3440 G0 Z   0.000 
N3445 M9 M5
N3450 
(* SHAPE Nr: 11 *)
N3455 G0 X  83.910 Y  16.324
N3460 M3 M8
N3465 G0 Z   0.050 
N3470 G1 Z   0.000
N3475 F40
N3480 G2 X  86.173 Y  18.587 I   1.131 J   1.131
N3485 G2 X  83.910 Y  16.324 I  -1.131 J  -1.131
N3490 F1000
N3495 G1 Z  -0.050
N3500 F40
N3505 G2 X  86.173 Y  18.587 I   1.131 J   1.131
N3510 G2 X  83.910 Y  16.324 I  -1.131 J  -1.131
N3515 F1000
N3520 G1 Z  -0.100
N3525 F40
N3530 G2 X  86.173 Y  18.587 I   1.131 J   1.131
N3535 G2 X  83.910 Y  16.324 I  -1.131 J  -1.131
N3540 F1000
N3545 G1 Z  -0.150
N3550 F40
N3555 G2 X  86.173 Y  18.587 I   1.131 J   1.131
N3560 G2 X  83.910 Y  16.324 I  -1.131 J  -1.131
N3565 F1000
N3570 G1 Z  -0.200
N3575 F40
N3580 G2 X  86.173 Y  18.587 I   1.131 J   1.131
N3585 G2 X  83.910 Y  16.324 I  -1.131 J  -1.131
N3590 F1000
N3595 G1 Z  -0.250
N3600 F40
N3605 G2 X  86.173 Y  18.587 I   1.131 J   1.131
N3610 G2 X  83.910 Y  16.324 I  -1.131 J  -1.131
N3615 F1000
N3620 G1 Z  -0.300
N3625 F40
N3630 G2 X  86.173 Y  18.587 I   1.131 J   1.131
N3635 G2 X  83.910 Y  16.324 I  -1.131 J  -1.131
N3640 F1000
N3645 G1 Z   0.050
N3650 G0 Z   0.000 
N3655 M9 M5
N3660 
(* SHAPE Nr: 12 *)
N3665 G0 X  92.737 Y  25.563
N3670 M3 M8
N3675 G0 Z   0.050 
N3680 G1 Z   0.000
N3685 F40
N3690 G2 X  95.000 Y  27.826 I   1.131 J   1.131
N3695 G2 X  92.737 Y  25.563 I  -1.131 J  -1.131
N3700 F1000
N3705 G1 Z  -0.050
N3710 F40
N3715 G2 X  95.000 Y  27.826 I   1.131 J   1.131
N3720 G2 X  92.737 Y  25.563 I  -1.131 J  -1.131
N3725 F1000
N3730 G1 Z  -0.100
N3735 F40
N3740 G2 X  95.000 Y  27.826 I   1.131 J   1.131
N3745 G2 X  92.737 Y  25.563 I  -1.131 J  -1.131
N3750 F1000
N3755 G1 Z  -0.150
N3760 F40
N3765 G2 X  95.000 Y  27.826 I   1.131 J   1.131
N3770 G2 X  92.737 Y  25.563 I  -1.131 J  -1.131
N3775 F1000
N3780 G1 Z  -0.200
N3785 F40
N3790 G2 X  95.000 Y  27.826 I   1.131 J   1.131
N3795 G2 X  92.737 Y  25.563 I  -1.131 J  -1.131
N3800 F1000
N3805 G1 Z  -0.250
N3810 F40
N3815 G2 X  95.000 Y  27.826 I   1.131 J   1.131
N3820 G2 X  92.737 Y  25.563 I  -1.131 J  -1.131
N3825 F1000
N3830 G1 Z  -0.300
N3835 F40
N3840 G2 X  95.000 Y  27.826 I   1.131 J   1.131
N3845 G2 X  92.737 Y  25.563 I  -1.131 J  -1.131
N3850 F1000
N3855 G1 Z   0.050
N3860 G0 Z   0.000 
N3865 M9 M5
N3870 
(* SHAPE Nr: 13 *)
N3875 G0 X  87.737 Y  20.563
N3880 M3 M8
N3885 G0 Z   0.050 
N3890 G1 Z   0.000
N3895 F40
N3900 G2 X  90.000 Y  22.826 I   1.131 J   1.131
N3905 G2 X  87.737 Y  20.563 I  -1.131 J  -1.131
N3910 F1000
N3915 G1 Z  -0.050
N3920 F40
N3925 G2 X  90.000 Y  22.826 I   1.131 J   1.131
N3930 G2 X  87.737 Y  20.563 I  -1.131 J  -1.131
N3935 F1000
N3940 G1 Z  -0.100
N3945 F40
N3950 G2 X  90.000 Y  22.826 I   1.131 J   1.131
N3955 G2 X  87.737 Y  20.563 I  -1.131 J  -1.131
N3960 F1000
N3965 G1 Z  -0.150
N3970 F40
N3975 G2 X  90.000 Y  22.826 I   1.131 J   1.131
N3980 G2 X  87.737 Y  20.563 I  -1.131 J  -1.131
N3985 F1000
N3990 G1 Z  -0.200
N3995 F40
N4000 G2 X  90.000 Y  22.826 I   1.131 J   1.131
N4005 G2 X  87.737 Y  20.563 I  -1.131 J  -1.131
N4010 F1000
N4015 G1 Z  -0.250
N4020 F40
N4025 G2 X  90.000 Y  22.826 I   1.131 J   1.131
N4030 G2 X  87.737 Y  20.563 I  -1.131 J  -1.131
N4035 F1000
N4040 G1 Z  -0.300
N4045 F40
N4050 G2 X  90.000 Y  22.826 I   1.131 J   1.131
N4055 G2 X  87.737 Y  20.563 I  -1.131 J  -1.131
N4060 F1000
N4065 G1 Z   0.050
N4070 G0 Z   0.000 
N4075 M9 M5
N4080 
(* SHAPE Nr: 14 *)
N4085 G0 X  82.737 Y  25.563
N4090 M3 M8
N4095 G0 Z   0.050 
N4100 G1 Z   0.000
N4105 F40
N4110 G2 X  85.000 Y  27.826 I   1.131 J   1.131
N4115 G2 X  82.737 Y  25.563 I  -1.131 J  -1.131
N4120 F1000
N4125 G1 Z  -0.050
N4130 F40
N4135 G2 X  85.000 Y  27.826 I   1.131 J   1.131
N4140 G2 X  82.737 Y  25.563 I  -1.131 J  -1.131
N4145 F1000
N4150 G1 Z  -0.100
N4155 F40
N4160 G2 X  85.000 Y  27.826 I   1.131 J   1.131
N4165 G2 X  82.737 Y  25.563 I  -1.131 J  -1.131
N4170 F1000
N4175 G1 Z  -0.150
N4180 F40
N4185 G2 X  85.000 Y  27.826 I   1.131 J   1.131
N4190 G2 X  82.737 Y  25.563 I  -1.131 J  -1.131
N4195 F1000
N4200 G1 Z  -0.200
N4205 F40
N4210 G2 X  85.000 Y  27.826 I   1.131 J   1.131
N4215 G2 X  82.737 Y  25.563 I  -1.131 J  -1.131
N4220 F1000
N4225 G1 Z  -0.250
N4230 F40
N4235 G2 X  85.000 Y  27.826 I   1.131 J   1.131
N4240 G2 X  82.737 Y  25.563 I  -1.131 J  -1.131
N4245 F1000
N4250 G1 Z  -0.300
N4255 F40
N4260 G2 X  85.000 Y  27.826 I   1.131 J   1.131
N4265 G2 X  82.737 Y  25.563 I  -1.131 J  -1.131
N4270 F1000
N4275 G1 Z   0.050
N4280 G0 Z   0.000 
N4285 M9 M5
N4290 
(* SHAPE Nr: 15 *)
N4295 G0 X  87.737 Y  30.563
N4300 M3 M8
N4305 G0 Z   0.050 
N4310 G1 Z   0.000
N4315 F40
N4320 G2 X  90.000 Y  32.826 I   1.131 J   1.131
N4325 G2 X  87.737 Y  30.563 I  -1.131 J  -1.131
N4330 F1000
N4335 G1 Z  -0.050
N4340 F40
N4345 G2 X  90.000 Y  32.826 I   1.131 J   1.131
N4350 G2 X  87.737 Y  30.563 I  -1.131 J  -1.131
N4355 F1000
N4360 G1 Z  -0.100
N4365 F40
N4370 G2 X  90.000 Y  32.826 I   1.131 J   1.131
N4375 G2 X  87.737 Y  30.563 I  -1.131 J  -1.131
N4380 F1000
N4385 G1 Z  -0.150
N4390 F40
N4395 G2 X  90.000 Y  32.826 I   1.131 J   1.131
N4400 G2 X  87.737 Y  30.563 I  -1.131 J  -1.131
N4405 F1000
N4410 G1 Z  -0.200
N4415 F40
N4420 G2 X  90.000 Y  32.826 I   1.131 J   1.131
N4425 G2 X  87.737 Y  30.563 I  -1.131 J  -1.131
N4430 F1000
N4435 G1 Z  -0.250
N4440 F40
N4445 G2 X  90.000 Y  32.826 I   1.131 J   1.131
N4450 G2 X  87.737 Y  30.563 I  -1.131 J  -1.131
N4455 F1000
N4460 G1 Z  -0.300
N4465 F40
N4470 G2 X  90.000 Y  32.826 I   1.131 J   1.131
N4475 G2 X  87.737 Y  30.563 I  -1.131 J  -1.131
N4480 F1000
N4485 G1 Z   0.050
N4490 G0 Z   0.000 
N4495 M9 M5
N4500 
(* SHAPE Nr: 16 *)
N4505 G0 X  55.177 Y  37.247
N4510 M3 M8
N4515 G0 Z   0.050 
N4520 G1 Z   0.000
N4525 F40
N4530 G2 X  60.206 Y  42.276 I   2.514 J   2.514
N4535 G2 X  55.177 Y  37.247 I  -2.514 J  -2.514
N4540 F1000
N4545 G1 Z  -0.050
N4550 F40
N4555 G2 X  60.206 Y  42.276 I   2.514 J   2.514
N4560 G2 X  55.177 Y  37.247 I  -2.514 J  -2.514
N4565 F1000
N4570 G1 Z  -0.100
N4575 F40
N4580 G2 X  60.206 Y  42.276 I   2.514 J   2.514
N4585 G2 X  55.177 Y  37.247 I  -2.514 J  -2.514
N4590 F1000
N4595 G1 Z  -0.150
N4600 F40
N4605 G2 X  60.206 Y  42.276 I   2.514 J   2.514
N4610 G2 X  55.177 Y  37.247 I  -2.514 J  -2.514
N4615 F1000
N4620 G1 Z  -0.200
N4625 F40
N4630 G2 X  60.206 Y  42.276 I   2.514 J   2.514
N4635 G2 X  55.177 Y  37.247 I  -2.514 J  -2.514
N4640 F1000
N4645 G1 Z  -0.250
N4650 F40
N4655 G2 X  60.206 Y  42.276 I   2.514 J   2.514
N4660 G2 X  55.177 Y  37.247 I  -2.514 J  -2.514
N4665 F1000
N4670 G1 Z  -0.300
N4675 F40
N4680 G2 X  60.206 Y  42.276 I   2.514 J   2.514
N4685 G2 X  55.177 Y  37.247 I  -2.514 J  -2.514
N4690 F1000
N4695 G1 Z   0.050
N4700 G0 Z   0.000 
N4705 M9 M5
N4710 
(*** LAYER: case4 ***)
N4715 
(* SHAPE Nr: 17 *)
N4720 G0 X 149.669 Y  32.563
N4725 M3 M8
N4730 G0 Z   0.050 
N4735 G1 Z   0.000
N4740 F40
N4745 G2 X 151.932 Y  34.826 I   1.131 J   1.131
N4750 G2 X 149.669 Y  32.563 I  -1.131 J  -1.131
N4755 F1000
N4760 G1 Z  -0.050
N4765 F40
N4770 G2 X 151.932 Y  34.826 I   1.131 J   1.131
N4775 G2 X 149.669 Y  32.563 I  -1.131 J  -1.131
N4780 F1000
N4785 G1 Z  -0.100
N4790 F40
N4795 G2 X 151.932 Y  34.826 I   1.131 J   1.131
N4800 G2 X 149.669 Y  32.563 I  -1.131 J  -1.131
N4805 F1000
N4810 G1 Z  -0.150
N4815 F40
N4820 G2 X 151.932 Y  34.826 I   1.131 J   1.131
N4825 G2 X 149.669 Y  32.563 I  -1.131 J  -1.131
N4830 F1000
N4835 G1 Z  -0.200
N4840 F40
N4845 G2 X 151.932 Y  34.826 I   1.131 J   1.131
N4850 G2 X 149.669 Y  32.563 I  -1.131 J  -1.131
N4855 F1000
N4860 G1 Z  -0.250
N4865 F40
N4870 G2 X 151.932 Y  34.826 I   1.131 J   1.131
N4875 G2 X 149.669 Y  32.563 I  -1.131 J  -1.131
N4880 F1000
N4885 G1 Z  -0.300
N4890 F40
N4895 G2 X 151.932 Y  34.826 I   1.131 J   1.131
N4900 G2 X 149.669 Y  32.563 I  -1.131 J  -1.131
N4905 F1000
N4910 G1 Z   0.050
N4915 G0 Z   0.000 
N4920 M9 M5
N4925 
(* SHAPE Nr: 18 *)
N4930 G0 X 149.669 Y  18.563
N4935 M3 M8
N4940 G0 Z   0.050 
N4945 G1 Z   0.000
N4950 F40
N4955 G2 X 151.932 Y  20.826 I   1.131 J   1.131
N4960 G2 X 149.669 Y  18.563 I  -1.131 J  -1.131
N4965 F1000
N4970 G1 Z  -0.050
N4975 F40
N4980 G2 X 151.932 Y  20.826 I   1.131 J   1.131
N4985 G2 X 149.669 Y  18.563 I  -1.131 J  -1.131
N4990 F1000
N4995 G1 Z  -0.100
N5000 F40
N5005 G2 X 151.932 Y  20.826 I   1.131 J   1.131
N5010 G2 X 149.669 Y  18.563 I  -1.131 J  -1.131
N5015 F1000
N5020 G1 Z  -0.150
N5025 F40
N5030 G2 X 151.932 Y  20.826 I   1.131 J   1.131
N5035 G2 X 149.669 Y  18.563 I  -1.131 J  -1.131
N5040 F1000
N5045 G1 Z  -0.200
N5050 F40
N5055 G2 X 151.932 Y  20.826 I   1.131 J   1.131
N5060 G2 X 149.669 Y  18.563 I  -1.131 J  -1.131
N5065 F1000
N5070 G1 Z  -0.250
N5075 F40
N5080 G2 X 151.932 Y  20.826 I   1.131 J   1.131
N5085 G2 X 149.669 Y  18.563 I  -1.131 J  -1.131
N5090 F1000
N5095 G1 Z  -0.300
N5100 F40
N5105 G2 X 151.932 Y  20.826 I   1.131 J   1.131
N5110 G2 X 149.669 Y  18.563 I  -1.131 J  -1.131
N5115 F1000
N5120 G1 Z   0.050
N5125 G0 Z   0.000 
N5130 M9 M5
N5135 
(* SHAPE Nr: 19 *)
N5140 G0 X   5.809 Y  25.563
N5145 M3 M8
N5150 G0 Z   0.050 
N5155 G1 Z   0.000
N5160 F40
N5165 G2 X   8.072 Y  27.826 I   1.131 J   1.131
N5170 G2 X   5.809 Y  25.563 I  -1.131 J  -1.131
N5175 F1000
N5180 G1 Z  -0.050
N5185 F40
N5190 G2 X   8.072 Y  27.826 I   1.131 J   1.131
N5195 G2 X   5.809 Y  25.563 I  -1.131 J  -1.131
N5200 F1000
N5205 G1 Z  -0.100
N5210 F40
N5215 G2 X   8.072 Y  27.826 I   1.131 J   1.131
N5220 G2 X   5.809 Y  25.563 I  -1.131 J  -1.131
N5225 F1000
N5230 G1 Z  -0.150
N5235 F40
N5240 G2 X   8.072 Y  27.826 I   1.131 J   1.131
N5245 G2 X   5.809 Y  25.563 I  -1.131 J  -1.131
N5250 F1000
N5255 G1 Z  -0.200
N5260 F40
N5265 G2 X   8.072 Y  27.826 I   1.131 J   1.131
N5270 G2 X   5.809 Y  25.563 I  -1.131 J  -1.131
N5275 F1000
N5280 G1 Z  -0.250
N5285 F40
N5290 G2 X   8.072 Y  27.826 I   1.131 J   1.131
N5295 G2 X   5.809 Y  25.563 I  -1.131 J  -1.131
N5300 F1000
N5305 G1 Z  -0.300
N5310 F40
N5315 G2 X   8.072 Y  27.826 I   1.131 J   1.131
N5320 G2 X   5.809 Y  25.563 I  -1.131 J  -1.131
N5325 F1000
N5330 G1 Z   0.050
N5335 G0 Z   0.000 
N5340 M9 M5
N5345 
(* SHAPE Nr: 20 *)
N5350 G0 X  14.471 Y  30.945
N5355 M3 M8
N5360 G0 Z   0.050 
N5365 G1 Z   0.000
N5370 F40
N5375 G2 X  16.734 Y  33.208 I   1.131 J   1.131
N5380 G2 X  14.471 Y  30.945 I  -1.131 J  -1.131
N5385 F1000
N5390 G1 Z  -0.050
N5395 F40
N5400 G2 X  16.734 Y  33.208 I   1.131 J   1.131
N5405 G2 X  14.471 Y  30.945 I  -1.131 J  -1.131
N5410 F1000
N5415 G1 Z  -0.100
N5420 F40
N5425 G2 X  16.734 Y  33.208 I   1.131 J   1.131
N5430 G2 X  14.471 Y  30.945 I  -1.131 J  -1.131
N5435 F1000
N5440 G1 Z  -0.150
N5445 F40
N5450 G2 X  16.734 Y  33.208 I   1.131 J   1.131
N5455 G2 X  14.471 Y  30.945 I  -1.131 J  -1.131
N5460 F1000
N5465 G1 Z  -0.200
N5470 F40
N5475 G2 X  16.734 Y  33.208 I   1.131 J   1.131
N5480 G2 X  14.471 Y  30.945 I  -1.131 J  -1.131
N5485 F1000
N5490 G1 Z  -0.250
N5495 F40
N5500 G2 X  16.734 Y  33.208 I   1.131 J   1.131
N5505 G2 X  14.471 Y  30.945 I  -1.131 J  -1.131
N5510 F1000
N5515 G1 Z  -0.300
N5520 F40
N5525 G2 X  16.734 Y  33.208 I   1.131 J   1.131
N5530 G2 X  14.471 Y  30.945 I  -1.131 J  -1.131
N5535 F1000
N5540 G1 Z   0.050
N5545 G0 Z   0.000 
N5550 M9 M5
N5555 
(* SHAPE Nr: 21 *)
N5560 G0 X  58.669 Y   4.563
N5565 M3 M8
N5570 G0 Z   0.050 
N5575 G1 Z   0.000
N5580 F40
N5585 G2 X  60.932 Y   6.826 I   1.131 J   1.131
N5590 G2 X  58.669 Y   4.563 I  -1.131 J  -1.131
N5595 F1000
N5600 G1 Z  -0.050
N5605 F40
N5610 G2 X  60.932 Y   6.826 I   1.131 J   1.131
N5615 G2 X  58.669 Y   4.563 I  -1.131 J  -1.131
N5620 F1000
N5625 G1 Z  -0.100
N5630 F40
N5635 G2 X  60.932 Y   6.826 I   1.131 J   1.131
N5640 G2 X  58.669 Y   4.563 I  -1.131 J  -1.131
N5645 F1000
N5650 G1 Z  -0.150
N5655 F40
N5660 G2 X  60.932 Y   6.826 I   1.131 J   1.131
N5665 G2 X  58.669 Y   4.563 I  -1.131 J  -1.131
N5670 F1000
N5675 G1 Z  -0.200
N5680 F40
N5685 G2 X  60.932 Y   6.826 I   1.131 J   1.131
N5690 G2 X  58.669 Y   4.563 I  -1.131 J  -1.131
N5695 F1000
N5700 G1 Z  -0.250
N5705 F40
N5710 G2 X  60.932 Y   6.826 I   1.131 J   1.131
N5715 G2 X  58.669 Y   4.563 I  -1.131 J  -1.131
N5720 F1000
N5725 G1 Z  -0.300
N5730 F40
N5735 G2 X  60.932 Y   6.826 I   1.131 J   1.131
N5740 G2 X  58.669 Y   4.563 I  -1.131 J  -1.131
N5745 F1000
N5750 G1 Z   0.050
N5755 G0 Z   0.000 
N5760 M9 M5
N5765 
(* SHAPE Nr: 32 *)
N5770 G0 X  15.252 Y 100.333
N5775 M3 M8
N5780 G0 Z   0.050 
N5785 G1 Z   0.000
N5790 F40
N5795 G2 X  17.515 Y 102.596 I   1.131 J   1.131
N5800 G2 X  15.252 Y 100.333 I  -1.131 J  -1.131
N5805 F1000
N5810 G1 Z  -0.050
N5815 F40
N5820 G2 X  17.515 Y 102.596 I   1.131 J   1.131
N5825 G2 X  15.252 Y 100.333 I  -1.131 J  -1.131
N5830 F1000
N5835 G1 Z  -0.100
N5840 F40
N5845 G2 X  17.515 Y 102.596 I   1.131 J   1.131
N5850 G2 X  15.252 Y 100.333 I  -1.131 J  -1.131
N5855 F1000
N5860 G1 Z  -0.150
N5865 F40
N5870 G2 X  17.515 Y 102.596 I   1.131 J   1.131
N5875 G2 X  15.252 Y 100.333 I  -1.131 J  -1.131
N5880 F1000
N5885 G1 Z  -0.200
N5890 F40
N5895 G2 X  17.515 Y 102.596 I   1.131 J   1.131
N5900 G2 X  15.252 Y 100.333 I  -1.131 J  -1.131
N5905 F1000
N5910 G1 Z  -0.250
N5915 F40
N5920 G2 X  17.515 Y 102.596 I   1.131 J   1.131
N5925 G2 X  15.252 Y 100.333 I  -1.131 J  -1.131
N5930 F1000
N5935 G1 Z  -0.300
N5940 F40
N5945 G2 X  17.515 Y 102.596 I   1.131 J   1.131
N5950 G2 X  15.252 Y 100.333 I  -1.131 J  -1.131
N5955 F1000
N5960 G1 Z   0.050
N5965 G0 Z   0.000 
N5970 M9 M5
N5975 
(* SHAPE Nr: 33 *)
N5980 G0 X  14.269 Y  86.367
N5985 M3 M8
N5990 G0 Z   0.050 
N5995 G1 Z   0.000
N6000 F40
N6005 G2 X  16.532 Y  88.630 I   1.131 J   1.131
N6010 G2 X  14.269 Y  86.367 I  -1.131 J  -1.131
N6015 F1000
N6020 G1 Z  -0.050
N6025 F40
N6030 G2 X  16.532 Y  88.630 I   1.131 J   1.131
N6035 G2 X  14.269 Y  86.367 I  -1.131 J  -1.131
N6040 F1000
N6045 G1 Z  -0.100
N6050 F40
N6055 G2 X  16.532 Y  88.630 I   1.131 J   1.131
N6060 G2 X  14.269 Y  86.367 I  -1.131 J  -1.131
N6065 F1000
N6070 G1 Z  -0.150
N6075 F40
N6080 G2 X  16.532 Y  88.630 I   1.131 J   1.131
N6085 G2 X  14.269 Y  86.367 I  -1.131 J  -1.131
N6090 F1000
N6095 G1 Z  -0.200
N6100 F40
N6105 G2 X  16.532 Y  88.630 I   1.131 J   1.131
N6110 G2 X  14.269 Y  86.367 I  -1.131 J  -1.131
N6115 F1000
N6120 G1 Z  -0.250
N6125 F40
N6130 G2 X  16.532 Y  88.630 I   1.131 J   1.131
N6135 G2 X  14.269 Y  86.367 I  -1.131 J  -1.131
N6140 F1000
N6145 G1 Z  -0.300
N6150 F40
N6155 G2 X  16.532 Y  88.630 I   1.131 J   1.131
N6160 G2 X  14.269 Y  86.367 I  -1.131 J  -1.131
N6165 F1000
N6170 G1 Z   0.050
N6175 G0 Z   0.000 
N6180 M9 M5
N6185 
(* SHAPE Nr: 34 *)
N6190 G0 X 158.266 Y  83.245
N6195 M3 M8
N6200 G0 Z   0.050 
N6205 G1 Z   0.000
N6210 F40
N6215 G2 X 160.529 Y  85.507 I   1.131 J   1.131
N6220 G2 X 158.266 Y  83.245 I  -1.131 J  -1.131
N6225 F1000
N6230 G1 Z  -0.050
N6235 F40
N6240 G2 X 160.529 Y  85.507 I   1.131 J   1.131
N6245 G2 X 158.266 Y  83.245 I  -1.131 J  -1.131
N6250 F1000
N6255 G1 Z  -0.100
N6260 F40
N6265 G2 X 160.529 Y  85.507 I   1.131 J   1.131
N6270 G2 X 158.266 Y  83.245 I  -1.131 J  -1.131
N6275 F1000
N6280 G1 Z  -0.150
N6285 F40
N6290 G2 X 160.529 Y  85.507 I   1.131 J   1.131
N6295 G2 X 158.266 Y  83.245 I  -1.131 J  -1.131
N6300 F1000
N6305 G1 Z  -0.200
N6310 F40
N6315 G2 X 160.529 Y  85.507 I   1.131 J   1.131
N6320 G2 X 158.266 Y  83.245 I  -1.131 J  -1.131
N6325 F1000
N6330 G1 Z  -0.250
N6335 F40
N6340 G2 X 160.529 Y  85.507 I   1.131 J   1.131
N6345 G2 X 158.266 Y  83.245 I  -1.131 J  -1.131
N6350 F1000
N6355 G1 Z  -0.300
N6360 F40
N6365 G2 X 160.529 Y  85.507 I   1.131 J   1.131
N6370 G2 X 158.266 Y  83.245 I  -1.131 J  -1.131
N6375 F1000
N6380 G1 Z   0.050
N6385 G0 Z   0.000 
N6390 M9 M5
N6395 
(* SHAPE Nr: 35 *)
N6400 G0 X 150.003 Y  89.222
N6405 M3 M8
N6410 G0 Z   0.050 
N6415 G1 Z   0.000
N6420 F40
N6425 G2 X 152.266 Y  91.485 I   1.131 J   1.131
N6430 G2 X 150.003 Y  89.222 I  -1.131 J  -1.131
N6435 F1000
N6440 G1 Z  -0.050
N6445 F40
N6450 G2 X 152.266 Y  91.485 I   1.131 J   1.131
N6455 G2 X 150.003 Y  89.222 I  -1.131 J  -1.131
N6460 F1000
N6465 G1 Z  -0.100
N6470 F40
N6475 G2 X 152.266 Y  91.485 I   1.131 J   1.131
N6480 G2 X 150.003 Y  89.222 I  -1.131 J  -1.131
N6485 F1000
N6490 G1 Z  -0.150
N6495 F40
N6500 G2 X 152.266 Y  91.485 I   1.131 J   1.131
N6505 G2 X 150.003 Y  89.222 I  -1.131 J  -1.131
N6510 F1000
N6515 G1 Z  -0.200
N6520 F40
N6525 G2 X 152.266 Y  91.485 I   1.131 J   1.131
N6530 G2 X 150.003 Y  89.222 I  -1.131 J  -1.131
N6535 F1000
N6540 G1 Z  -0.250
N6545 F40
N6550 G2 X 152.266 Y  91.485 I   1.131 J   1.131
N6555 G2 X 150.003 Y  89.222 I  -1.131 J  -1.131
N6560 F1000
N6565 G1 Z  -0.300
N6570 F40
N6575 G2 X 152.266 Y  91.485 I   1.131 J   1.131
N6580 G2 X 150.003 Y  89.222 I  -1.131 J  -1.131
N6585 F1000
N6590 G1 Z   0.050
N6595 G0 Z   0.000 
N6600 M9 M5
N6605 
(* SHAPE Nr: 36 *)
N6610 G0 X 104.061 Y  66.010
N6615 M3 M8
N6620 G0 Z   0.050 
N6625 G1 Z   0.000
N6630 F40
N6635 G2 X 106.323 Y  68.272 I   1.131 J   1.131
N6640 G2 X 104.061 Y  66.010 I  -1.131 J  -1.131
N6645 F1000
N6650 G1 Z  -0.050
N6655 F40
N6660 G2 X 106.323 Y  68.272 I   1.131 J   1.131
N6665 G2 X 104.061 Y  66.010 I  -1.131 J  -1.131
N6670 F1000
N6675 G1 Z  -0.100
N6680 F40
N6685 G2 X 106.323 Y  68.272 I   1.131 J   1.131
N6690 G2 X 104.061 Y  66.010 I  -1.131 J  -1.131
N6695 F1000
N6700 G1 Z  -0.150
N6705 F40
N6710 G2 X 106.323 Y  68.272 I   1.131 J   1.131
N6715 G2 X 104.061 Y  66.010 I  -1.131 J  -1.131
N6720 F1000
N6725 G1 Z  -0.200
N6730 F40
N6735 G2 X 106.323 Y  68.272 I   1.131 J   1.131
N6740 G2 X 104.061 Y  66.010 I  -1.131 J  -1.131
N6745 F1000
N6750 G1 Z  -0.250
N6755 F40
N6760 G2 X 106.323 Y  68.272 I   1.131 J   1.131
N6765 G2 X 104.061 Y  66.010 I  -1.131 J  -1.131
N6770 F1000
N6775 G1 Z  -0.300
N6780 F40
N6785 G2 X 106.323 Y  68.272 I   1.131 J   1.131
N6790 G2 X 104.061 Y  66.010 I  -1.131 J  -1.131
N6795 F1000
N6800 G1 Z   0.050
N6805 G0 Z   0.000 
N6810 M9 M5
N6815 
(*** LAYER: case3 ***)
N6820 
(* SHAPE Nr: 22 *)
N6825 G0 X 103.991 Y  87.067
N6830 M3 M8
N6835 G0 Z   0.050 
N6840 G1 Z   0.000
N6845 F40
N6850 G2 X 106.254 Y  89.329 I   1.131 J   1.131
N6855 G2 X 103.991 Y  87.067 I  -1.131 J  -1.131
N6860 F1000
N6865 G1 Z  -0.050
N6870 F40
N6875 G2 X 106.254 Y  89.329 I   1.131 J   1.131
N6880 G2 X 103.991 Y  87.067 I  -1.131 J  -1.131
N6885 F1000
N6890 G1 Z  -0.100
N6895 F40
N6900 G2 X 106.254 Y  89.329 I   1.131 J   1.131
N6905 G2 X 103.991 Y  87.067 I  -1.131 J  -1.131
N6910 F1000
N6915 G1 Z  -0.150
N6920 F40
N6925 G2 X 106.254 Y  89.329 I   1.131 J   1.131
N6930 G2 X 103.991 Y  87.067 I  -1.131 J  -1.131
N6935 F1000
N6940 G1 Z  -0.200
N6945 F40
N6950 G2 X 106.254 Y  89.329 I   1.131 J   1.131
N6955 G2 X 103.991 Y  87.067 I  -1.131 J  -1.131
N6960 F1000
N6965 G1 Z  -0.250
N6970 F40
N6975 G2 X 106.254 Y  89.329 I   1.131 J   1.131
N6980 G2 X 103.991 Y  87.067 I  -1.131 J  -1.131
N6985 F1000
N6990 G1 Z  -0.300
N6995 F40
N7000 G2 X 106.254 Y  89.329 I   1.131 J   1.131
N7005 G2 X 103.991 Y  87.067 I  -1.131 J  -1.131
N7010 F1000
N7015 G1 Z   0.050
N7020 G0 Z   0.000 
N7025 M9 M5
N7030 
(* SHAPE Nr: 23 *)
N7035 G0 X 141.897 Y  84.397
N7040 M3 M8
N7045 G0 Z   0.050 
N7050 G1 Z   0.000
N7055 F40
N7060 G2 X 144.160 Y  86.660 I   1.131 J   1.131
N7065 G2 X 141.897 Y  84.397 I  -1.131 J  -1.131
N7070 F1000
N7075 G1 Z  -0.050
N7080 F40
N7085 G2 X 144.160 Y  86.660 I   1.131 J   1.131
N7090 G2 X 141.897 Y  84.397 I  -1.131 J  -1.131
N7095 F1000
N7100 G1 Z  -0.100
N7105 F40
N7110 G2 X 144.160 Y  86.660 I   1.131 J   1.131
N7115 G2 X 141.897 Y  84.397 I  -1.131 J  -1.131
N7120 F1000
N7125 G1 Z  -0.150
N7130 F40
N7135 G2 X 144.160 Y  86.660 I   1.131 J   1.131
N7140 G2 X 141.897 Y  84.397 I  -1.131 J  -1.131
N7145 F1000
N7150 G1 Z  -0.200
N7155 F40
N7160 G2 X 144.160 Y  86.660 I   1.131 J   1.131
N7165 G2 X 141.897 Y  84.397 I  -1.131 J  -1.131
N7170 F1000
N7175 G1 Z  -0.250
N7180 F40
N7185 G2 X 144.160 Y  86.660 I   1.131 J   1.131
N7190 G2 X 141.897 Y  84.397 I  -1.131 J  -1.131
N7195 F1000
N7200 G1 Z  -0.300
N7205 F40
N7210 G2 X 144.160 Y  86.660 I   1.131 J   1.131
N7215 G2 X 141.897 Y  84.397 I  -1.131 J  -1.131
N7220 F1000
N7225 G1 Z   0.050
N7230 G0 Z   0.000 
N7235 M9 M5
N7240 
(* SHAPE Nr: 24 *)
N7245 G0 X  59.783 Y 105.868
N7250 M3 M8
N7255 G0 Z   0.050 
N7260 G1 Z   0.000
N7265 F40
N7270 G2 X  62.046 Y 108.131 I   1.131 J   1.131
N7275 G2 X  59.783 Y 105.868 I  -1.131 J  -1.131
N7280 F1000
N7285 G1 Z  -0.050
N7290 F40
N7295 G2 X  62.046 Y 108.131 I   1.131 J   1.131
N7300 G2 X  59.783 Y 105.868 I  -1.131 J  -1.131
N7305 F1000
N7310 G1 Z  -0.100
N7315 F40
N7320 G2 X  62.046 Y 108.131 I   1.131 J   1.131
N7325 G2 X  59.783 Y 105.868 I  -1.131 J  -1.131
N7330 F1000
N7335 G1 Z  -0.150
N7340 F40
N7345 G2 X  62.046 Y 108.131 I   1.131 J   1.131
N7350 G2 X  59.783 Y 105.868 I  -1.131 J  -1.131
N7355 F1000
N7360 G1 Z  -0.200
N7365 F40
N7370 G2 X  62.046 Y 108.131 I   1.131 J   1.131
N7375 G2 X  59.783 Y 105.868 I  -1.131 J  -1.131
N7380 F1000
N7385 G1 Z  -0.250
N7390 F40
N7395 G2 X  62.046 Y 108.131 I   1.131 J   1.131
N7400 G2 X  59.783 Y 105.868 I  -1.131 J  -1.131
N7405 F1000
N7410 G1 Z  -0.300
N7415 F40
N7420 G2 X  62.046 Y 108.131 I   1.131 J   1.131
N7425 G2 X  59.783 Y 105.868 I  -1.131 J  -1.131
N7430 F1000
N7435 G1 Z   0.050
N7440 G0 Z   0.000 
N7445 M9 M5
N7450 
(* SHAPE Nr: 25 *)
N7455 G0 X  95.495 Y 103.354
N7460 M3 M8
N7465 G0 Z   0.050 
N7470 G1 Z   0.000
N7475 F40
N7480 G2 X  97.758 Y 105.616 I   1.131 J   1.131
N7485 G2 X  95.495 Y 103.354 I  -1.131 J  -1.131
N7490 F1000
N7495 G1 Z  -0.050
N7500 F40
N7505 G2 X  97.758 Y 105.616 I   1.131 J   1.131
N7510 G2 X  95.495 Y 103.354 I  -1.131 J  -1.131
N7515 F1000
N7520 G1 Z  -0.100
N7525 F40
N7530 G2 X  97.758 Y 105.616 I   1.131 J   1.131
N7535 G2 X  95.495 Y 103.354 I  -1.131 J  -1.131
N7540 F1000
N7545 G1 Z  -0.150
N7550 F40
N7555 G2 X  97.758 Y 105.616 I   1.131 J   1.131
N7560 G2 X  95.495 Y 103.354 I  -1.131 J  -1.131
N7565 F1000
N7570 G1 Z  -0.200
N7575 F40
N7580 G2 X  97.758 Y 105.616 I   1.131 J   1.131
N7585 G2 X  95.495 Y 103.354 I  -1.131 J  -1.131
N7590 F1000
N7595 G1 Z  -0.250
N7600 F40
N7605 G2 X  97.758 Y 105.616 I   1.131 J   1.131
N7610 G2 X  95.495 Y 103.354 I  -1.131 J  -1.131
N7615 F1000
N7620 G1 Z  -0.300
N7625 F40
N7630 G2 X  97.758 Y 105.616 I   1.131 J   1.131
N7635 G2 X  95.495 Y 103.354 I  -1.131 J  -1.131
N7640 F1000
N7645 G1 Z   0.050
N7650 G0 Z   0.000 
N7655 M9 M5
N7660 
(* SHAPE Nr: 26 *)
N7665 G0 X  93.296 Y  72.131
N7670 M3 M8
N7675 G0 Z   0.050 
N7680 G1 Z   0.000
N7685 F40
N7690 G2 X  95.559 Y  74.394 I   1.131 J   1.131
N7695 G2 X  93.296 Y  72.131 I  -1.131 J  -1.131
N7700 F1000
N7705 G1 Z  -0.050
N7710 F40
N7715 G2 X  95.559 Y  74.394 I   1.131 J   1.131
N7720 G2 X  93.296 Y  72.131 I  -1.131 J  -1.131
N7725 F1000
N7730 G1 Z  -0.100
N7735 F40
N7740 G2 X  95.559 Y  74.394 I   1.131 J   1.131
N7745 G2 X  93.296 Y  72.131 I  -1.131 J  -1.131
N7750 F1000
N7755 G1 Z  -0.150
N7760 F40
N7765 G2 X  95.559 Y  74.394 I   1.131 J   1.131
N7770 G2 X  93.296 Y  72.131 I  -1.131 J  -1.131
N7775 F1000
N7780 G1 Z  -0.200
N7785 F40
N7790 G2 X  95.559 Y  74.394 I   1.131 J   1.131
N7795 G2 X  93.296 Y  72.131 I  -1.131 J  -1.131
N7800 F1000
N7805 G1 Z  -0.250
N7810 F40
N7815 G2 X  95.559 Y  74.394 I   1.131 J   1.131
N7820 G2 X  93.296 Y  72.131 I  -1.131 J  -1.131
N7825 F1000
N7830 G1 Z  -0.300
N7835 F40
N7840 G2 X  95.559 Y  74.394 I   1.131 J   1.131
N7845 G2 X  93.296 Y  72.131 I  -1.131 J  -1.131
N7850 F1000
N7855 G1 Z   0.050
N7860 G0 Z   0.000 
N7865 M9 M5
N7870 
(* SHAPE Nr: 27 *)
N7875 G0 X  57.585 Y  74.646
N7880 M3 M8
N7885 G0 Z   0.050 
N7890 G1 Z   0.000
N7895 F40
N7900 G2 X  59.847 Y  76.908 I   1.131 J   1.131
N7905 G2 X  57.585 Y  74.646 I  -1.131 J  -1.131
N7910 F1000
N7915 G1 Z  -0.050
N7920 F40
N7925 G2 X  59.847 Y  76.908 I   1.131 J   1.131
N7930 G2 X  57.585 Y  74.646 I  -1.131 J  -1.131
N7935 F1000
N7940 G1 Z  -0.100
N7945 F40
N7950 G2 X  59.847 Y  76.908 I   1.131 J   1.131
N7955 G2 X  57.585 Y  74.646 I  -1.131 J  -1.131
N7960 F1000
N7965 G1 Z  -0.150
N7970 F40
N7975 G2 X  59.847 Y  76.908 I   1.131 J   1.131
N7980 G2 X  57.585 Y  74.646 I  -1.131 J  -1.131
N7985 F1000
N7990 G1 Z  -0.200
N7995 F40
N8000 G2 X  59.847 Y  76.908 I   1.131 J   1.131
N8005 G2 X  57.585 Y  74.646 I  -1.131 J  -1.131
N8010 F1000
N8015 G1 Z  -0.250
N8020 F40
N8025 G2 X  59.847 Y  76.908 I   1.131 J   1.131
N8030 G2 X  57.585 Y  74.646 I  -1.131 J  -1.131
N8035 F1000
N8040 G1 Z  -0.300
N8045 F40
N8050 G2 X  59.847 Y  76.908 I   1.131 J   1.131
N8055 G2 X  57.585 Y  74.646 I  -1.131 J  -1.131
N8060 F1000
N8065 G1 Z   0.050
N8070 G0 Z   0.000 
N8075 M9 M5
N8080 
(* SHAPE Nr: 28 *)
N8085 G0 X  20.612 Y 101.710
N8090 M3 M8
N8095 G0 Z   0.050 
N8100 G1 Z   0.000
N8105 F40
N8110 G2 X  22.875 Y 103.972 I   1.131 J   1.131
N8115 G2 X  20.612 Y 101.710 I  -1.131 J  -1.131
N8120 F1000
N8125 G1 Z  -0.050
N8130 F40
N8135 G2 X  22.875 Y 103.972 I   1.131 J   1.131
N8140 G2 X  20.612 Y 101.710 I  -1.131 J  -1.131
N8145 F1000
N8150 G1 Z  -0.100
N8155 F40
N8160 G2 X  22.875 Y 103.972 I   1.131 J   1.131
N8165 G2 X  20.612 Y 101.710 I  -1.131 J  -1.131
N8170 F1000
N8175 G1 Z  -0.150
N8180 F40
N8185 G2 X  22.875 Y 103.972 I   1.131 J   1.131
N8190 G2 X  20.612 Y 101.710 I  -1.131 J  -1.131
N8195 F1000
N8200 G1 Z  -0.200
N8205 F40
N8210 G2 X  22.875 Y 103.972 I   1.131 J   1.131
N8215 G2 X  20.612 Y 101.710 I  -1.131 J  -1.131
N8220 F1000
N8225 G1 Z  -0.250
N8230 F40
N8235 G2 X  22.875 Y 103.972 I   1.131 J   1.131
N8240 G2 X  20.612 Y 101.710 I  -1.131 J  -1.131
N8245 F1000
N8250 G1 Z  -0.300
N8255 F40
N8260 G2 X  22.875 Y 103.972 I   1.131 J   1.131
N8265 G2 X  20.612 Y 101.710 I  -1.131 J  -1.131
N8270 F1000
N8275 G1 Z   0.050
N8280 G0 Z   0.000 
N8285 M9 M5
N8290 
(* SHAPE Nr: 29 *)
N8295 G0 X  40.064 Y 100.340
N8300 M3 M8
N8305 G0 Z   0.050 
N8310 G1 Z   0.000
N8315 F40
N8320 G2 X  42.327 Y 102.603 I   1.131 J   1.131
N8325 G2 X  40.064 Y 100.340 I  -1.131 J  -1.131
N8330 F1000
N8335 G1 Z  -0.050
N8340 F40
N8345 G2 X  42.327 Y 102.603 I   1.131 J   1.131
N8350 G2 X  40.064 Y 100.340 I  -1.131 J  -1.131
N8355 F1000
N8360 G1 Z  -0.100
N8365 F40
N8370 G2 X  42.327 Y 102.603 I   1.131 J   1.131
N8375 G2 X  40.064 Y 100.340 I  -1.131 J  -1.131
N8380 F1000
N8385 G1 Z  -0.150
N8390 F40
N8395 G2 X  42.327 Y 102.603 I   1.131 J   1.131
N8400 G2 X  40.064 Y 100.340 I  -1.131 J  -1.131
N8405 F1000
N8410 G1 Z  -0.200
N8415 F40
N8420 G2 X  42.327 Y 102.603 I   1.131 J   1.131
N8425 G2 X  40.064 Y 100.340 I  -1.131 J  -1.131
N8430 F1000
N8435 G1 Z  -0.250
N8440 F40
N8445 G2 X  42.327 Y 102.603 I   1.131 J   1.131
N8450 G2 X  40.064 Y 100.340 I  -1.131 J  -1.131
N8455 F1000
N8460 G1 Z  -0.300
N8465 F40
N8470 G2 X  42.327 Y 102.603 I   1.131 J   1.131
N8475 G2 X  40.064 Y 100.340 I  -1.131 J  -1.131
N8480 F1000
N8485 G1 Z   0.050
N8490 G0 Z   0.000 
N8495 M9 M5
N8500 
(* SHAPE Nr: 30 *)
N8505 G0 X  38.835 Y  82.883
N8510 M3 M8
N8515 G0 Z   0.050 
N8520 G1 Z   0.000
N8525 F40
N8530 G2 X  41.098 Y  85.146 I   1.131 J   1.131
N8535 G2 X  38.835 Y  82.883 I  -1.131 J  -1.131
N8540 F1000
N8545 G1 Z  -0.050
N8550 F40
N8555 G2 X  41.098 Y  85.146 I   1.131 J   1.131
N8560 G2 X  38.835 Y  82.883 I  -1.131 J  -1.131
N8565 F1000
N8570 G1 Z  -0.100
N8575 F40
N8580 G2 X  41.098 Y  85.146 I   1.131 J   1.131
N8585 G2 X  38.835 Y  82.883 I  -1.131 J  -1.131
N8590 F1000
N8595 G1 Z  -0.150
N8600 F40
N8605 G2 X  41.098 Y  85.146 I   1.131 J   1.131
N8610 G2 X  38.835 Y  82.883 I  -1.131 J  -1.131
N8615 F1000
N8620 G1 Z  -0.200
N8625 F40
N8630 G2 X  41.098 Y  85.146 I   1.131 J   1.131
N8635 G2 X  38.835 Y  82.883 I  -1.131 J  -1.131
N8640 F1000
N8645 G1 Z  -0.250
N8650 F40
N8655 G2 X  41.098 Y  85.146 I   1.131 J   1.131
N8660 G2 X  38.835 Y  82.883 I  -1.131 J  -1.131
N8665 F1000
N8670 G1 Z  -0.300
N8675 F40
N8680 G2 X  41.098 Y  85.146 I   1.131 J   1.131
N8685 G2 X  38.835 Y  82.883 I  -1.131 J  -1.131
N8690 F1000
N8695 G1 Z   0.050
N8700 G0 Z   0.000 
N8705 M9 M5
N8710 
(* SHAPE Nr: 31 *)
N8715 G0 X  19.383 Y  84.253
N8720 M3 M8
N8725 G0 Z   0.050 
N8730 G1 Z   0.000
N8735 F40
N8740 G2 X  21.646 Y  86.516 I   1.131 J   1.131
N8745 G2 X  19.383 Y  84.253 I  -1.131 J  -1.131
N8750 F1000
N8755 G1 Z  -0.050
N8760 F40
N8765 G2 X  21.646 Y  86.516 I   1.131 J   1.131
N8770 G2 X  19.383 Y  84.253 I  -1.131 J  -1.131
N8775 F1000
N8780 G1 Z  -0.100
N8785 F40
N8790 G2 X  21.646 Y  86.516 I   1.131 J   1.131
N8795 G2 X  19.383 Y  84.253 I  -1.131 J  -1.131
N8800 F1000
N8805 G1 Z  -0.150
N8810 F40
N8815 G2 X  21.646 Y  86.516 I   1.131 J   1.131
N8820 G2 X  19.383 Y  84.253 I  -1.131 J  -1.131
N8825 F1000
N8830 G1 Z  -0.200
N8835 F40
N8840 G2 X  21.646 Y  86.516 I   1.131 J   1.131
N8845 G2 X  19.383 Y  84.253 I  -1.131 J  -1.131
N8850 F1000
N8855 G1 Z  -0.250
N8860 F40
N8865 G2 X  21.646 Y  86.516 I   1.131 J   1.131
N8870 G2 X  19.383 Y  84.253 I  -1.131 J  -1.131
N8875 F1000
N8880 G1 Z  -0.300
N8885 F40
N8890 G2 X  21.646 Y  86.516 I   1.131 J   1.131
N8895 G2 X  19.383 Y  84.253 I  -1.131 J  -1.131
N8900 F1000
N8905 G1 Z   0.050
N8910 G0 Z   0.000 
N8915 M9 M5
N8920 
(*** LAYER: case6 ***)
N8925 
(* SHAPE Nr: 39 *)
N8930 G0 X  36.916 Y  45.588
N8935 M3 M8
N8940 G0 Z   0.050 
N8945 G1 Z   0.000
N8950 F40
N8955 G2 X 167.801 Y  26.694 I  46.984 J-137.315
N8960 G2 X   0.001 Y  26.694 I -83.900 J 118.421
N8965 G2 X  11.792 Y  34.222 I  83.900 J-118.421
N8970 G3 X   0.002 Y  54.406 I  -7.241 J   9.306
N8975 G2 X  35.018 Y  46.313 I  13.826 J -19.979
N8980 F1000
N8985 G1 Z  -0.050
N8990 F40
N8995 G3 X   0.002 Y  54.406 I -21.190 J -11.886
N9000 G2 X  11.792 Y  34.222 I   4.549 J -10.878
N9005 G3 X   0.001 Y  26.694 I  72.109 J-125.949
N9010 G3 X 167.801 Y  26.694 I  83.900 J 118.421
N9015 G3 X  36.916 Y  45.588 I -83.900 J-118.421
N9020 F1000
N9025 G1 Z  -0.100
N9030 F40
N9035 G2 X 167.801 Y  26.694 I  46.984 J-137.315
N9040 G2 X   0.001 Y  26.694 I -83.900 J 118.421
N9045 G2 X  11.792 Y  34.222 I  83.900 J-118.421
N9050 G3 X   0.002 Y  54.406 I  -7.241 J   9.306
N9055 G2 X  35.018 Y  46.313 I  13.826 J -19.979
N9060 F1000
N9065 G1 Z  -0.150
N9070 F40
N9075 G3 X   0.002 Y  54.406 I -21.190 J -11.886
N9080 G2 X  11.792 Y  34.222 I   4.549 J -10.878
N9085 G3 X   0.001 Y  26.694 I  72.109 J-125.949
N9090 G3 X 167.801 Y  26.694 I  83.900 J 118.421
N9095 G3 X  36.916 Y  45.588 I -83.900 J-118.421
N9100 F1000
N9105 G1 Z  -0.200
N9110 F40
N9115 G2 X 167.801 Y  26.694 I  46.984 J-137.315
N9120 G2 X   0.001 Y  26.694 I -83.900 J 118.421
N9125 G2 X  11.792 Y  34.222 I  83.900 J-118.421
N9130 G3 X   0.002 Y  54.406 I  -7.241 J   9.306
N9135 G2 X  35.018 Y  46.313 I  13.826 J -19.979
N9140 F1000
N9145 G1 Z  -0.250
N9150 F40
N9155 G3 X   0.002 Y  54.406 I -21.190 J -11.886
N9160 G2 X  11.792 Y  34.222 I   4.549 J -10.878
N9165 G3 X   0.001 Y  26.694 I  72.109 J-125.949
N9170 G3 X 167.801 Y  26.694 I  83.900 J 118.421
N9175 G3 X  36.916 Y  45.588 I -83.900 J-118.421
N9180 F1000
N9185 G1 Z  -0.300
N9190 F40
N9195 G2 X 167.801 Y  26.694 I  46.984 J-137.315
N9200 G2 X   0.001 Y  26.694 I -83.900 J 118.421
N9205 G2 X  11.792 Y  34.222 I  83.900 J-118.421
N9210 G3 X   0.002 Y  54.406 I  -7.241 J   9.306
N9215 G2 X  35.018 Y  46.313 I  13.826 J -19.979
N9220 F1000
N9225 G1 Z   0.050
N9230 G0 Z   0.000 
N9235 M9 M5
N9240 
(* SHAPE Nr: 43 *)
N9245 G0 X 132.767 Y 105.919
N9250 M3 M8
N9255 G0 Z   0.050 
N9260 G1 Z   0.000
N9265 F40
N9270 G2 X 168.265 Y 111.532 I  20.303 J -13.345
N9275 G3 X 155.086 Y  92.226 I  -5.302 J -10.532
N9280 G2 X 166.319 Y  83.889 I -80.778 J-120.572
N9285 G2 X  -1.066 Y  95.676 I -75.374 J 124.022
N9290 G2 X 130.822 Y 105.328 I  75.374 J-124.022
N9295 F1000
N9300 G1 Z  -0.050
N9305 F40
N9310 G3 X  -1.066 Y  95.676 I -56.514 J-133.675
N9315 G3 X 166.319 Y  83.889 I  92.011 J 112.235
N9320 G3 X 155.086 Y  92.226 I -92.011 J-112.235
N9325 G2 X 168.265 Y 111.532 I   7.877 J   8.774
N9330 G3 X 132.767 Y 105.919 I -15.195 J -18.958
N9335 F1000
N9340 G1 Z  -0.100
N9345 F40
N9350 G2 X 168.265 Y 111.532 I  20.303 J -13.345
N9355 G3 X 155.086 Y  92.226 I  -5.302 J -10.532
N9360 G2 X 166.319 Y  83.889 I -80.778 J-120.572
N9365 G2 X  -1.066 Y  95.676 I -75.374 J 124.022
N9370 G2 X 130.822 Y 105.328 I  75.374 J-124.022
N9375 F1000
N9380 G1 Z  -0.150
N9385 F40
N9390 G3 X  -1.066 Y  95.676 I -56.514 J-133.675
N9395 G3 X 166.319 Y  83.889 I  92.011 J 112.235
N9400 G3 X 155.086 Y  92.226 I -92.011 J-112.235
N9405 G2 X 168.265 Y 111.532 I   7.877 J   8.774
N9410 G3 X 132.767 Y 105.919 I -15.195 J -18.958
N9415 F1000
N9420 G1 Z  -0.200
N9425 F40
N9430 G2 X 168.265 Y 111.532 I  20.303 J -13.345
N9435 G3 X 155.086 Y  92.226 I  -5.302 J -10.532
N9440 G2 X 166.319 Y  83.889 I -80.778 J-120.572
N9445 G2 X  -1.066 Y  95.676 I -75.374 J 124.022
N9450 G2 X 130.822 Y 105.328 I  75.374 J-124.022
N9455 F1000
N9460 G1 Z  -0.250
N9465 F40
N9470 G3 X  -1.066 Y  95.676 I -56.514 J-133.675
N9475 G3 X 166.319 Y  83.889 I  92.011 J 112.235
N9480 G3 X 155.086 Y  92.226 I -92.011 J-112.235
N9485 G2 X 168.265 Y 111.532 I   7.877 J   8.774
N9490 G3 X 132.767 Y 105.919 I -15.195 J -18.958
N9495 F1000
N9500 G1 Z  -0.300
N9505 F40
N9510 G2 X 168.265 Y 111.532 I  20.303 J -13.345
N9515 G3 X 155.086 Y  92.226 I  -5.302 J -10.532
N9520 G2 X 166.319 Y  83.889 I -80.778 J-120.572
N9525 G2 X  -1.066 Y  95.676 I -75.374 J 124.022
N9530 G2 X 130.822 Y 105.328 I  75.374 J-124.022
N9535 F1000
N9540 G1 Z   0.050
N9545 G0 Z   0.000 
N9550 M9 M5
N9555 G0 X   0.000 Y   0.000
N9560 M2 (Program end)