N10 (Generated with: DXF2GCODE, Version: Py3.6.7 PyQt5.11.3, Date: $Date: Fri Oct 25 20:45:56 2019 +0200 $)
N15 (Created from file: C:/Users/wryan/SkyDrive/cad/5x7 laser gun/plot-handle.dxf)
N20 (Output format description: G-CODE for LinuxCNC)
N25 (Time: Sat Feb 22 22:45:16 2020)
N30 G21 (Units in millimeters)
N35 G90 (Absolute programming)
N40 G64 (Default cutting) 
N45 G17 (XY plane) 
N50 G40 (Cancel radius comp.) 
N55 G49 (Cancel length comp.)
N60 G0 Z  10.000 
N65 
(*** LAYER: handle4 ***)
N70 T1 M6
N75 S10000
N80 
(* SHAPE Nr: 17 *)
N85 G0 X  21.738 Y  52.459
N90 M3 M8
N95 G0 Z   0.100 
N100 F30
N105 G1 Z  -0.130
N110 F400
N115 G1 X  15.590 Y  77.451
N120 G1 X   9.442 Y 102.443
N125 G2 X  10.530 Y 106.976 I   4.933 J   1.213
N130 G1 X  12.243 Y 108.960
N135 G2 X  12.358 Y 109.080 I   1.196 J  -1.033
N140 G2 X  23.122 Y 118.251 I 100.419 J-106.958
N145 G2 X  25.296 Y 118.018 I   0.966 J  -1.251
N150 G3 X  49.398 Y 107.015 I  23.666 J  19.939
N155 G1 X 109.008 Y 112.708
N160 G2 X 109.009 Y 112.708 I   0.150 J  -1.573
N165 G3 X 109.025 Y 112.720 I  -0.002 J   0.020
N170 G2 X 109.171 Y 113.117 I  14.990 J  -5.270
N175 G2 X 109.722 Y 114.368 I  12.739 J  -4.864
N180 G2 X 110.419 Y 115.553 I   9.151 J  -4.591
N185 G2 X 111.303 Y 116.635 I   6.753 J  -4.614
N190 G2 X 112.428 Y 117.566 I   4.835 J  -4.692
N195 G2 X 113.963 Y 118.298 I   3.387 J  -5.133
N200 G2 X 114.521 Y 118.446 I   1.903 J  -6.029
N205 G2 X 115.314 Y 118.564 I   1.269 J  -5.827
N210 G2 X 117.311 Y 118.347 I   0.429 J  -5.356
N215 G2 X 118.526 Y 117.822 I  -1.730 J  -5.673
N220 G2 X 119.532 Y 117.128 I  -3.595 J  -6.282
N225 G2 X 120.315 Y 116.400 I  -5.701 J  -6.925
N230 G2 X 121.117 Y 115.465 I  -8.194 J  -7.831
N235 G2 X 121.855 Y 114.413 I -12.220 J  -9.367
N240 G2 X 122.071 Y 114.058 I  -7.065 J  -4.533
N245 G2 X 122.394 Y 113.445 I  -8.327 J  -4.780
N250 G2 X 122.897 Y 112.272 I -13.199 J  -6.357
N255 G2 X 123.324 Y 111.029 I -19.920 J  -7.537
N260 G2 X 123.807 Y 109.297 I -30.352 J  -9.389
N265 G2 X 124.311 Y 107.039 I -47.371 J -11.763
N270 G2 X 124.775 Y 104.458 I -71.147 J -14.126
N275 G2 X 125.204 Y 101.529 I-102.193 J -16.475
N280 G2 X 125.629 Y  97.971 I-142.069 J -18.752
N285 G2 X 126.009 Y  94.044 I-204.311 J -21.786
N290 G2 X 126.314 Y  90.111 I-204.692 J -17.859
N295 G2 X 126.513 Y  86.533 I-142.972 J  -9.712
N300 G2 X 126.597 Y  83.574 I-103.418 J  -4.432
N305 G2 X 126.587 Y  80.952 I -72.529 J  -1.032
N310 G2 X 126.481 Y  78.641 I -48.798 J   1.070
N315 G2 X 126.306 Y  76.851 I -31.695 J   2.201
N320 G2 X 126.101 Y  75.552 I -21.129 J   2.675
N325 G2 X 125.808 Y  74.310 I -14.393 J   2.733
N330 G2 X 125.596 Y  73.650 I  -9.241 J   2.605
N335 G2 X 125.446 Y  73.264 I  -7.894 J   2.855
N340 G2 X 124.900 Y  72.100 I -14.203 J   5.945
N345 G2 X 124.273 Y  71.040 I -10.054 J   5.233
N350 G2 X 123.627 Y  70.187 I  -7.460 J   4.980
N355 G2 X 122.757 Y  69.330 I  -5.499 J   4.707
N360 G2 X 121.651 Y  68.602 I  -3.793 J   4.560
N365 G2 X 119.722 Y  68.043 I  -2.434 J   4.791
N370 G2 X 118.921 Y  68.021 I  -0.561 J   5.937
N375 G2 X 118.345 Y  68.071 I   0.255 J   6.317
N380 G2 X 116.707 Y  68.525 I   0.808 J   6.097
N385 G2 X 115.438 Y  69.248 I   2.680 J   6.181
N390 G2 X 114.380 Y  70.161 I   4.794 J   6.626
N395 G2 X 113.488 Y  71.206 I   7.325 J   7.152
N400 G2 X 112.728 Y  72.343 I  10.945 J   8.133
N405 G2 X 112.516 Y  72.709 I  13.638 J   8.152
N410 G3 X 112.498 Y  72.718 I  -0.016 J  -0.012
N415 G2 X 112.497 Y  72.718 I  -0.125 J   1.575
N420 G1 X  52.738 Y  67.997
N425 G2 X  51.906 Y  68.159 I  -0.124 J   1.575
N430 G3 X  49.968 Y  69.104 I -45.205 J -90.266
N435 G3 X  47.308 Y  70.306 I -33.944 J -71.558
N440 G3 X  44.738 Y  71.340 I -22.922 J -53.311
N445 G3 X  42.419 Y  72.130 I -14.471 J -38.641
N450 G3 X  40.436 Y  72.664 I  -8.376 J -27.180
N455 G3 X  39.600 Y  72.838 I  -4.514 J -19.567
N460 G3 X  38.761 Y  72.991 I -20.873 J-112.042
N465 G3 X  36.890 Y  73.302 I -14.061 J -78.745
N470 G3 X  35.290 Y  73.515 I  -5.861 J -38.012
N475 G3 X  34.314 Y  73.593 I  -1.750 J -15.697
N480 G3 X  33.822 Y  73.596 I  -0.273 J  -5.558
N485 G3 X  33.719 Y  73.588 I   0.059 J  -1.501
N490 G3 X  33.527 Y  73.557 I   0.215 J  -1.976
N495 G3 X  33.420 Y  73.528 I   0.180 J  -0.860
N500 G3 X  33.356 Y  73.190 I   5.761 J  -1.268
N505 G3 X  33.242 Y  72.306 I  14.587 J  -2.329
N510 G3 X  33.130 Y  70.808 I  32.835 J  -3.227
N515 G3 X  33.043 Y  69.059 I 275.863 J -14.477
N520 G3 X  32.800 Y  63.577 I1588.271 J -73.259
N525 G2 X  32.798 Y  63.538 I  -1.579 J   0.067
N530 G1 X  32.690 Y  61.936
N535 G1 X  32.582 Y  60.334
N540 G2 X  32.581 Y  60.328 I  -1.576 J   0.106
N545 G2 X  32.402 Y  58.081 I-135.126 J   9.659
N550 G2 X  32.334 Y  57.357 I -57.269 J   5.052
N555 G2 X  32.329 Y  57.310 I -39.507 J   3.989
N560 G2 X  32.318 Y  57.209 I-186.199 J  19.028
N565 G3 X  32.166 Y  55.700 I 493.988 J -50.752
N570 G3 X  32.097 Y  55.001 I 405.749 J -40.435
N575 G2 X  32.087 Y  54.907 I -29.879 J   2.926
N580 G2 X  32.065 Y  54.710 I  -8.449 J   0.854
N585 G2 X  31.819 Y  53.314 I -14.039 J   1.752
N590 G2 X  31.522 Y  52.165 I -19.843 J   4.528
N595 G2 X  31.509 Y  52.124 I  -1.517 J   0.441
N600 G2 X  21.738 Y  52.459 I  -4.838 J   1.548
N605 F30
N610 G1 Z  -0.260
N615 F400
N620 G1 X  15.590 Y  77.451
N625 G1 X   9.442 Y 102.443
N630 G2 X  10.530 Y 106.976 I   4.933 J   1.213
N635 G1 X  12.243 Y 108.960
N640 G2 X  12.358 Y 109.080 I   1.196 J  -1.033
N645 G2 X  23.122 Y 118.251 I 100.419 J-106.958
N650 G2 X  25.296 Y 118.018 I   0.966 J  -1.251
N655 G3 X  49.398 Y 107.015 I  23.666 J  19.939
N660 G1 X 109.008 Y 112.708
N665 G2 X 109.009 Y 112.708 I   0.150 J  -1.573
N670 G3 X 109.025 Y 112.720 I  -0.002 J   0.020
N675 G2 X 109.171 Y 113.117 I  14.990 J  -5.270
N680 G2 X 109.722 Y 114.368 I  12.739 J  -4.864
N685 G2 X 110.419 Y 115.553 I   9.151 J  -4.591
N690 G2 X 111.303 Y 116.635 I   6.753 J  -4.614
N695 G2 X 112.428 Y 117.566 I   4.835 J  -4.692
N700 G2 X 113.963 Y 118.298 I   3.387 J  -5.133
N705 G2 X 114.521 Y 118.446 I   1.903 J  -6.029
N710 G2 X 115.314 Y 118.564 I   1.269 J  -5.827
N715 G2 X 117.311 Y 118.347 I   0.429 J  -5.356
N720 G2 X 118.526 Y 117.822 I  -1.730 J  -5.673
N725 G2 X 119.532 Y 117.128 I  -3.595 J  -6.282
N730 G2 X 120.315 Y 116.400 I  -5.701 J  -6.925
N735 G2 X 121.117 Y 115.465 I  -8.194 J  -7.831
N740 G2 X 121.855 Y 114.413 I -12.220 J  -9.367
N745 G2 X 122.071 Y 114.058 I  -7.065 J  -4.533
N750 G2 X 122.394 Y 113.445 I  -8.327 J  -4.780
N755 G2 X 122.897 Y 112.272 I -13.199 J  -6.357
N760 G2 X 123.324 Y 111.029 I -19.920 J  -7.537
N765 G2 X 123.807 Y 109.297 I -30.352 J  -9.389
N770 G2 X 124.311 Y 107.039 I -47.371 J -11.763
N775 G2 X 124.775 Y 104.458 I -71.147 J -14.126
N780 G2 X 125.204 Y 101.529 I-102.193 J -16.475
N785 G2 X 125.629 Y  97.971 I-142.069 J -18.752
N790 G2 X 126.009 Y  94.044 I-204.311 J -21.786
N795 G2 X 126.314 Y  90.111 I-204.692 J -17.859
N800 G2 X 126.513 Y  86.533 I-142.972 J  -9.712
N805 G2 X 126.597 Y  83.574 I-103.418 J  -4.432
N810 G2 X 126.587 Y  80.952 I -72.529 J  -1.032
N815 G2 X 126.481 Y  78.641 I -48.798 J   1.070
N820 G2 X 126.306 Y  76.851 I -31.695 J   2.201
N825 G2 X 126.101 Y  75.552 I -21.129 J   2.675
N830 G2 X 125.808 Y  74.310 I -14.393 J   2.733
N835 G2 X 125.596 Y  73.650 I  -9.241 J   2.605
N840 G2 X 125.446 Y  73.264 I  -7.894 J   2.855
N845 G2 X 124.900 Y  72.100 I -14.203 J   5.945
N850 G2 X 124.273 Y  71.040 I -10.054 J   5.233
N855 G2 X 123.627 Y  70.187 I  -7.460 J   4.980
N860 G2 X 122.757 Y  69.330 I  -5.499 J   4.707
N865 G2 X 121.651 Y  68.602 I  -3.793 J   4.560
N870 G2 X 119.722 Y  68.043 I  -2.434 J   4.791
N875 G2 X 118.921 Y  68.021 I  -0.561 J   5.937
N880 G2 X 118.345 Y  68.071 I   0.255 J   6.317
N885 G2 X 116.707 Y  68.525 I   0.808 J   6.097
N890 G2 X 115.438 Y  69.248 I   2.680 J   6.181
N895 G2 X 114.380 Y  70.161 I   4.794 J   6.626
N900 G2 X 113.488 Y  71.206 I   7.325 J   7.152
N905 G2 X 112.728 Y  72.343 I  10.945 J   8.133
N910 G2 X 112.516 Y  72.709 I  13.638 J   8.152
N915 G3 X 112.498 Y  72.718 I  -0.016 J  -0.012
N920 G2 X 112.497 Y  72.718 I  -0.125 J   1.575
N925 G1 X  52.738 Y  67.997
N930 G2 X  51.906 Y  68.159 I  -0.124 J   1.575
N935 G3 X  49.968 Y  69.104 I -45.205 J -90.266
N940 G3 X  47.308 Y  70.306 I -33.944 J -71.558
N945 G3 X  44.738 Y  71.340 I -22.922 J -53.311
N950 G3 X  42.419 Y  72.130 I -14.471 J -38.641
N955 G3 X  40.436 Y  72.664 I  -8.376 J -27.180
N960 G3 X  39.600 Y  72.838 I  -4.514 J -19.567
N965 G3 X  38.761 Y  72.991 I -20.873 J-112.042
N970 G3 X  36.890 Y  73.302 I -14.061 J -78.745
N975 G3 X  35.290 Y  73.515 I  -5.861 J -38.012
N980 G3 X  34.314 Y  73.593 I  -1.750 J -15.697
N985 G3 X  33.822 Y  73.596 I  -0.273 J  -5.558
N990 G3 X  33.719 Y  73.588 I   0.059 J  -1.501
N995 G3 X  33.527 Y  73.557 I   0.215 J  -1.976
N1000 G3 X  33.420 Y  73.528 I   0.180 J  -0.860
N1005 G3 X  33.356 Y  73.190 I   5.761 J  -1.268
N1010 G3 X  33.242 Y  72.306 I  14.587 J  -2.329
N1015 G3 X  33.130 Y  70.808 I  32.835 J  -3.227
N1020 G3 X  33.043 Y  69.059 I 275.863 J -14.477
N1025 G3 X  32.800 Y  63.577 I1588.271 J -73.259
N1030 G2 X  32.798 Y  63.538 I  -1.579 J   0.067
N1035 G1 X  32.690 Y  61.936
N1040 G1 X  32.582 Y  60.334
N1045 G2 X  32.581 Y  60.328 I  -1.576 J   0.106
N1050 G2 X  32.402 Y  58.081 I-135.126 J   9.659
N1055 G2 X  32.334 Y  57.357 I -57.269 J   5.052
N1060 G2 X  32.329 Y  57.310 I -39.507 J   3.989
N1065 G2 X  32.318 Y  57.209 I-186.199 J  19.028
N1070 G3 X  32.166 Y  55.700 I 493.988 J -50.752
N1075 G3 X  32.097 Y  55.001 I 405.749 J -40.435
N1080 G2 X  32.087 Y  54.907 I -29.879 J   2.926
N1085 G2 X  32.065 Y  54.710 I  -8.449 J   0.854
N1090 G2 X  31.819 Y  53.314 I -14.039 J   1.752
N1095 G2 X  31.522 Y  52.165 I -19.843 J   4.528
N1100 G2 X  31.509 Y  52.124 I  -1.517 J   0.441
N1105 G2 X  21.738 Y  52.459 I  -4.838 J   1.548
N1110 F30
N1115 G1 Z  -0.390
N1120 F400
N1125 G1 X  15.590 Y  77.451
N1130 G1 X   9.442 Y 102.443
N1135 G2 X  10.530 Y 106.976 I   4.933 J   1.213
N1140 G1 X  12.243 Y 108.960
N1145 G2 X  12.358 Y 109.080 I   1.196 J  -1.033
N1150 G2 X  23.122 Y 118.251 I 100.419 J-106.958
N1155 G2 X  25.296 Y 118.018 I   0.966 J  -1.251
N1160 G3 X  49.398 Y 107.015 I  23.666 J  19.939
N1165 G1 X 109.008 Y 112.708
N1170 G2 X 109.009 Y 112.708 I   0.150 J  -1.573
N1175 G3 X 109.025 Y 112.720 I  -0.002 J   0.020
N1180 G2 X 109.171 Y 113.117 I  14.990 J  -5.270
N1185 G2 X 109.722 Y 114.368 I  12.739 J  -4.864
N1190 G2 X 110.419 Y 115.553 I   9.151 J  -4.591
N1195 G2 X 111.303 Y 116.635 I   6.753 J  -4.614
N1200 G2 X 112.428 Y 117.566 I   4.835 J  -4.692
N1205 G2 X 113.963 Y 118.298 I   3.387 J  -5.133
N1210 G2 X 114.521 Y 118.446 I   1.903 J  -6.029
N1215 G2 X 115.314 Y 118.564 I   1.269 J  -5.827
N1220 G2 X 117.311 Y 118.347 I   0.429 J  -5.356
N1225 G2 X 118.526 Y 117.822 I  -1.730 J  -5.673
N1230 G2 X 119.532 Y 117.128 I  -3.595 J  -6.282
N1235 G2 X 120.315 Y 116.400 I  -5.701 J  -6.925
N1240 G2 X 121.117 Y 115.465 I  -8.194 J  -7.831
N1245 G2 X 121.855 Y 114.413 I -12.220 J  -9.367
N1250 G2 X 122.071 Y 114.058 I  -7.065 J  -4.533
N1255 G2 X 122.394 Y 113.445 I  -8.327 J  -4.780
N1260 G2 X 122.897 Y 112.272 I -13.199 J  -6.357
N1265 G2 X 123.324 Y 111.029 I -19.920 J  -7.537
N1270 G2 X 123.807 Y 109.297 I -30.352 J  -9.389
N1275 G2 X 124.311 Y 107.039 I -47.371 J -11.763
N1280 G2 X 124.775 Y 104.458 I -71.147 J -14.126
N1285 G2 X 125.204 Y 101.529 I-102.193 J -16.475
N1290 G2 X 125.629 Y  97.971 I-142.069 J -18.752
N1295 G2 X 126.009 Y  94.044 I-204.311 J -21.786
N1300 G2 X 126.314 Y  90.111 I-204.692 J -17.859
N1305 G2 X 126.513 Y  86.533 I-142.972 J  -9.712
N1310 G2 X 126.597 Y  83.574 I-103.418 J  -4.432
N1315 G2 X 126.587 Y  80.952 I -72.529 J  -1.032
N1320 G2 X 126.481 Y  78.641 I -48.798 J   1.070
N1325 G2 X 126.306 Y  76.851 I -31.695 J   2.201
N1330 G2 X 126.101 Y  75.552 I -21.129 J   2.675
N1335 G2 X 125.808 Y  74.310 I -14.393 J   2.733
N1340 G2 X 125.596 Y  73.650 I  -9.241 J   2.605
N1345 G2 X 125.446 Y  73.264 I  -7.894 J   2.855
N1350 G2 X 124.900 Y  72.100 I -14.203 J   5.945
N1355 G2 X 124.273 Y  71.040 I -10.054 J   5.233
N1360 G2 X 123.627 Y  70.187 I  -7.460 J   4.980
N1365 G2 X 122.757 Y  69.330 I  -5.499 J   4.707
N1370 G2 X 121.651 Y  68.602 I  -3.793 J   4.560
N1375 G2 X 119.722 Y  68.043 I  -2.434 J   4.791
N1380 G2 X 118.921 Y  68.021 I  -0.561 J   5.937
N1385 G2 X 118.345 Y  68.071 I   0.255 J   6.317
N1390 G2 X 116.707 Y  68.525 I   0.808 J   6.097
N1395 G2 X 115.438 Y  69.248 I   2.680 J   6.181
N1400 G2 X 114.380 Y  70.161 I   4.794 J   6.626
N1405 G2 X 113.488 Y  71.206 I   7.325 J   7.152
N1410 G2 X 112.728 Y  72.343 I  10.945 J   8.133
N1415 G2 X 112.516 Y  72.709 I  13.638 J   8.152
N1420 G3 X 112.498 Y  72.718 I  -0.016 J  -0.012
N1425 G2 X 112.497 Y  72.718 I  -0.125 J   1.575
N1430 G1 X  52.738 Y  67.997
N1435 G2 X  51.906 Y  68.159 I  -0.124 J   1.575
N1440 G3 X  49.968 Y  69.104 I -45.205 J -90.266
N1445 G3 X  47.308 Y  70.306 I -33.944 J -71.558
N1450 G3 X  44.738 Y  71.340 I -22.922 J -53.311
N1455 G3 X  42.419 Y  72.130 I -14.471 J -38.641
N1460 G3 X  40.436 Y  72.664 I  -8.376 J -27.180
N1465 G3 X  39.600 Y  72.838 I  -4.514 J -19.567
N1470 G3 X  38.761 Y  72.991 I -20.873 J-112.042
N1475 G3 X  36.890 Y  73.302 I -14.061 J -78.745
N1480 G3 X  35.290 Y  73.515 I  -5.861 J -38.012
N1485 G3 X  34.314 Y  73.593 I  -1.750 J -15.697
N1490 G3 X  33.822 Y  73.596 I  -0.273 J  -5.558
N1495 G3 X  33.719 Y  73.588 I   0.059 J  -1.501
N1500 G3 X  33.527 Y  73.557 I   0.215 J  -1.976
N1505 G3 X  33.420 Y  73.528 I   0.180 J  -0.860
N1510 G3 X  33.356 Y  73.190 I   5.761 J  -1.268
N1515 G3 X  33.242 Y  72.306 I  14.587 J  -2.329
N1520 G3 X  33.130 Y  70.808 I  32.835 J  -3.227
N1525 G3 X  33.043 Y  69.059 I 275.863 J -14.477
N1530 G3 X  32.800 Y  63.577 I1588.271 J -73.259
N1535 G2 X  32.798 Y  63.538 I  -1.579 J   0.067
N1540 G1 X  32.690 Y  61.936
N1545 G1 X  32.582 Y  60.334
N1550 G2 X  32.581 Y  60.328 I  -1.576 J   0.106
N1555 G2 X  32.402 Y  58.081 I-135.126 J   9.659
N1560 G2 X  32.334 Y  57.357 I -57.269 J   5.052
N1565 G2 X  32.329 Y  57.310 I -39.507 J   3.989
N1570 G2 X  32.318 Y  57.209 I-186.199 J  19.028
N1575 G3 X  32.166 Y  55.700 I 493.988 J -50.752
N1580 G3 X  32.097 Y  55.001 I 405.749 J -40.435
N1585 G2 X  32.087 Y  54.907 I -29.879 J   2.926
N1590 G2 X  32.065 Y  54.710 I  -8.449 J   0.854
N1595 G2 X  31.819 Y  53.314 I -14.039 J   1.752
N1600 G2 X  31.522 Y  52.165 I -19.843 J   4.528
N1605 G2 X  31.509 Y  52.124 I  -1.517 J   0.441
N1610 G2 X  21.738 Y  52.459 I  -4.838 J   1.548
N1615 F30
N1620 G1 Z  -0.520
N1625 F400
N1630 G1 X  15.590 Y  77.451
N1635 G1 X   9.442 Y 102.443
N1640 G2 X  10.530 Y 106.976 I   4.933 J   1.213
N1645 G1 X  12.243 Y 108.960
N1650 G2 X  12.358 Y 109.080 I   1.196 J  -1.033
N1655 G2 X  23.122 Y 118.251 I 100.419 J-106.958
N1660 G2 X  25.296 Y 118.018 I   0.966 J  -1.251
N1665 G3 X  49.398 Y 107.015 I  23.666 J  19.939
N1670 G1 X 109.008 Y 112.708
N1675 G2 X 109.009 Y 112.708 I   0.150 J  -1.573
N1680 G3 X 109.025 Y 112.720 I  -0.002 J   0.020
N1685 G2 X 109.171 Y 113.117 I  14.990 J  -5.270
N1690 G2 X 109.722 Y 114.368 I  12.739 J  -4.864
N1695 G2 X 110.419 Y 115.553 I   9.151 J  -4.591
N1700 G2 X 111.303 Y 116.635 I   6.753 J  -4.614
N1705 G2 X 112.428 Y 117.566 I   4.835 J  -4.692
N1710 G2 X 113.963 Y 118.298 I   3.387 J  -5.133
N1715 G2 X 114.521 Y 118.446 I   1.903 J  -6.029
N1720 G2 X 115.314 Y 118.564 I   1.269 J  -5.827
N1725 G2 X 117.311 Y 118.347 I   0.429 J  -5.356
N1730 G2 X 118.526 Y 117.822 I  -1.730 J  -5.673
N1735 G2 X 119.532 Y 117.128 I  -3.595 J  -6.282
N1740 G2 X 120.315 Y 116.400 I  -5.701 J  -6.925
N1745 G2 X 121.117 Y 115.465 I  -8.194 J  -7.831
N1750 G2 X 121.855 Y 114.413 I -12.220 J  -9.367
N1755 G2 X 122.071 Y 114.058 I  -7.065 J  -4.533
N1760 G2 X 122.394 Y 113.445 I  -8.327 J  -4.780
N1765 G2 X 122.897 Y 112.272 I -13.199 J  -6.357
N1770 G2 X 123.324 Y 111.029 I -19.920 J  -7.537
N1775 G2 X 123.807 Y 109.297 I -30.352 J  -9.389
N1780 G2 X 124.311 Y 107.039 I -47.371 J -11.763
N1785 G2 X 124.775 Y 104.458 I -71.147 J -14.126
N1790 G2 X 125.204 Y 101.529 I-102.193 J -16.475
N1795 G2 X 125.629 Y  97.971 I-142.069 J -18.752
N1800 G2 X 126.009 Y  94.044 I-204.311 J -21.786
N1805 G2 X 126.314 Y  90.111 I-204.692 J -17.859
N1810 G2 X 126.513 Y  86.533 I-142.972 J  -9.712
N1815 G2 X 126.597 Y  83.574 I-103.418 J  -4.432
N1820 G2 X 126.587 Y  80.952 I -72.529 J  -1.032
N1825 G2 X 126.481 Y  78.641 I -48.798 J   1.070
N1830 G2 X 126.306 Y  76.851 I -31.695 J   2.201
N1835 G2 X 126.101 Y  75.552 I -21.129 J   2.675
N1840 G2 X 125.808 Y  74.310 I -14.393 J   2.733
N1845 G2 X 125.596 Y  73.650 I  -9.241 J   2.605
N1850 G2 X 125.446 Y  73.264 I  -7.894 J   2.855
N1855 G2 X 124.900 Y  72.100 I -14.203 J   5.945
N1860 G2 X 124.273 Y  71.040 I -10.054 J   5.233
N1865 G2 X 123.627 Y  70.187 I  -7.460 J   4.980
N1870 G2 X 122.757 Y  69.330 I  -5.499 J   4.707
N1875 G2 X 121.651 Y  68.602 I  -3.793 J   4.560
N1880 G2 X 119.722 Y  68.043 I  -2.434 J   4.791
N1885 G2 X 118.921 Y  68.021 I  -0.561 J   5.937
N1890 G2 X 118.345 Y  68.071 I   0.255 J   6.317
N1895 G2 X 116.707 Y  68.525 I   0.808 J   6.097
N1900 G2 X 115.438 Y  69.248 I   2.680 J   6.181
N1905 G2 X 114.380 Y  70.161 I   4.794 J   6.626
N1910 G2 X 113.488 Y  71.206 I   7.325 J   7.152
N1915 G2 X 112.728 Y  72.343 I  10.945 J   8.133
N1920 G2 X 112.516 Y  72.709 I  13.638 J   8.152
N1925 G3 X 112.498 Y  72.718 I  -0.016 J  -0.012
N1930 G2 X 112.497 Y  72.718 I  -0.125 J   1.575
N1935 G1 X  52.738 Y  67.997
N1940 G2 X  51.906 Y  68.159 I  -0.124 J   1.575
N1945 G3 X  49.968 Y  69.104 I -45.205 J -90.266
N1950 G3 X  47.308 Y  70.306 I -33.944 J -71.558
N1955 G3 X  44.738 Y  71.340 I -22.922 J -53.311
N1960 G3 X  42.419 Y  72.130 I -14.471 J -38.641
N1965 G3 X  40.436 Y  72.664 I  -8.376 J -27.180
N1970 G3 X  39.600 Y  72.838 I  -4.514 J -19.567
N1975 G3 X  38.761 Y  72.991 I -20.873 J-112.042
N1980 G3 X  36.890 Y  73.302 I -14.061 J -78.745
N1985 G3 X  35.290 Y  73.515 I  -5.861 J -38.012
N1990 G3 X  34.314 Y  73.593 I  -1.750 J -15.697
N1995 G3 X  33.822 Y  73.596 I  -0.273 J  -5.558
N2000 G3 X  33.719 Y  73.588 I   0.059 J  -1.501
N2005 G3 X  33.527 Y  73.557 I   0.215 J  -1.976
N2010 G3 X  33.420 Y  73.528 I   0.180 J  -0.860
N2015 G3 X  33.356 Y  73.190 I   5.761 J  -1.268
N2020 G3 X  33.242 Y  72.306 I  14.587 J  -2.329
N2025 G3 X  33.130 Y  70.808 I  32.835 J  -3.227
N2030 G3 X  33.043 Y  69.059 I 275.863 J -14.477
N2035 G3 X  32.800 Y  63.577 I1588.271 J -73.259
N2040 G2 X  32.798 Y  63.538 I  -1.579 J   0.067
N2045 G1 X  32.690 Y  61.936
N2050 G1 X  32.582 Y  60.334
N2055 G2 X  32.581 Y  60.328 I  -1.576 J   0.106
N2060 G2 X  32.402 Y  58.081 I-135.126 J   9.659
N2065 G2 X  32.334 Y  57.357 I -57.269 J   5.052
N2070 G2 X  32.329 Y  57.310 I -39.507 J   3.989
N2075 G2 X  32.318 Y  57.209 I-186.199 J  19.028
N2080 G3 X  32.166 Y  55.700 I 493.988 J -50.752
N2085 G3 X  32.097 Y  55.001 I 405.749 J -40.435
N2090 G2 X  32.087 Y  54.907 I -29.879 J   2.926
N2095 G2 X  32.065 Y  54.710 I  -8.449 J   0.854
N2100 G2 X  31.819 Y  53.314 I -14.039 J   1.752
N2105 G2 X  31.522 Y  52.165 I -19.843 J   4.528
N2110 G2 X  31.509 Y  52.124 I  -1.517 J   0.441
N2115 G2 X  21.738 Y  52.459 I  -4.838 J   1.548
N2120 F30
N2125 G1 Z  -0.650
N2130 F400
N2135 G1 X  15.590 Y  77.451
N2140 G1 X   9.442 Y 102.443
N2145 G2 X  10.530 Y 106.976 I   4.933 J   1.213
N2150 G1 X  12.243 Y 108.960
N2155 G2 X  12.358 Y 109.080 I   1.196 J  -1.033
N2160 G2 X  23.122 Y 118.251 I 100.419 J-106.958
N2165 G2 X  25.296 Y 118.018 I   0.966 J  -1.251
N2170 G3 X  49.398 Y 107.015 I  23.666 J  19.939
N2175 G1 X 109.008 Y 112.708
N2180 G2 X 109.009 Y 112.708 I   0.150 J  -1.573
N2185 G3 X 109.025 Y 112.720 I  -0.002 J   0.020
N2190 G2 X 109.171 Y 113.117 I  14.990 J  -5.270
N2195 G2 X 109.722 Y 114.368 I  12.739 J  -4.864
N2200 G2 X 110.419 Y 115.553 I   9.151 J  -4.591
N2205 G2 X 111.303 Y 116.635 I   6.753 J  -4.614
N2210 G2 X 112.428 Y 117.566 I   4.835 J  -4.692
N2215 G2 X 113.963 Y 118.298 I   3.387 J  -5.133
N2220 G2 X 114.521 Y 118.446 I   1.903 J  -6.029
N2225 G2 X 115.314 Y 118.564 I   1.269 J  -5.827
N2230 G2 X 117.311 Y 118.347 I   0.429 J  -5.356
N2235 G2 X 118.526 Y 117.822 I  -1.730 J  -5.673
N2240 G2 X 119.532 Y 117.128 I  -3.595 J  -6.282
N2245 G2 X 120.315 Y 116.400 I  -5.701 J  -6.925
N2250 G2 X 121.117 Y 115.465 I  -8.194 J  -7.831
N2255 G2 X 121.855 Y 114.413 I -12.220 J  -9.367
N2260 G2 X 122.071 Y 114.058 I  -7.065 J  -4.533
N2265 G2 X 122.394 Y 113.445 I  -8.327 J  -4.780
N2270 G2 X 122.897 Y 112.272 I -13.199 J  -6.357
N2275 G2 X 123.324 Y 111.029 I -19.920 J  -7.537
N2280 G2 X 123.807 Y 109.297 I -30.352 J  -9.389
N2285 G2 X 124.311 Y 107.039 I -47.371 J -11.763
N2290 G2 X 124.775 Y 104.458 I -71.147 J -14.126
N2295 G2 X 125.204 Y 101.529 I-102.193 J -16.475
N2300 G2 X 125.629 Y  97.971 I-142.069 J -18.752
N2305 G2 X 126.009 Y  94.044 I-204.311 J -21.786
N2310 G2 X 126.314 Y  90.111 I-204.692 J -17.859
N2315 G2 X 126.513 Y  86.533 I-142.972 J  -9.712
N2320 G2 X 126.597 Y  83.574 I-103.418 J  -4.432
N2325 G2 X 126.587 Y  80.952 I -72.529 J  -1.032
N2330 G2 X 126.481 Y  78.641 I -48.798 J   1.070
N2335 G2 X 126.306 Y  76.851 I -31.695 J   2.201
N2340 G2 X 126.101 Y  75.552 I -21.129 J   2.675
N2345 G2 X 125.808 Y  74.310 I -14.393 J   2.733
N2350 G2 X 125.596 Y  73.650 I  -9.241 J   2.605
N2355 G2 X 125.446 Y  73.264 I  -7.894 J   2.855
N2360 G2 X 124.900 Y  72.100 I -14.203 J   5.945
N2365 G2 X 124.273 Y  71.040 I -10.054 J   5.233
N2370 G2 X 123.627 Y  70.187 I  -7.460 J   4.980
N2375 G2 X 122.757 Y  69.330 I  -5.499 J   4.707
N2380 G2 X 121.651 Y  68.602 I  -3.793 J   4.560
N2385 G2 X 119.722 Y  68.043 I  -2.434 J   4.791
N2390 G2 X 118.921 Y  68.021 I  -0.561 J   5.937
N2395 G2 X 118.345 Y  68.071 I   0.255 J   6.317
N2400 G2 X 116.707 Y  68.525 I   0.808 J   6.097
N2405 G2 X 115.438 Y  69.248 I   2.680 J   6.181
N2410 G2 X 114.380 Y  70.161 I   4.794 J   6.626
N2415 G2 X 113.488 Y  71.206 I   7.325 J   7.152
N2420 G2 X 112.728 Y  72.343 I  10.945 J   8.133
N2425 G2 X 112.516 Y  72.709 I  13.638 J   8.152
N2430 G3 X 112.498 Y  72.718 I  -0.016 J  -0.012
N2435 G2 X 112.497 Y  72.718 I  -0.125 J   1.575
N2440 G1 X  52.738 Y  67.997
N2445 G2 X  51.906 Y  68.159 I  -0.124 J   1.575
N2450 G3 X  49.968 Y  69.104 I -45.205 J -90.266
N2455 G3 X  47.308 Y  70.306 I -33.944 J -71.558
N2460 G3 X  44.738 Y  71.340 I -22.922 J -53.311
N2465 G3 X  42.419 Y  72.130 I -14.471 J -38.641
N2470 G3 X  40.436 Y  72.664 I  -8.376 J -27.180
N2475 G3 X  39.600 Y  72.838 I  -4.514 J -19.567
N2480 G3 X  38.761 Y  72.991 I -20.873 J-112.042
N2485 G3 X  36.890 Y  73.302 I -14.061 J -78.745
N2490 G3 X  35.290 Y  73.515 I  -5.861 J -38.012
N2495 G3 X  34.314 Y  73.593 I  -1.750 J -15.697
N2500 G3 X  33.822 Y  73.596 I  -0.273 J  -5.558
N2505 G3 X  33.719 Y  73.588 I   0.059 J  -1.501
N2510 G3 X  33.527 Y  73.557 I   0.215 J  -1.976
N2515 G3 X  33.420 Y  73.528 I   0.180 J  -0.860
N2520 G3 X  33.356 Y  73.190 I   5.761 J  -1.268
N2525 G3 X  33.242 Y  72.306 I  14.587 J  -2.329
N2530 G3 X  33.130 Y  70.808 I  32.835 J  -3.227
N2535 G3 X  33.043 Y  69.059 I 275.863 J -14.477
N2540 G3 X  32.800 Y  63.577 I1588.271 J -73.259
N2545 G2 X  32.798 Y  63.538 I  -1.579 J   0.067
N2550 G1 X  32.690 Y  61.936
N2555 G1 X  32.582 Y  60.334
N2560 G2 X  32.581 Y  60.328 I  -1.576 J   0.106
N2565 G2 X  32.402 Y  58.081 I-135.126 J   9.659
N2570 G2 X  32.334 Y  57.357 I -57.269 J   5.052
N2575 G2 X  32.329 Y  57.310 I -39.507 J   3.989
N2580 G2 X  32.318 Y  57.209 I-186.199 J  19.028
N2585 G3 X  32.166 Y  55.700 I 493.988 J -50.752
N2590 G3 X  32.097 Y  55.001 I 405.749 J -40.435
N2595 G2 X  32.087 Y  54.907 I -29.879 J   2.926
N2600 G2 X  32.065 Y  54.710 I  -8.449 J   0.854
N2605 G2 X  31.819 Y  53.314 I -14.039 J   1.752
N2610 G2 X  31.522 Y  52.165 I -19.843 J   4.528
N2615 G2 X  31.509 Y  52.124 I  -1.517 J   0.441
N2620 G2 X  21.738 Y  52.459 I  -4.838 J   1.548
N2625 F30
N2630 G1 Z  -0.780
N2635 F400
N2640 G1 X  15.590 Y  77.451
N2645 G1 X   9.442 Y 102.443
N2650 G2 X  10.530 Y 106.976 I   4.933 J   1.213
N2655 G1 X  12.243 Y 108.960
N2660 G2 X  12.358 Y 109.080 I   1.196 J  -1.033
N2665 G2 X  23.122 Y 118.251 I 100.419 J-106.958
N2670 G2 X  25.296 Y 118.018 I   0.966 J  -1.251
N2675 G3 X  49.398 Y 107.015 I  23.666 J  19.939
N2680 G1 X 109.008 Y 112.708
N2685 G2 X 109.009 Y 112.708 I   0.150 J  -1.573
N2690 G3 X 109.025 Y 112.720 I  -0.002 J   0.020
N2695 G2 X 109.171 Y 113.117 I  14.990 J  -5.270
N2700 G2 X 109.722 Y 114.368 I  12.739 J  -4.864
N2705 G2 X 110.419 Y 115.553 I   9.151 J  -4.591
N2710 G2 X 111.303 Y 116.635 I   6.753 J  -4.614
N2715 G2 X 112.428 Y 117.566 I   4.835 J  -4.692
N2720 G2 X 113.963 Y 118.298 I   3.387 J  -5.133
N2725 G2 X 114.521 Y 118.446 I   1.903 J  -6.029
N2730 G2 X 115.314 Y 118.564 I   1.269 J  -5.827
N2735 G2 X 117.311 Y 118.347 I   0.429 J  -5.356
N2740 G2 X 118.526 Y 117.822 I  -1.730 J  -5.673
N2745 G2 X 119.532 Y 117.128 I  -3.595 J  -6.282
N2750 G2 X 120.315 Y 116.400 I  -5.701 J  -6.925
N2755 G2 X 121.117 Y 115.465 I  -8.194 J  -7.831
N2760 G2 X 121.855 Y 114.413 I -12.220 J  -9.367
N2765 G2 X 122.071 Y 114.058 I  -7.065 J  -4.533
N2770 G2 X 122.394 Y 113.445 I  -8.327 J  -4.780
N2775 G2 X 122.897 Y 112.272 I -13.199 J  -6.357
N2780 G2 X 123.324 Y 111.029 I -19.920 J  -7.537
N2785 G2 X 123.807 Y 109.297 I -30.352 J  -9.389
N2790 G2 X 124.311 Y 107.039 I -47.371 J -11.763
N2795 G2 X 124.775 Y 104.458 I -71.147 J -14.126
N2800 G2 X 125.204 Y 101.529 I-102.193 J -16.475
N2805 G2 X 125.629 Y  97.971 I-142.069 J -18.752
N2810 G2 X 126.009 Y  94.044 I-204.311 J -21.786
N2815 G2 X 126.314 Y  90.111 I-204.692 J -17.859
N2820 G2 X 126.513 Y  86.533 I-142.972 J  -9.712
N2825 G2 X 126.597 Y  83.574 I-103.418 J  -4.432
N2830 G2 X 126.587 Y  80.952 I -72.529 J  -1.032
N2835 G2 X 126.481 Y  78.641 I -48.798 J   1.070
N2840 G2 X 126.306 Y  76.851 I -31.695 J   2.201
N2845 G2 X 126.101 Y  75.552 I -21.129 J   2.675
N2850 G2 X 125.808 Y  74.310 I -14.393 J   2.733
N2855 G2 X 125.596 Y  73.650 I  -9.241 J   2.605
N2860 G2 X 125.446 Y  73.264 I  -7.894 J   2.855
N2865 G2 X 124.900 Y  72.100 I -14.203 J   5.945
N2870 G2 X 124.273 Y  71.040 I -10.054 J   5.233
N2875 G2 X 123.627 Y  70.187 I  -7.460 J   4.980
N2880 G2 X 122.757 Y  69.330 I  -5.499 J   4.707
N2885 G2 X 121.651 Y  68.602 I  -3.793 J   4.560
N2890 G2 X 119.722 Y  68.043 I  -2.434 J   4.791
N2895 G2 X 118.921 Y  68.021 I  -0.561 J   5.937
N2900 G2 X 118.345 Y  68.071 I   0.255 J   6.317
N2905 G2 X 116.707 Y  68.525 I   0.808 J   6.097
N2910 G2 X 115.438 Y  69.248 I   2.680 J   6.181
N2915 G2 X 114.380 Y  70.161 I   4.794 J   6.626
N2920 G2 X 113.488 Y  71.206 I   7.325 J   7.152
N2925 G2 X 112.728 Y  72.343 I  10.945 J   8.133
N2930 G2 X 112.516 Y  72.709 I  13.638 J   8.152
N2935 G3 X 112.498 Y  72.718 I  -0.016 J  -0.012
N2940 G2 X 112.497 Y  72.718 I  -0.125 J   1.575
N2945 G1 X  52.738 Y  67.997
N2950 G2 X  51.906 Y  68.159 I  -0.124 J   1.575
N2955 G3 X  49.968 Y  69.104 I -45.205 J -90.266
N2960 G3 X  47.308 Y  70.306 I -33.944 J -71.558
N2965 G3 X  44.738 Y  71.340 I -22.922 J -53.311
N2970 G3 X  42.419 Y  72.130 I -14.471 J -38.641
N2975 G3 X  40.436 Y  72.664 I  -8.376 J -27.180
N2980 G3 X  39.600 Y  72.838 I  -4.514 J -19.567
N2985 G3 X  38.761 Y  72.991 I -20.873 J-112.042
N2990 G3 X  36.890 Y  73.302 I -14.061 J -78.745
N2995 G3 X  35.290 Y  73.515 I  -5.861 J -38.012
N3000 G3 X  34.314 Y  73.593 I  -1.750 J -15.697
N3005 G3 X  33.822 Y  73.596 I  -0.273 J  -5.558
N3010 G3 X  33.719 Y  73.588 I   0.059 J  -1.501
N3015 G3 X  33.527 Y  73.557 I   0.215 J  -1.976
N3020 G3 X  33.420 Y  73.528 I   0.180 J  -0.860
N3025 G3 X  33.356 Y  73.190 I   5.761 J  -1.268
N3030 G3 X  33.242 Y  72.306 I  14.587 J  -2.329
N3035 G3 X  33.130 Y  70.808 I  32.835 J  -3.227
N3040 G3 X  33.043 Y  69.059 I 275.863 J -14.477
N3045 G3 X  32.800 Y  63.577 I1588.271 J -73.259
N3050 G2 X  32.798 Y  63.538 I  -1.579 J   0.067
N3055 G1 X  32.690 Y  61.936
N3060 G1 X  32.582 Y  60.334
N3065 G2 X  32.581 Y  60.328 I  -1.576 J   0.106
N3070 G2 X  32.402 Y  58.081 I-135.126 J   9.659
N3075 G2 X  32.334 Y  57.357 I -57.269 J   5.052
N3080 G2 X  32.329 Y  57.310 I -39.507 J   3.989
N3085 G2 X  32.318 Y  57.209 I-186.199 J  19.028
N3090 G3 X  32.166 Y  55.700 I 493.988 J -50.752
N3095 G3 X  32.097 Y  55.001 I 405.749 J -40.435
N3100 G2 X  32.087 Y  54.907 I -29.879 J   2.926
N3105 G2 X  32.065 Y  54.710 I  -8.449 J   0.854
N3110 G2 X  31.819 Y  53.314 I -14.039 J   1.752
N3115 G2 X  31.522 Y  52.165 I -19.843 J   4.528
N3120 G2 X  31.509 Y  52.124 I  -1.517 J   0.441
N3125 G2 X  21.738 Y  52.459 I  -4.838 J   1.548
N3130 F30
N3135 G1 Z  -0.910
N3140 F400
N3145 G1 X  15.590 Y  77.451
N3150 G1 X   9.442 Y 102.443
N3155 G2 X  10.530 Y 106.976 I   4.933 J   1.213
N3160 G1 X  12.243 Y 108.960
N3165 G2 X  12.358 Y 109.080 I   1.196 J  -1.033
N3170 G2 X  23.122 Y 118.251 I 100.419 J-106.958
N3175 G2 X  25.296 Y 118.018 I   0.966 J  -1.251
N3180 G3 X  49.398 Y 107.015 I  23.666 J  19.939
N3185 G1 X 109.008 Y 112.708
N3190 G2 X 109.009 Y 112.708 I   0.150 J  -1.573
N3195 G3 X 109.025 Y 112.720 I  -0.002 J   0.020
N3200 G2 X 109.171 Y 113.117 I  14.990 J  -5.270
N3205 G2 X 109.722 Y 114.368 I  12.739 J  -4.864
N3210 G2 X 110.419 Y 115.553 I   9.151 J  -4.591
N3215 G2 X 111.303 Y 116.635 I   6.753 J  -4.614
N3220 G2 X 112.428 Y 117.566 I   4.835 J  -4.692
N3225 G2 X 113.963 Y 118.298 I   3.387 J  -5.133
N3230 G2 X 114.521 Y 118.446 I   1.903 J  -6.029
N3235 G2 X 115.314 Y 118.564 I   1.269 J  -5.827
N3240 G2 X 117.311 Y 118.347 I   0.429 J  -5.356
N3245 G2 X 118.526 Y 117.822 I  -1.730 J  -5.673
N3250 G2 X 119.532 Y 117.128 I  -3.595 J  -6.282
N3255 G2 X 120.315 Y 116.400 I  -5.701 J  -6.925
N3260 G2 X 121.117 Y 115.465 I  -8.194 J  -7.831
N3265 G2 X 121.855 Y 114.413 I -12.220 J  -9.367
N3270 G2 X 122.071 Y 114.058 I  -7.065 J  -4.533
N3275 G2 X 122.394 Y 113.445 I  -8.327 J  -4.780
N3280 G2 X 122.897 Y 112.272 I -13.199 J  -6.357
N3285 G2 X 123.324 Y 111.029 I -19.920 J  -7.537
N3290 G2 X 123.807 Y 109.297 I -30.352 J  -9.389
N3295 G2 X 124.311 Y 107.039 I -47.371 J -11.763
N3300 G2 X 124.775 Y 104.458 I -71.147 J -14.126
N3305 G2 X 125.204 Y 101.529 I-102.193 J -16.475
N3310 G2 X 125.629 Y  97.971 I-142.069 J -18.752
N3315 G2 X 126.009 Y  94.044 I-204.311 J -21.786
N3320 G2 X 126.314 Y  90.111 I-204.692 J -17.859
N3325 G2 X 126.513 Y  86.533 I-142.972 J  -9.712
N3330 G2 X 126.597 Y  83.574 I-103.418 J  -4.432
N3335 G2 X 126.587 Y  80.952 I -72.529 J  -1.032
N3340 G2 X 126.481 Y  78.641 I -48.798 J   1.070
N3345 G2 X 126.306 Y  76.851 I -31.695 J   2.201
N3350 G2 X 126.101 Y  75.552 I -21.129 J   2.675
N3355 G2 X 125.808 Y  74.310 I -14.393 J   2.733
N3360 G2 X 125.596 Y  73.650 I  -9.241 J   2.605
N3365 G2 X 125.446 Y  73.264 I  -7.894 J   2.855
N3370 G2 X 124.900 Y  72.100 I -14.203 J   5.945
N3375 G2 X 124.273 Y  71.040 I -10.054 J   5.233
N3380 G2 X 123.627 Y  70.187 I  -7.460 J   4.980
N3385 G2 X 122.757 Y  69.330 I  -5.499 J   4.707
N3390 G2 X 121.651 Y  68.602 I  -3.793 J   4.560
N3395 G2 X 119.722 Y  68.043 I  -2.434 J   4.791
N3400 G2 X 118.921 Y  68.021 I  -0.561 J   5.937
N3405 G2 X 118.345 Y  68.071 I   0.255 J   6.317
N3410 G2 X 116.707 Y  68.525 I   0.808 J   6.097
N3415 G2 X 115.438 Y  69.248 I   2.680 J   6.181
N3420 G2 X 114.380 Y  70.161 I   4.794 J   6.626
N3425 G2 X 113.488 Y  71.206 I   7.325 J   7.152
N3430 G2 X 112.728 Y  72.343 I  10.945 J   8.133
N3435 G2 X 112.516 Y  72.709 I  13.638 J   8.152
N3440 G3 X 112.498 Y  72.718 I  -0.016 J  -0.012
N3445 G2 X 112.497 Y  72.718 I  -0.125 J   1.575
N3450 G1 X  52.738 Y  67.997
N3455 G2 X  51.906 Y  68.159 I  -0.124 J   1.575
N3460 G3 X  49.968 Y  69.104 I -45.205 J -90.266
N3465 G3 X  47.308 Y  70.306 I -33.944 J -71.558
N3470 G3 X  44.738 Y  71.340 I -22.922 J -53.311
N3475 G3 X  42.419 Y  72.130 I -14.471 J -38.641
N3480 G3 X  40.436 Y  72.664 I  -8.376 J -27.180
N3485 G3 X  39.600 Y  72.838 I  -4.514 J -19.567
N3490 G3 X  38.761 Y  72.991 I -20.873 J-112.042
N3495 G3 X  36.890 Y  73.302 I -14.061 J -78.745
N3500 G3 X  35.290 Y  73.515 I  -5.861 J -38.012
N3505 G3 X  34.314 Y  73.593 I  -1.750 J -15.697
N3510 G3 X  33.822 Y  73.596 I  -0.273 J  -5.558
N3515 G3 X  33.719 Y  73.588 I   0.059 J  -1.501
N3520 G3 X  33.527 Y  73.557 I   0.215 J  -1.976
N3525 G3 X  33.420 Y  73.528 I   0.180 J  -0.860
N3530 G3 X  33.356 Y  73.190 I   5.761 J  -1.268
N3535 G3 X  33.242 Y  72.306 I  14.587 J  -2.329
N3540 G3 X  33.130 Y  70.808 I  32.835 J  -3.227
N3545 G3 X  33.043 Y  69.059 I 275.863 J -14.477
N3550 G3 X  32.800 Y  63.577 I1588.271 J -73.259
N3555 G2 X  32.798 Y  63.538 I  -1.579 J   0.067
N3560 G1 X  32.690 Y  61.936
N3565 G1 X  32.582 Y  60.334
N3570 G2 X  32.581 Y  60.328 I  -1.576 J   0.106
N3575 G2 X  32.402 Y  58.081 I-135.126 J   9.659
N3580 G2 X  32.334 Y  57.357 I -57.269 J   5.052
N3585 G2 X  32.329 Y  57.310 I -39.507 J   3.989
N3590 G2 X  32.318 Y  57.209 I-186.199 J  19.028
N3595 G3 X  32.166 Y  55.700 I 493.988 J -50.752
N3600 G3 X  32.097 Y  55.001 I 405.749 J -40.435
N3605 G2 X  32.087 Y  54.907 I -29.879 J   2.926
N3610 G2 X  32.065 Y  54.710 I  -8.449 J   0.854
N3615 G2 X  31.819 Y  53.314 I -14.039 J   1.752
N3620 G2 X  31.522 Y  52.165 I -19.843 J   4.528
N3625 G2 X  31.509 Y  52.124 I  -1.517 J   0.441
N3630 G2 X  21.738 Y  52.459 I  -4.838 J   1.548
N3635 F30
N3640 G1 Z  -1.040
N3645 F400
N3650 G1 X  15.590 Y  77.451
N3655 G1 X   9.442 Y 102.443
N3660 G2 X  10.530 Y 106.976 I   4.933 J   1.213
N3665 G1 X  12.243 Y 108.960
N3670 G2 X  12.358 Y 109.080 I   1.196 J  -1.033
N3675 G2 X  23.122 Y 118.251 I 100.419 J-106.958
N3680 G2 X  25.296 Y 118.018 I   0.966 J  -1.251
N3685 G3 X  49.398 Y 107.015 I  23.666 J  19.939
N3690 G1 X 109.008 Y 112.708
N3695 G2 X 109.009 Y 112.708 I   0.150 J  -1.573
N3700 G3 X 109.025 Y 112.720 I  -0.002 J   0.020
N3705 G2 X 109.171 Y 113.117 I  14.990 J  -5.270
N3710 G2 X 109.722 Y 114.368 I  12.739 J  -4.864
N3715 G2 X 110.419 Y 115.553 I   9.151 J  -4.591
N3720 G2 X 111.303 Y 116.635 I   6.753 J  -4.614
N3725 G2 X 112.428 Y 117.566 I   4.835 J  -4.692
N3730 G2 X 113.963 Y 118.298 I   3.387 J  -5.133
N3735 G2 X 114.521 Y 118.446 I   1.903 J  -6.029
N3740 G2 X 115.314 Y 118.564 I   1.269 J  -5.827
N3745 G2 X 117.311 Y 118.347 I   0.429 J  -5.356
N3750 G2 X 118.526 Y 117.822 I  -1.730 J  -5.673
N3755 G2 X 119.532 Y 117.128 I  -3.595 J  -6.282
N3760 G2 X 120.315 Y 116.400 I  -5.701 J  -6.925
N3765 G2 X 121.117 Y 115.465 I  -8.194 J  -7.831
N3770 G2 X 121.855 Y 114.413 I -12.220 J  -9.367
N3775 G2 X 122.071 Y 114.058 I  -7.065 J  -4.533
N3780 G2 X 122.394 Y 113.445 I  -8.327 J  -4.780
N3785 G2 X 122.897 Y 112.272 I -13.199 J  -6.357
N3790 G2 X 123.324 Y 111.029 I -19.920 J  -7.537
N3795 G2 X 123.807 Y 109.297 I -30.352 J  -9.389
N3800 G2 X 124.311 Y 107.039 I -47.371 J -11.763
N3805 G2 X 124.775 Y 104.458 I -71.147 J -14.126
N3810 G2 X 125.204 Y 101.529 I-102.193 J -16.475
N3815 G2 X 125.629 Y  97.971 I-142.069 J -18.752
N3820 G2 X 126.009 Y  94.044 I-204.311 J -21.786
N3825 G2 X 126.314 Y  90.111 I-204.692 J -17.859
N3830 G2 X 126.513 Y  86.533 I-142.972 J  -9.712
N3835 G2 X 126.597 Y  83.574 I-103.418 J  -4.432
N3840 G2 X 126.587 Y  80.952 I -72.529 J  -1.032
N3845 G2 X 126.481 Y  78.641 I -48.798 J   1.070
N3850 G2 X 126.306 Y  76.851 I -31.695 J   2.201
N3855 G2 X 126.101 Y  75.552 I -21.129 J   2.675
N3860 G2 X 125.808 Y  74.310 I -14.393 J   2.733
N3865 G2 X 125.596 Y  73.650 I  -9.241 J   2.605
N3870 G2 X 125.446 Y  73.264 I  -7.894 J   2.855
N3875 G2 X 124.900 Y  72.100 I -14.203 J   5.945
N3880 G2 X 124.273 Y  71.040 I -10.054 J   5.233
N3885 G2 X 123.627 Y  70.187 I  -7.460 J   4.980
N3890 G2 X 122.757 Y  69.330 I  -5.499 J   4.707
N3895 G2 X 121.651 Y  68.602 I  -3.793 J   4.560
N3900 G2 X 119.722 Y  68.043 I  -2.434 J   4.791
N3905 G2 X 118.921 Y  68.021 I  -0.561 J   5.937
N3910 G2 X 118.345 Y  68.071 I   0.255 J   6.317
N3915 G2 X 116.707 Y  68.525 I   0.808 J   6.097
N3920 G2 X 115.438 Y  69.248 I   2.680 J   6.181
N3925 G2 X 114.380 Y  70.161 I   4.794 J   6.626
N3930 G2 X 113.488 Y  71.206 I   7.325 J   7.152
N3935 G2 X 112.728 Y  72.343 I  10.945 J   8.133
N3940 G2 X 112.516 Y  72.709 I  13.638 J   8.152
N3945 G3 X 112.498 Y  72.718 I  -0.016 J  -0.012
N3950 G2 X 112.497 Y  72.718 I  -0.125 J   1.575
N3955 G1 X  52.738 Y  67.997
N3960 G2 X  51.906 Y  68.159 I  -0.124 J   1.575
N3965 G3 X  49.968 Y  69.104 I -45.205 J -90.266
N3970 G3 X  47.308 Y  70.306 I -33.944 J -71.558
N3975 G3 X  44.738 Y  71.340 I -22.922 J -53.311
N3980 G3 X  42.419 Y  72.130 I -14.471 J -38.641
N3985 G3 X  40.436 Y  72.664 I  -8.376 J -27.180
N3990 G3 X  39.600 Y  72.838 I  -4.514 J -19.567
N3995 G3 X  38.761 Y  72.991 I -20.873 J-112.042
N4000 G3 X  36.890 Y  73.302 I -14.061 J -78.745
N4005 G3 X  35.290 Y  73.515 I  -5.861 J -38.012
N4010 G3 X  34.314 Y  73.593 I  -1.750 J -15.697
N4015 G3 X  33.822 Y  73.596 I  -0.273 J  -5.558
N4020 G3 X  33.719 Y  73.588 I   0.059 J  -1.501
N4025 G3 X  33.527 Y  73.557 I   0.215 J  -1.976
N4030 G3 X  33.420 Y  73.528 I   0.180 J  -0.860
N4035 G3 X  33.356 Y  73.190 I   5.761 J  -1.268
N4040 G3 X  33.242 Y  72.306 I  14.587 J  -2.329
N4045 G3 X  33.130 Y  70.808 I  32.835 J  -3.227
N4050 G3 X  33.043 Y  69.059 I 275.863 J -14.477
N4055 G3 X  32.800 Y  63.577 I1588.271 J -73.259
N4060 G2 X  32.798 Y  63.538 I  -1.579 J   0.067
N4065 G1 X  32.690 Y  61.936
N4070 G1 X  32.582 Y  60.334
N4075 G2 X  32.581 Y  60.328 I  -1.576 J   0.106
N4080 G2 X  32.402 Y  58.081 I-135.126 J   9.659
N4085 G2 X  32.334 Y  57.357 I -57.269 J   5.052
N4090 G2 X  32.329 Y  57.310 I -39.507 J   3.989
N4095 G2 X  32.318 Y  57.209 I-186.199 J  19.028
N4100 G3 X  32.166 Y  55.700 I 493.988 J -50.752
N4105 G3 X  32.097 Y  55.001 I 405.749 J -40.435
N4110 G2 X  32.087 Y  54.907 I -29.879 J   2.926
N4115 G2 X  32.065 Y  54.710 I  -8.449 J   0.854
N4120 G2 X  31.819 Y  53.314 I -14.039 J   1.752
N4125 G2 X  31.522 Y  52.165 I -19.843 J   4.528
N4130 G2 X  31.509 Y  52.124 I  -1.517 J   0.441
N4135 G2 X  21.738 Y  52.459 I  -4.838 J   1.548
N4140 F30
N4145 G1 Z  -1.170
N4150 F400
N4155 G1 X  15.590 Y  77.451
N4160 G1 X   9.442 Y 102.443
N4165 G2 X  10.530 Y 106.976 I   4.933 J   1.213
N4170 G1 X  12.243 Y 108.960
N4175 G2 X  12.358 Y 109.080 I   1.196 J  -1.033
N4180 G2 X  23.122 Y 118.251 I 100.419 J-106.958
N4185 G2 X  25.296 Y 118.018 I   0.966 J  -1.251
N4190 G3 X  49.398 Y 107.015 I  23.666 J  19.939
N4195 G1 X 109.008 Y 112.708
N4200 G2 X 109.009 Y 112.708 I   0.150 J  -1.573
N4205 G3 X 109.025 Y 112.720 I  -0.002 J   0.020
N4210 G2 X 109.171 Y 113.117 I  14.990 J  -5.270
N4215 G2 X 109.722 Y 114.368 I  12.739 J  -4.864
N4220 G2 X 110.419 Y 115.553 I   9.151 J  -4.591
N4225 G2 X 111.303 Y 116.635 I   6.753 J  -4.614
N4230 G2 X 112.428 Y 117.566 I   4.835 J  -4.692
N4235 G2 X 113.963 Y 118.298 I   3.387 J  -5.133
N4240 G2 X 114.521 Y 118.446 I   1.903 J  -6.029
N4245 G2 X 115.314 Y 118.564 I   1.269 J  -5.827
N4250 G2 X 117.311 Y 118.347 I   0.429 J  -5.356
N4255 G2 X 118.526 Y 117.822 I  -1.730 J  -5.673
N4260 G2 X 119.532 Y 117.128 I  -3.595 J  -6.282
N4265 G2 X 120.315 Y 116.400 I  -5.701 J  -6.925
N4270 G2 X 121.117 Y 115.465 I  -8.194 J  -7.831
N4275 G2 X 121.855 Y 114.413 I -12.220 J  -9.367
N4280 G2 X 122.071 Y 114.058 I  -7.065 J  -4.533
N4285 G2 X 122.394 Y 113.445 I  -8.327 J  -4.780
N4290 G2 X 122.897 Y 112.272 I -13.199 J  -6.357
N4295 G2 X 123.324 Y 111.029 I -19.920 J  -7.537
N4300 G2 X 123.807 Y 109.297 I -30.352 J  -9.389
N4305 G2 X 124.311 Y 107.039 I -47.371 J -11.763
N4310 G2 X 124.775 Y 104.458 I -71.147 J -14.126
N4315 G2 X 125.204 Y 101.529 I-102.193 J -16.475
N4320 G2 X 125.629 Y  97.971 I-142.069 J -18.752
N4325 G2 X 126.009 Y  94.044 I-204.311 J -21.786
N4330 G2 X 126.314 Y  90.111 I-204.692 J -17.859
N4335 G2 X 126.513 Y  86.533 I-142.972 J  -9.712
N4340 G2 X 126.597 Y  83.574 I-103.418 J  -4.432
N4345 G2 X 126.587 Y  80.952 I -72.529 J  -1.032
N4350 G2 X 126.481 Y  78.641 I -48.798 J   1.070
N4355 G2 X 126.306 Y  76.851 I -31.695 J   2.201
N4360 G2 X 126.101 Y  75.552 I -21.129 J   2.675
N4365 G2 X 125.808 Y  74.310 I -14.393 J   2.733
N4370 G2 X 125.596 Y  73.650 I  -9.241 J   2.605
N4375 G2 X 125.446 Y  73.264 I  -7.894 J   2.855
N4380 G2 X 124.900 Y  72.100 I -14.203 J   5.945
N4385 G2 X 124.273 Y  71.040 I -10.054 J   5.233
N4390 G2 X 123.627 Y  70.187 I  -7.460 J   4.980
N4395 G2 X 122.757 Y  69.330 I  -5.499 J   4.707
N4400 G2 X 121.651 Y  68.602 I  -3.793 J   4.560
N4405 G2 X 119.722 Y  68.043 I  -2.434 J   4.791
N4410 G2 X 118.921 Y  68.021 I  -0.561 J   5.937
N4415 G2 X 118.345 Y  68.071 I   0.255 J   6.317
N4420 G2 X 116.707 Y  68.525 I   0.808 J   6.097
N4425 G2 X 115.438 Y  69.248 I   2.680 J   6.181
N4430 G2 X 114.380 Y  70.161 I   4.794 J   6.626
N4435 G2 X 113.488 Y  71.206 I   7.325 J   7.152
N4440 G2 X 112.728 Y  72.343 I  10.945 J   8.133
N4445 G2 X 112.516 Y  72.709 I  13.638 J   8.152
N4450 G3 X 112.498 Y  72.718 I  -0.016 J  -0.012
N4455 G2 X 112.497 Y  72.718 I  -0.125 J   1.575
N4460 G1 X  52.738 Y  67.997
N4465 G2 X  51.906 Y  68.159 I  -0.124 J   1.575
N4470 G3 X  49.968 Y  69.104 I -45.205 J -90.266
N4475 G3 X  47.308 Y  70.306 I -33.944 J -71.558
N4480 G3 X  44.738 Y  71.340 I -22.922 J -53.311
N4485 G3 X  42.419 Y  72.130 I -14.471 J -38.641
N4490 G3 X  40.436 Y  72.664 I  -8.376 J -27.180
N4495 G3 X  39.600 Y  72.838 I  -4.514 J -19.567
N4500 G3 X  38.761 Y  72.991 I -20.873 J-112.042
N4505 G3 X  36.890 Y  73.302 I -14.061 J -78.745
N4510 G3 X  35.290 Y  73.515 I  -5.861 J -38.012
N4515 G3 X  34.314 Y  73.593 I  -1.750 J -15.697
N4520 G3 X  33.822 Y  73.596 I  -0.273 J  -5.558
N4525 G3 X  33.719 Y  73.588 I   0.059 J  -1.501
N4530 G3 X  33.527 Y  73.557 I   0.215 J  -1.976
N4535 G3 X  33.420 Y  73.528 I   0.180 J  -0.860
N4540 G3 X  33.356 Y  73.190 I   5.761 J  -1.268
N4545 G3 X  33.242 Y  72.306 I  14.587 J  -2.329
N4550 G3 X  33.130 Y  70.808 I  32.835 J  -3.227
N4555 G3 X  33.043 Y  69.059 I 275.863 J -14.477
N4560 G3 X  32.800 Y  63.577 I1588.271 J -73.259
N4565 G2 X  32.798 Y  63.538 I  -1.579 J   0.067
N4570 G1 X  32.690 Y  61.936
N4575 G1 X  32.582 Y  60.334
N4580 G2 X  32.581 Y  60.328 I  -1.576 J   0.106
N4585 G2 X  32.402 Y  58.081 I-135.126 J   9.659
N4590 G2 X  32.334 Y  57.357 I -57.269 J   5.052
N4595 G2 X  32.329 Y  57.310 I -39.507 J   3.989
N4600 G2 X  32.318 Y  57.209 I-186.199 J  19.028
N4605 G3 X  32.166 Y  55.700 I 493.988 J -50.752
N4610 G3 X  32.097 Y  55.001 I 405.749 J -40.435
N4615 G2 X  32.087 Y  54.907 I -29.879 J   2.926
N4620 G2 X  32.065 Y  54.710 I  -8.449 J   0.854
N4625 G2 X  31.819 Y  53.314 I -14.039 J   1.752
N4630 G2 X  31.522 Y  52.165 I -19.843 J   4.528
N4635 G2 X  31.509 Y  52.124 I  -1.517 J   0.441
N4640 G2 X  21.738 Y  52.459 I  -4.838 J   1.548
N4645 F30
N4650 G1 Z  -1.300
N4655 F400
N4660 G1 X  15.590 Y  77.451
N4665 G1 X   9.442 Y 102.443
N4670 G2 X  10.530 Y 106.976 I   4.933 J   1.213
N4675 G1 X  12.243 Y 108.960
N4680 G2 X  12.358 Y 109.080 I   1.196 J  -1.033
N4685 G2 X  23.122 Y 118.251 I 100.419 J-106.958
N4690 G2 X  25.296 Y 118.018 I   0.966 J  -1.251
N4695 G3 X  49.398 Y 107.015 I  23.666 J  19.939
N4700 G1 X 109.008 Y 112.708
N4705 G2 X 109.009 Y 112.708 I   0.150 J  -1.573
N4710 G3 X 109.025 Y 112.720 I  -0.002 J   0.020
N4715 G2 X 109.171 Y 113.117 I  14.990 J  -5.270
N4720 G2 X 109.722 Y 114.368 I  12.739 J  -4.864
N4725 G2 X 110.419 Y 115.553 I   9.151 J  -4.591
N4730 G2 X 111.303 Y 116.635 I   6.753 J  -4.614
N4735 G2 X 112.428 Y 117.566 I   4.835 J  -4.692
N4740 G2 X 113.963 Y 118.298 I   3.387 J  -5.133
N4745 G2 X 114.521 Y 118.446 I   1.903 J  -6.029
N4750 G2 X 115.314 Y 118.564 I   1.269 J  -5.827
N4755 G2 X 117.311 Y 118.347 I   0.429 J  -5.356
N4760 G2 X 118.526 Y 117.822 I  -1.730 J  -5.673
N4765 G2 X 119.532 Y 117.128 I  -3.595 J  -6.282
N4770 G2 X 120.315 Y 116.400 I  -5.701 J  -6.925
N4775 G2 X 121.117 Y 115.465 I  -8.194 J  -7.831
N4780 G2 X 121.855 Y 114.413 I -12.220 J  -9.367
N4785 G2 X 122.071 Y 114.058 I  -7.065 J  -4.533
N4790 G2 X 122.394 Y 113.445 I  -8.327 J  -4.780
N4795 G2 X 122.897 Y 112.272 I -13.199 J  -6.357
N4800 G2 X 123.324 Y 111.029 I -19.920 J  -7.537
N4805 G2 X 123.807 Y 109.297 I -30.352 J  -9.389
N4810 G2 X 124.311 Y 107.039 I -47.371 J -11.763
N4815 G2 X 124.775 Y 104.458 I -71.147 J -14.126
N4820 G2 X 125.204 Y 101.529 I-102.193 J -16.475
N4825 G2 X 125.629 Y  97.971 I-142.069 J -18.752
N4830 G2 X 126.009 Y  94.044 I-204.311 J -21.786
N4835 G2 X 126.314 Y  90.111 I-204.692 J -17.859
N4840 G2 X 126.513 Y  86.533 I-142.972 J  -9.712
N4845 G2 X 126.597 Y  83.574 I-103.418 J  -4.432
N4850 G2 X 126.587 Y  80.952 I -72.529 J  -1.032
N4855 G2 X 126.481 Y  78.641 I -48.798 J   1.070
N4860 G2 X 126.306 Y  76.851 I -31.695 J   2.201
N4865 G2 X 126.101 Y  75.552 I -21.129 J   2.675
N4870 G2 X 125.808 Y  74.310 I -14.393 J   2.733
N4875 G2 X 125.596 Y  73.650 I  -9.241 J   2.605
N4880 G2 X 125.446 Y  73.264 I  -7.894 J   2.855
N4885 G2 X 124.900 Y  72.100 I -14.203 J   5.945
N4890 G2 X 124.273 Y  71.040 I -10.054 J   5.233
N4895 G2 X 123.627 Y  70.187 I  -7.460 J   4.980
N4900 G2 X 122.757 Y  69.330 I  -5.499 J   4.707
N4905 G2 X 121.651 Y  68.602 I  -3.793 J   4.560
N4910 G2 X 119.722 Y  68.043 I  -2.434 J   4.791
N4915 G2 X 118.921 Y  68.021 I  -0.561 J   5.937
N4920 G2 X 118.345 Y  68.071 I   0.255 J   6.317
N4925 G2 X 116.707 Y  68.525 I   0.808 J   6.097
N4930 G2 X 115.438 Y  69.248 I   2.680 J   6.181
N4935 G2 X 114.380 Y  70.161 I   4.794 J   6.626
N4940 G2 X 113.488 Y  71.206 I   7.325 J   7.152
N4945 G2 X 112.728 Y  72.343 I  10.945 J   8.133
N4950 G2 X 112.516 Y  72.709 I  13.638 J   8.152
N4955 G3 X 112.498 Y  72.718 I  -0.016 J  -0.012
N4960 G2 X 112.497 Y  72.718 I  -0.125 J   1.575
N4965 G1 X  52.738 Y  67.997
N4970 G2 X  51.906 Y  68.159 I  -0.124 J   1.575
N4975 G3 X  49.968 Y  69.104 I -45.205 J -90.266
N4980 G3 X  47.308 Y  70.306 I -33.944 J -71.558
N4985 G3 X  44.738 Y  71.340 I -22.922 J -53.311
N4990 G3 X  42.419 Y  72.130 I -14.471 J -38.641
N4995 G3 X  40.436 Y  72.664 I  -8.376 J -27.180
N5000 G3 X  39.600 Y  72.838 I  -4.514 J -19.567
N5005 G3 X  38.761 Y  72.991 I -20.873 J-112.042
N5010 G3 X  36.890 Y  73.302 I -14.061 J -78.745
N5015 G3 X  35.290 Y  73.515 I  -5.861 J -38.012
N5020 G3 X  34.314 Y  73.593 I  -1.750 J -15.697
N5025 G3 X  33.822 Y  73.596 I  -0.273 J  -5.558
N5030 G3 X  33.719 Y  73.588 I   0.059 J  -1.501
N5035 G3 X  33.527 Y  73.557 I   0.215 J  -1.976
N5040 G3 X  33.420 Y  73.528 I   0.180 J  -0.860
N5045 G3 X  33.356 Y  73.190 I   5.761 J  -1.268
N5050 G3 X  33.242 Y  72.306 I  14.587 J  -2.329
N5055 G3 X  33.130 Y  70.808 I  32.835 J  -3.227
N5060 G3 X  33.043 Y  69.059 I 275.863 J -14.477
N5065 G3 X  32.800 Y  63.577 I1588.271 J -73.259
N5070 G2 X  32.798 Y  63.538 I  -1.579 J   0.067
N5075 G1 X  32.690 Y  61.936
N5080 G1 X  32.582 Y  60.334
N5085 G2 X  32.581 Y  60.328 I  -1.576 J   0.106
N5090 G2 X  32.402 Y  58.081 I-135.126 J   9.659
N5095 G2 X  32.334 Y  57.357 I -57.269 J   5.052
N5100 G2 X  32.329 Y  57.310 I -39.507 J   3.989
N5105 G2 X  32.318 Y  57.209 I-186.199 J  19.028
N5110 G3 X  32.166 Y  55.700 I 493.988 J -50.752
N5115 G3 X  32.097 Y  55.001 I 405.749 J -40.435
N5120 G2 X  32.087 Y  54.907 I -29.879 J   2.926
N5125 G2 X  32.065 Y  54.710 I  -8.449 J   0.854
N5130 G2 X  31.819 Y  53.314 I -14.039 J   1.752
N5135 G2 X  31.522 Y  52.165 I -19.843 J   4.528
N5140 G2 X  31.509 Y  52.124 I  -1.517 J   0.441
N5145 G2 X  21.738 Y  52.459 I  -4.838 J   1.548
N5150 F30
N5155 G1 Z  -1.430
N5160 F400
N5165 G1 X  15.590 Y  77.451
N5170 G1 X   9.442 Y 102.443
N5175 G2 X  10.530 Y 106.976 I   4.933 J   1.213
N5180 G1 X  12.243 Y 108.960
N5185 G2 X  12.358 Y 109.080 I   1.196 J  -1.033
N5190 G2 X  23.122 Y 118.251 I 100.419 J-106.958
N5195 G2 X  25.296 Y 118.018 I   0.966 J  -1.251
N5200 G3 X  49.398 Y 107.015 I  23.666 J  19.939
N5205 G1 X 109.008 Y 112.708
N5210 G2 X 109.009 Y 112.708 I   0.150 J  -1.573
N5215 G3 X 109.025 Y 112.720 I  -0.002 J   0.020
N5220 G2 X 109.171 Y 113.117 I  14.990 J  -5.270
N5225 G2 X 109.722 Y 114.368 I  12.739 J  -4.864
N5230 G2 X 110.419 Y 115.553 I   9.151 J  -4.591
N5235 G2 X 111.303 Y 116.635 I   6.753 J  -4.614
N5240 G2 X 112.428 Y 117.566 I   4.835 J  -4.692
N5245 G2 X 113.963 Y 118.298 I   3.387 J  -5.133
N5250 G2 X 114.521 Y 118.446 I   1.903 J  -6.029
N5255 G2 X 115.314 Y 118.564 I   1.269 J  -5.827
N5260 G2 X 117.311 Y 118.347 I   0.429 J  -5.356
N5265 G2 X 118.526 Y 117.822 I  -1.730 J  -5.673
N5270 G2 X 119.532 Y 117.128 I  -3.595 J  -6.282
N5275 G2 X 120.315 Y 116.400 I  -5.701 J  -6.925
N5280 G2 X 121.117 Y 115.465 I  -8.194 J  -7.831
N5285 G2 X 121.855 Y 114.413 I -12.220 J  -9.367
N5290 G2 X 122.071 Y 114.058 I  -7.065 J  -4.533
N5295 G2 X 122.394 Y 113.445 I  -8.327 J  -4.780
N5300 G2 X 122.897 Y 112.272 I -13.199 J  -6.357
N5305 G2 X 123.324 Y 111.029 I -19.920 J  -7.537
N5310 G2 X 123.807 Y 109.297 I -30.352 J  -9.389
N5315 G2 X 124.311 Y 107.039 I -47.371 J -11.763
N5320 G2 X 124.775 Y 104.458 I -71.147 J -14.126
N5325 G2 X 125.204 Y 101.529 I-102.193 J -16.475
N5330 G2 X 125.629 Y  97.971 I-142.069 J -18.752
N5335 G2 X 126.009 Y  94.044 I-204.311 J -21.786
N5340 G2 X 126.314 Y  90.111 I-204.692 J -17.859
N5345 G2 X 126.513 Y  86.533 I-142.972 J  -9.712
N5350 G2 X 126.597 Y  83.574 I-103.418 J  -4.432
N5355 G2 X 126.587 Y  80.952 I -72.529 J  -1.032
N5360 G2 X 126.481 Y  78.641 I -48.798 J   1.070
N5365 G2 X 126.306 Y  76.851 I -31.695 J   2.201
N5370 G2 X 126.101 Y  75.552 I -21.129 J   2.675
N5375 G2 X 125.808 Y  74.310 I -14.393 J   2.733
N5380 G2 X 125.596 Y  73.650 I  -9.241 J   2.605
N5385 G2 X 125.446 Y  73.264 I  -7.894 J   2.855
N5390 G2 X 124.900 Y  72.100 I -14.203 J   5.945
N5395 G2 X 124.273 Y  71.040 I -10.054 J   5.233
N5400 G2 X 123.627 Y  70.187 I  -7.460 J   4.980
N5405 G2 X 122.757 Y  69.330 I  -5.499 J   4.707
N5410 G2 X 121.651 Y  68.602 I  -3.793 J   4.560
N5415 G2 X 119.722 Y  68.043 I  -2.434 J   4.791
N5420 G2 X 118.921 Y  68.021 I  -0.561 J   5.937
N5425 G2 X 118.345 Y  68.071 I   0.255 J   6.317
N5430 G2 X 116.707 Y  68.525 I   0.808 J   6.097
N5435 G2 X 115.438 Y  69.248 I   2.680 J   6.181
N5440 G2 X 114.380 Y  70.161 I   4.794 J   6.626
N5445 G2 X 113.488 Y  71.206 I   7.325 J   7.152
N5450 G2 X 112.728 Y  72.343 I  10.945 J   8.133
N5455 G2 X 112.516 Y  72.709 I  13.638 J   8.152
N5460 G3 X 112.498 Y  72.718 I  -0.016 J  -0.012
N5465 G2 X 112.497 Y  72.718 I  -0.125 J   1.575
N5470 G1 X  52.738 Y  67.997
N5475 G2 X  51.906 Y  68.159 I  -0.124 J   1.575
N5480 G3 X  49.968 Y  69.104 I -45.205 J -90.266
N5485 G3 X  47.308 Y  70.306 I -33.944 J -71.558
N5490 G3 X  44.738 Y  71.340 I -22.922 J -53.311
N5495 G3 X  42.419 Y  72.130 I -14.471 J -38.641
N5500 G3 X  40.436 Y  72.664 I  -8.376 J -27.180
N5505 G3 X  39.600 Y  72.838 I  -4.514 J -19.567
N5510 G3 X  38.761 Y  72.991 I -20.873 J-112.042
N5515 G3 X  36.890 Y  73.302 I -14.061 J -78.745
N5520 G3 X  35.290 Y  73.515 I  -5.861 J -38.012
N5525 G3 X  34.314 Y  73.593 I  -1.750 J -15.697
N5530 G3 X  33.822 Y  73.596 I  -0.273 J  -5.558
N5535 G3 X  33.719 Y  73.588 I   0.059 J  -1.501
N5540 G3 X  33.527 Y  73.557 I   0.215 J  -1.976
N5545 G3 X  33.420 Y  73.528 I   0.180 J  -0.860
N5550 G3 X  33.356 Y  73.190 I   5.761 J  -1.268
N5555 G3 X  33.242 Y  72.306 I  14.587 J  -2.329
N5560 G3 X  33.130 Y  70.808 I  32.835 J  -3.227
N5565 G3 X  33.043 Y  69.059 I 275.863 J -14.477
N5570 G3 X  32.800 Y  63.577 I1588.271 J -73.259
N5575 G2 X  32.798 Y  63.538 I  -1.579 J   0.067
N5580 G1 X  32.690 Y  61.936
N5585 G1 X  32.582 Y  60.334
N5590 G2 X  32.581 Y  60.328 I  -1.576 J   0.106
N5595 G2 X  32.402 Y  58.081 I-135.126 J   9.659
N5600 G2 X  32.334 Y  57.357 I -57.269 J   5.052
N5605 G2 X  32.329 Y  57.310 I -39.507 J   3.989
N5610 G2 X  32.318 Y  57.209 I-186.199 J  19.028
N5615 G3 X  32.166 Y  55.700 I 493.988 J -50.752
N5620 G3 X  32.097 Y  55.001 I 405.749 J -40.435
N5625 G2 X  32.087 Y  54.907 I -29.879 J   2.926
N5630 G2 X  32.065 Y  54.710 I  -8.449 J   0.854
N5635 G2 X  31.819 Y  53.314 I -14.039 J   1.752
N5640 G2 X  31.522 Y  52.165 I -19.843 J   4.528
N5645 G2 X  31.509 Y  52.124 I  -1.517 J   0.441
N5650 G2 X  21.738 Y  52.459 I  -4.838 J   1.548
N5655 F30
N5660 G1 Z  -1.560
N5665 F400
N5670 G1 X  15.590 Y  77.451
N5675 G1 X   9.442 Y 102.443
N5680 G2 X  10.530 Y 106.976 I   4.933 J   1.213
N5685 G1 X  12.243 Y 108.960
N5690 G2 X  12.358 Y 109.080 I   1.196 J  -1.033
N5695 G2 X  23.122 Y 118.251 I 100.419 J-106.958
N5700 G2 X  25.296 Y 118.018 I   0.966 J  -1.251
N5705 G3 X  49.398 Y 107.015 I  23.666 J  19.939
N5710 G1 X 109.008 Y 112.708
N5715 G2 X 109.009 Y 112.708 I   0.150 J  -1.573
N5720 G3 X 109.025 Y 112.720 I  -0.002 J   0.020
N5725 G2 X 109.171 Y 113.117 I  14.990 J  -5.270
N5730 G2 X 109.722 Y 114.368 I  12.739 J  -4.864
N5735 G2 X 110.419 Y 115.553 I   9.151 J  -4.591
N5740 G2 X 111.303 Y 116.635 I   6.753 J  -4.614
N5745 G2 X 112.428 Y 117.566 I   4.835 J  -4.692
N5750 G2 X 113.963 Y 118.298 I   3.387 J  -5.133
N5755 G2 X 114.521 Y 118.446 I   1.903 J  -6.029
N5760 G2 X 115.314 Y 118.564 I   1.269 J  -5.827
N5765 G2 X 117.311 Y 118.347 I   0.429 J  -5.356
N5770 G2 X 118.526 Y 117.822 I  -1.730 J  -5.673
N5775 G2 X 119.532 Y 117.128 I  -3.595 J  -6.282
N5780 G2 X 120.315 Y 116.400 I  -5.701 J  -6.925
N5785 G2 X 121.117 Y 115.465 I  -8.194 J  -7.831
N5790 G2 X 121.855 Y 114.413 I -12.220 J  -9.367
N5795 G2 X 122.071 Y 114.058 I  -7.065 J  -4.533
N5800 G2 X 122.394 Y 113.445 I  -8.327 J  -4.780
N5805 G2 X 122.897 Y 112.272 I -13.199 J  -6.357
N5810 G2 X 123.324 Y 111.029 I -19.920 J  -7.537
N5815 G2 X 123.807 Y 109.297 I -30.352 J  -9.389
N5820 G2 X 124.311 Y 107.039 I -47.371 J -11.763
N5825 G2 X 124.775 Y 104.458 I -71.147 J -14.126
N5830 G2 X 125.204 Y 101.529 I-102.193 J -16.475
N5835 G2 X 125.629 Y  97.971 I-142.069 J -18.752
N5840 G2 X 126.009 Y  94.044 I-204.311 J -21.786
N5845 G2 X 126.314 Y  90.111 I-204.692 J -17.859
N5850 G2 X 126.513 Y  86.533 I-142.972 J  -9.712
N5855 G2 X 126.597 Y  83.574 I-103.418 J  -4.432
N5860 G2 X 126.587 Y  80.952 I -72.529 J  -1.032
N5865 G2 X 126.481 Y  78.641 I -48.798 J   1.070
N5870 G2 X 126.306 Y  76.851 I -31.695 J   2.201
N5875 G2 X 126.101 Y  75.552 I -21.129 J   2.675
N5880 G2 X 125.808 Y  74.310 I -14.393 J   2.733
N5885 G2 X 125.596 Y  73.650 I  -9.241 J   2.605
N5890 G2 X 125.446 Y  73.264 I  -7.894 J   2.855
N5895 G2 X 124.900 Y  72.100 I -14.203 J   5.945
N5900 G2 X 124.273 Y  71.040 I -10.054 J   5.233
N5905 G2 X 123.627 Y  70.187 I  -7.460 J   4.980
N5910 G2 X 122.757 Y  69.330 I  -5.499 J   4.707
N5915 G2 X 121.651 Y  68.602 I  -3.793 J   4.560
N5920 G2 X 119.722 Y  68.043 I  -2.434 J   4.791
N5925 G2 X 118.921 Y  68.021 I  -0.561 J   5.937
N5930 G2 X 118.345 Y  68.071 I   0.255 J   6.317
N5935 G2 X 116.707 Y  68.525 I   0.808 J   6.097
N5940 G2 X 115.438 Y  69.248 I   2.680 J   6.181
N5945 G2 X 114.380 Y  70.161 I   4.794 J   6.626
N5950 G2 X 113.488 Y  71.206 I   7.325 J   7.152
N5955 G2 X 112.728 Y  72.343 I  10.945 J   8.133
N5960 G2 X 112.516 Y  72.709 I  13.638 J   8.152
N5965 G3 X 112.498 Y  72.718 I  -0.016 J  -0.012
N5970 G2 X 112.497 Y  72.718 I  -0.125 J   1.575
N5975 G1 X  52.738 Y  67.997
N5980 G2 X  51.906 Y  68.159 I  -0.124 J   1.575
N5985 G3 X  49.968 Y  69.104 I -45.205 J -90.266
N5990 G3 X  47.308 Y  70.306 I -33.944 J -71.558
N5995 G3 X  44.738 Y  71.340 I -22.922 J -53.311
N6000 G3 X  42.419 Y  72.130 I -14.471 J -38.641
N6005 G3 X  40.436 Y  72.664 I  -8.376 J -27.180
N6010 G3 X  39.600 Y  72.838 I  -4.514 J -19.567
N6015 G3 X  38.761 Y  72.991 I -20.873 J-112.042
N6020 G3 X  36.890 Y  73.302 I -14.061 J -78.745
N6025 G3 X  35.290 Y  73.515 I  -5.861 J -38.012
N6030 G3 X  34.314 Y  73.593 I  -1.750 J -15.697
N6035 G3 X  33.822 Y  73.596 I  -0.273 J  -5.558
N6040 G3 X  33.719 Y  73.588 I   0.059 J  -1.501
N6045 G3 X  33.527 Y  73.557 I   0.215 J  -1.976
N6050 G3 X  33.420 Y  73.528 I   0.180 J  -0.860
N6055 G3 X  33.356 Y  73.190 I   5.761 J  -1.268
N6060 G3 X  33.242 Y  72.306 I  14.587 J  -2.329
N6065 G3 X  33.130 Y  70.808 I  32.835 J  -3.227
N6070 G3 X  33.043 Y  69.059 I 275.863 J -14.477
N6075 G3 X  32.800 Y  63.577 I1588.271 J -73.259
N6080 G2 X  32.798 Y  63.538 I  -1.579 J   0.067
N6085 G1 X  32.690 Y  61.936
N6090 G1 X  32.582 Y  60.334
N6095 G2 X  32.581 Y  60.328 I  -1.576 J   0.106
N6100 G2 X  32.402 Y  58.081 I-135.126 J   9.659
N6105 G2 X  32.334 Y  57.357 I -57.269 J   5.052
N6110 G2 X  32.329 Y  57.310 I -39.507 J   3.989
N6115 G2 X  32.318 Y  57.209 I-186.199 J  19.028
N6120 G3 X  32.166 Y  55.700 I 493.988 J -50.752
N6125 G3 X  32.097 Y  55.001 I 405.749 J -40.435
N6130 G2 X  32.087 Y  54.907 I -29.879 J   2.926
N6135 G2 X  32.065 Y  54.710 I  -8.449 J   0.854
N6140 G2 X  31.819 Y  53.314 I -14.039 J   1.752
N6145 G2 X  31.522 Y  52.165 I -19.843 J   4.528
N6150 G2 X  31.509 Y  52.124 I  -1.517 J   0.441
N6155 G2 X  21.738 Y  52.459 I  -4.838 J   1.548
N6160 F30
N6165 G1 Z  -1.690
N6170 F400
N6175 G1 X  15.590 Y  77.451
N6180 G1 X   9.442 Y 102.443
N6185 G2 X  10.530 Y 106.976 I   4.933 J   1.213
N6190 G1 X  12.243 Y 108.960
N6195 G2 X  12.358 Y 109.080 I   1.196 J  -1.033
N6200 G2 X  23.122 Y 118.251 I 100.419 J-106.958
N6205 G2 X  25.296 Y 118.018 I   0.966 J  -1.251
N6210 G3 X  49.398 Y 107.015 I  23.666 J  19.939
N6215 G1 X 109.008 Y 112.708
N6220 G2 X 109.009 Y 112.708 I   0.150 J  -1.573
N6225 G3 X 109.025 Y 112.720 I  -0.002 J   0.020
N6230 G2 X 109.171 Y 113.117 I  14.990 J  -5.270
N6235 G2 X 109.722 Y 114.368 I  12.739 J  -4.864
N6240 G2 X 110.419 Y 115.553 I   9.151 J  -4.591
N6245 G2 X 111.303 Y 116.635 I   6.753 J  -4.614
N6250 G2 X 112.428 Y 117.566 I   4.835 J  -4.692
N6255 G2 X 113.963 Y 118.298 I   3.387 J  -5.133
N6260 G2 X 114.521 Y 118.446 I   1.903 J  -6.029
N6265 G2 X 115.314 Y 118.564 I   1.269 J  -5.827
N6270 G2 X 117.311 Y 118.347 I   0.429 J  -5.356
N6275 G2 X 118.526 Y 117.822 I  -1.730 J  -5.673
N6280 G2 X 119.532 Y 117.128 I  -3.595 J  -6.282
N6285 G2 X 120.315 Y 116.400 I  -5.701 J  -6.925
N6290 G2 X 121.117 Y 115.465 I  -8.194 J  -7.831
N6295 G2 X 121.855 Y 114.413 I -12.220 J  -9.367
N6300 G2 X 122.071 Y 114.058 I  -7.065 J  -4.533
N6305 G2 X 122.394 Y 113.445 I  -8.327 J  -4.780
N6310 G2 X 122.897 Y 112.272 I -13.199 J  -6.357
N6315 G2 X 123.324 Y 111.029 I -19.920 J  -7.537
N6320 G2 X 123.807 Y 109.297 I -30.352 J  -9.389
N6325 G2 X 124.311 Y 107.039 I -47.371 J -11.763
N6330 G2 X 124.775 Y 104.458 I -71.147 J -14.126
N6335 G2 X 125.204 Y 101.529 I-102.193 J -16.475
N6340 G2 X 125.629 Y  97.971 I-142.069 J -18.752
N6345 G2 X 126.009 Y  94.044 I-204.311 J -21.786
N6350 G2 X 126.314 Y  90.111 I-204.692 J -17.859
N6355 G2 X 126.513 Y  86.533 I-142.972 J  -9.712
N6360 G2 X 126.597 Y  83.574 I-103.418 J  -4.432
N6365 G2 X 126.587 Y  80.952 I -72.529 J  -1.032
N6370 G2 X 126.481 Y  78.641 I -48.798 J   1.070
N6375 G2 X 126.306 Y  76.851 I -31.695 J   2.201
N6380 G2 X 126.101 Y  75.552 I -21.129 J   2.675
N6385 G2 X 125.808 Y  74.310 I -14.393 J   2.733
N6390 G2 X 125.596 Y  73.650 I  -9.241 J   2.605
N6395 G2 X 125.446 Y  73.264 I  -7.894 J   2.855
N6400 G2 X 124.900 Y  72.100 I -14.203 J   5.945
N6405 G2 X 124.273 Y  71.040 I -10.054 J   5.233
N6410 G2 X 123.627 Y  70.187 I  -7.460 J   4.980
N6415 G2 X 122.757 Y  69.330 I  -5.499 J   4.707
N6420 G2 X 121.651 Y  68.602 I  -3.793 J   4.560
N6425 G2 X 119.722 Y  68.043 I  -2.434 J   4.791
N6430 G2 X 118.921 Y  68.021 I  -0.561 J   5.937
N6435 G2 X 118.345 Y  68.071 I   0.255 J   6.317
N6440 G2 X 116.707 Y  68.525 I   0.808 J   6.097
N6445 G2 X 115.438 Y  69.248 I   2.680 J   6.181
N6450 G2 X 114.380 Y  70.161 I   4.794 J   6.626
N6455 G2 X 113.488 Y  71.206 I   7.325 J   7.152
N6460 G2 X 112.728 Y  72.343 I  10.945 J   8.133
N6465 G2 X 112.516 Y  72.709 I  13.638 J   8.152
N6470 G3 X 112.498 Y  72.718 I  -0.016 J  -0.012
N6475 G2 X 112.497 Y  72.718 I  -0.125 J   1.575
N6480 G1 X  52.738 Y  67.997
N6485 G2 X  51.906 Y  68.159 I  -0.124 J   1.575
N6490 G3 X  49.968 Y  69.104 I -45.205 J -90.266
N6495 G3 X  47.308 Y  70.306 I -33.944 J -71.558
N6500 G3 X  44.738 Y  71.340 I -22.922 J -53.311
N6505 G3 X  42.419 Y  72.130 I -14.471 J -38.641
N6510 G3 X  40.436 Y  72.664 I  -8.376 J -27.180
N6515 G3 X  39.600 Y  72.838 I  -4.514 J -19.567
N6520 G3 X  38.761 Y  72.991 I -20.873 J-112.042
N6525 G3 X  36.890 Y  73.302 I -14.061 J -78.745
N6530 G3 X  35.290 Y  73.515 I  -5.861 J -38.012
N6535 G3 X  34.314 Y  73.593 I  -1.750 J -15.697
N6540 G3 X  33.822 Y  73.596 I  -0.273 J  -5.558
N6545 G3 X  33.719 Y  73.588 I   0.059 J  -1.501
N6550 G3 X  33.527 Y  73.557 I   0.215 J  -1.976
N6555 G3 X  33.420 Y  73.528 I   0.180 J  -0.860
N6560 G3 X  33.356 Y  73.190 I   5.761 J  -1.268
N6565 G3 X  33.242 Y  72.306 I  14.587 J  -2.329
N6570 G3 X  33.130 Y  70.808 I  32.835 J  -3.227
N6575 G3 X  33.043 Y  69.059 I 275.863 J -14.477
N6580 G3 X  32.800 Y  63.577 I1588.271 J -73.259
N6585 G2 X  32.798 Y  63.538 I  -1.579 J   0.067
N6590 G1 X  32.690 Y  61.936
N6595 G1 X  32.582 Y  60.334
N6600 G2 X  32.581 Y  60.328 I  -1.576 J   0.106
N6605 G2 X  32.402 Y  58.081 I-135.126 J   9.659
N6610 G2 X  32.334 Y  57.357 I -57.269 J   5.052
N6615 G2 X  32.329 Y  57.310 I -39.507 J   3.989
N6620 G2 X  32.318 Y  57.209 I-186.199 J  19.028
N6625 G3 X  32.166 Y  55.700 I 493.988 J -50.752
N6630 G3 X  32.097 Y  55.001 I 405.749 J -40.435
N6635 G2 X  32.087 Y  54.907 I -29.879 J   2.926
N6640 G2 X  32.065 Y  54.710 I  -8.449 J   0.854
N6645 G2 X  31.819 Y  53.314 I -14.039 J   1.752
N6650 G2 X  31.522 Y  52.165 I -19.843 J   4.528
N6655 G2 X  31.509 Y  52.124 I  -1.517 J   0.441
N6660 G2 X  21.738 Y  52.459 I  -4.838 J   1.548
N6665 F30
N6670 G1 Z  -1.820
N6675 F400
N6680 G1 X  15.590 Y  77.451
N6685 G1 X   9.442 Y 102.443
N6690 G2 X  10.530 Y 106.976 I   4.933 J   1.213
N6695 G1 X  12.243 Y 108.960
N6700 G2 X  12.358 Y 109.080 I   1.196 J  -1.033
N6705 G2 X  23.122 Y 118.251 I 100.419 J-106.958
N6710 G2 X  25.296 Y 118.018 I   0.966 J  -1.251
N6715 G3 X  49.398 Y 107.015 I  23.666 J  19.939
N6720 G1 X 109.008 Y 112.708
N6725 G2 X 109.009 Y 112.708 I   0.150 J  -1.573
N6730 G3 X 109.025 Y 112.720 I  -0.002 J   0.020
N6735 G2 X 109.171 Y 113.117 I  14.990 J  -5.270
N6740 G2 X 109.722 Y 114.368 I  12.739 J  -4.864
N6745 G2 X 110.419 Y 115.553 I   9.151 J  -4.591
N6750 G2 X 111.303 Y 116.635 I   6.753 J  -4.614
N6755 G2 X 112.428 Y 117.566 I   4.835 J  -4.692
N6760 G2 X 113.963 Y 118.298 I   3.387 J  -5.133
N6765 G2 X 114.521 Y 118.446 I   1.903 J  -6.029
N6770 G2 X 115.314 Y 118.564 I   1.269 J  -5.827
N6775 G2 X 117.311 Y 118.347 I   0.429 J  -5.356
N6780 G2 X 118.526 Y 117.822 I  -1.730 J  -5.673
N6785 G2 X 119.532 Y 117.128 I  -3.595 J  -6.282
N6790 G2 X 120.315 Y 116.400 I  -5.701 J  -6.925
N6795 G2 X 121.117 Y 115.465 I  -8.194 J  -7.831
N6800 G2 X 121.855 Y 114.413 I -12.220 J  -9.367
N6805 G2 X 122.071 Y 114.058 I  -7.065 J  -4.533
N6810 G2 X 122.394 Y 113.445 I  -8.327 J  -4.780
N6815 G2 X 122.897 Y 112.272 I -13.199 J  -6.357
N6820 G2 X 123.324 Y 111.029 I -19.920 J  -7.537
N6825 G2 X 123.807 Y 109.297 I -30.352 J  -9.389
N6830 G2 X 124.311 Y 107.039 I -47.371 J -11.763
N6835 G2 X 124.775 Y 104.458 I -71.147 J -14.126
N6840 G2 X 125.204 Y 101.529 I-102.193 J -16.475
N6845 G2 X 125.629 Y  97.971 I-142.069 J -18.752
N6850 G2 X 126.009 Y  94.044 I-204.311 J -21.786
N6855 G2 X 126.314 Y  90.111 I-204.692 J -17.859
N6860 G2 X 126.513 Y  86.533 I-142.972 J  -9.712
N6865 G2 X 126.597 Y  83.574 I-103.418 J  -4.432
N6870 G2 X 126.587 Y  80.952 I -72.529 J  -1.032
N6875 G2 X 126.481 Y  78.641 I -48.798 J   1.070
N6880 G2 X 126.306 Y  76.851 I -31.695 J   2.201
N6885 G2 X 126.101 Y  75.552 I -21.129 J   2.675
N6890 G2 X 125.808 Y  74.310 I -14.393 J   2.733
N6895 G2 X 125.596 Y  73.650 I  -9.241 J   2.605
N6900 G2 X 125.446 Y  73.264 I  -7.894 J   2.855
N6905 G2 X 124.900 Y  72.100 I -14.203 J   5.945
N6910 G2 X 124.273 Y  71.040 I -10.054 J   5.233
N6915 G2 X 123.627 Y  70.187 I  -7.460 J   4.980
N6920 G2 X 122.757 Y  69.330 I  -5.499 J   4.707
N6925 G2 X 121.651 Y  68.602 I  -3.793 J   4.560
N6930 G2 X 119.722 Y  68.043 I  -2.434 J   4.791
N6935 G2 X 118.921 Y  68.021 I  -0.561 J   5.937
N6940 G2 X 118.345 Y  68.071 I   0.255 J   6.317
N6945 G2 X 116.707 Y  68.525 I   0.808 J   6.097
N6950 G2 X 115.438 Y  69.248 I   2.680 J   6.181
N6955 G2 X 114.380 Y  70.161 I   4.794 J   6.626
N6960 G2 X 113.488 Y  71.206 I   7.325 J   7.152
N6965 G2 X 112.728 Y  72.343 I  10.945 J   8.133
N6970 G2 X 112.516 Y  72.709 I  13.638 J   8.152
N6975 G3 X 112.498 Y  72.718 I  -0.016 J  -0.012
N6980 G2 X 112.497 Y  72.718 I  -0.125 J   1.575
N6985 G1 X  52.738 Y  67.997
N6990 G2 X  51.906 Y  68.159 I  -0.124 J   1.575
N6995 G3 X  49.968 Y  69.104 I -45.205 J -90.266
N7000 G3 X  47.308 Y  70.306 I -33.944 J -71.558
N7005 G3 X  44.738 Y  71.340 I -22.922 J -53.311
N7010 G3 X  42.419 Y  72.130 I -14.471 J -38.641
N7015 G3 X  40.436 Y  72.664 I  -8.376 J -27.180
N7020 G3 X  39.600 Y  72.838 I  -4.514 J -19.567
N7025 G3 X  38.761 Y  72.991 I -20.873 J-112.042
N7030 G3 X  36.890 Y  73.302 I -14.061 J -78.745
N7035 G3 X  35.290 Y  73.515 I  -5.861 J -38.012
N7040 G3 X  34.314 Y  73.593 I  -1.750 J -15.697
N7045 G3 X  33.822 Y  73.596 I  -0.273 J  -5.558
N7050 G3 X  33.719 Y  73.588 I   0.059 J  -1.501
N7055 G3 X  33.527 Y  73.557 I   0.215 J  -1.976
N7060 G3 X  33.420 Y  73.528 I   0.180 J  -0.860
N7065 G3 X  33.356 Y  73.190 I   5.761 J  -1.268
N7070 G3 X  33.242 Y  72.306 I  14.587 J  -2.329
N7075 G3 X  33.130 Y  70.808 I  32.835 J  -3.227
N7080 G3 X  33.043 Y  69.059 I 275.863 J -14.477
N7085 G3 X  32.800 Y  63.577 I1588.271 J -73.259
N7090 G2 X  32.798 Y  63.538 I  -1.579 J   0.067
N7095 G1 X  32.690 Y  61.936
N7100 G1 X  32.582 Y  60.334
N7105 G2 X  32.581 Y  60.328 I  -1.576 J   0.106
N7110 G2 X  32.402 Y  58.081 I-135.126 J   9.659
N7115 G2 X  32.334 Y  57.357 I -57.269 J   5.052
N7120 G2 X  32.329 Y  57.310 I -39.507 J   3.989
N7125 G2 X  32.318 Y  57.209 I-186.199 J  19.028
N7130 G3 X  32.166 Y  55.700 I 493.988 J -50.752
N7135 G3 X  32.097 Y  55.001 I 405.749 J -40.435
N7140 G2 X  32.087 Y  54.907 I -29.879 J   2.926
N7145 G2 X  32.065 Y  54.710 I  -8.449 J   0.854
N7150 G2 X  31.819 Y  53.314 I -14.039 J   1.752
N7155 G2 X  31.522 Y  52.165 I -19.843 J   4.528
N7160 G2 X  31.509 Y  52.124 I  -1.517 J   0.441
N7165 G2 X  21.738 Y  52.459 I  -4.838 J   1.548
N7170 F30
N7175 G1 Z  -1.950
N7180 F400
N7185 G1 X  15.590 Y  77.451
N7190 G1 X   9.442 Y 102.443
N7195 G2 X  10.530 Y 106.976 I   4.933 J   1.213
N7200 G1 X  12.243 Y 108.960
N7205 G2 X  12.358 Y 109.080 I   1.196 J  -1.033
N7210 G2 X  23.122 Y 118.251 I 100.419 J-106.958
N7215 G2 X  25.296 Y 118.018 I   0.966 J  -1.251
N7220 G3 X  49.398 Y 107.015 I  23.666 J  19.939
N7225 G1 X 109.008 Y 112.708
N7230 G2 X 109.009 Y 112.708 I   0.150 J  -1.573
N7235 G3 X 109.025 Y 112.720 I  -0.002 J   0.020
N7240 G2 X 109.171 Y 113.117 I  14.990 J  -5.270
N7245 G2 X 109.722 Y 114.368 I  12.739 J  -4.864
N7250 G2 X 110.419 Y 115.553 I   9.151 J  -4.591
N7255 G2 X 111.303 Y 116.635 I   6.753 J  -4.614
N7260 G2 X 112.428 Y 117.566 I   4.835 J  -4.692
N7265 G2 X 113.963 Y 118.298 I   3.387 J  -5.133
N7270 G2 X 114.521 Y 118.446 I   1.903 J  -6.029
N7275 G2 X 115.314 Y 118.564 I   1.269 J  -5.827
N7280 G2 X 117.311 Y 118.347 I   0.429 J  -5.356
N7285 G2 X 118.526 Y 117.822 I  -1.730 J  -5.673
N7290 G2 X 119.532 Y 117.128 I  -3.595 J  -6.282
N7295 G2 X 120.315 Y 116.400 I  -5.701 J  -6.925
N7300 G2 X 121.117 Y 115.465 I  -8.194 J  -7.831
N7305 G2 X 121.855 Y 114.413 I -12.220 J  -9.367
N7310 G2 X 122.071 Y 114.058 I  -7.065 J  -4.533
N7315 G2 X 122.394 Y 113.445 I  -8.327 J  -4.780
N7320 G2 X 122.897 Y 112.272 I -13.199 J  -6.357
N7325 G2 X 123.324 Y 111.029 I -19.920 J  -7.537
N7330 G2 X 123.807 Y 109.297 I -30.352 J  -9.389
N7335 G2 X 124.311 Y 107.039 I -47.371 J -11.763
N7340 G2 X 124.775 Y 104.458 I -71.147 J -14.126
N7345 G2 X 125.204 Y 101.529 I-102.193 J -16.475
N7350 G2 X 125.629 Y  97.971 I-142.069 J -18.752
N7355 G2 X 126.009 Y  94.044 I-204.311 J -21.786
N7360 G2 X 126.314 Y  90.111 I-204.692 J -17.859
N7365 G2 X 126.513 Y  86.533 I-142.972 J  -9.712
N7370 G2 X 126.597 Y  83.574 I-103.418 J  -4.432
N7375 G2 X 126.587 Y  80.952 I -72.529 J  -1.032
N7380 G2 X 126.481 Y  78.641 I -48.798 J   1.070
N7385 G2 X 126.306 Y  76.851 I -31.695 J   2.201
N7390 G2 X 126.101 Y  75.552 I -21.129 J   2.675
N7395 G2 X 125.808 Y  74.310 I -14.393 J   2.733
N7400 G2 X 125.596 Y  73.650 I  -9.241 J   2.605
N7405 G2 X 125.446 Y  73.264 I  -7.894 J   2.855
N7410 G2 X 124.900 Y  72.100 I -14.203 J   5.945
N7415 G2 X 124.273 Y  71.040 I -10.054 J   5.233
N7420 G2 X 123.627 Y  70.187 I  -7.460 J   4.980
N7425 G2 X 122.757 Y  69.330 I  -5.499 J   4.707
N7430 G2 X 121.651 Y  68.602 I  -3.793 J   4.560
N7435 G2 X 119.722 Y  68.043 I  -2.434 J   4.791
N7440 G2 X 118.921 Y  68.021 I  -0.561 J   5.937
N7445 G2 X 118.345 Y  68.071 I   0.255 J   6.317
N7450 G2 X 116.707 Y  68.525 I   0.808 J   6.097
N7455 G2 X 115.438 Y  69.248 I   2.680 J   6.181
N7460 G2 X 114.380 Y  70.161 I   4.794 J   6.626
N7465 G2 X 113.488 Y  71.206 I   7.325 J   7.152
N7470 G2 X 112.728 Y  72.343 I  10.945 J   8.133
N7475 G2 X 112.516 Y  72.709 I  13.638 J   8.152
N7480 G3 X 112.498 Y  72.718 I  -0.016 J  -0.012
N7485 G2 X 112.497 Y  72.718 I  -0.125 J   1.575
N7490 G1 X  52.738 Y  67.997
N7495 G2 X  51.906 Y  68.159 I  -0.124 J   1.575
N7500 G3 X  49.968 Y  69.104 I -45.205 J -90.266
N7505 G3 X  47.308 Y  70.306 I -33.944 J -71.558
N7510 G3 X  44.738 Y  71.340 I -22.922 J -53.311
N7515 G3 X  42.419 Y  72.130 I -14.471 J -38.641
N7520 G3 X  40.436 Y  72.664 I  -8.376 J -27.180
N7525 G3 X  39.600 Y  72.838 I  -4.514 J -19.567
N7530 G3 X  38.761 Y  72.991 I -20.873 J-112.042
N7535 G3 X  36.890 Y  73.302 I -14.061 J -78.745
N7540 G3 X  35.290 Y  73.515 I  -5.861 J -38.012
N7545 G3 X  34.314 Y  73.593 I  -1.750 J -15.697
N7550 G3 X  33.822 Y  73.596 I  -0.273 J  -5.558
N7555 G3 X  33.719 Y  73.588 I   0.059 J  -1.501
N7560 G3 X  33.527 Y  73.557 I   0.215 J  -1.976
N7565 G3 X  33.420 Y  73.528 I   0.180 J  -0.860
N7570 G3 X  33.356 Y  73.190 I   5.761 J  -1.268
N7575 G3 X  33.242 Y  72.306 I  14.587 J  -2.329
N7580 G3 X  33.130 Y  70.808 I  32.835 J  -3.227
N7585 G3 X  33.043 Y  69.059 I 275.863 J -14.477
N7590 G3 X  32.800 Y  63.577 I1588.271 J -73.259
N7595 G2 X  32.798 Y  63.538 I  -1.579 J   0.067
N7600 G1 X  32.690 Y  61.936
N7605 G1 X  32.582 Y  60.334
N7610 G2 X  32.581 Y  60.328 I  -1.576 J   0.106
N7615 G2 X  32.402 Y  58.081 I-135.126 J   9.659
N7620 G2 X  32.334 Y  57.357 I -57.269 J   5.052
N7625 G2 X  32.329 Y  57.310 I -39.507 J   3.989
N7630 G2 X  32.318 Y  57.209 I-186.199 J  19.028
N7635 G3 X  32.166 Y  55.700 I 493.988 J -50.752
N7640 G3 X  32.097 Y  55.001 I 405.749 J -40.435
N7645 G2 X  32.087 Y  54.907 I -29.879 J   2.926
N7650 G2 X  32.065 Y  54.710 I  -8.449 J   0.854
N7655 G2 X  31.819 Y  53.314 I -14.039 J   1.752
N7660 G2 X  31.522 Y  52.165 I -19.843 J   4.528
N7665 G2 X  31.509 Y  52.124 I  -1.517 J   0.441
N7670 G2 X  21.738 Y  52.459 I  -4.838 J   1.548
N7675 F30
N7680 G1 Z  -2.080
N7685 F400
N7690 G1 X  15.590 Y  77.451
N7695 G1 X   9.442 Y 102.443
N7700 G2 X  10.530 Y 106.976 I   4.933 J   1.213
N7705 G1 X  12.243 Y 108.960
N7710 G2 X  12.358 Y 109.080 I   1.196 J  -1.033
N7715 G2 X  23.122 Y 118.251 I 100.419 J-106.958
N7720 G2 X  25.296 Y 118.018 I   0.966 J  -1.251
N7725 G3 X  49.398 Y 107.015 I  23.666 J  19.939
N7730 G1 X 109.008 Y 112.708
N7735 G2 X 109.009 Y 112.708 I   0.150 J  -1.573
N7740 G3 X 109.025 Y 112.720 I  -0.002 J   0.020
N7745 G2 X 109.171 Y 113.117 I  14.990 J  -5.270
N7750 G2 X 109.722 Y 114.368 I  12.739 J  -4.864
N7755 G2 X 110.419 Y 115.553 I   9.151 J  -4.591
N7760 G2 X 111.303 Y 116.635 I   6.753 J  -4.614
N7765 G2 X 112.428 Y 117.566 I   4.835 J  -4.692
N7770 G2 X 113.963 Y 118.298 I   3.387 J  -5.133
N7775 G2 X 114.521 Y 118.446 I   1.903 J  -6.029
N7780 G2 X 115.314 Y 118.564 I   1.269 J  -5.827
N7785 G2 X 117.311 Y 118.347 I   0.429 J  -5.356
N7790 G2 X 118.526 Y 117.822 I  -1.730 J  -5.673
N7795 G2 X 119.532 Y 117.128 I  -3.595 J  -6.282
N7800 G2 X 120.315 Y 116.400 I  -5.701 J  -6.925
N7805 G2 X 121.117 Y 115.465 I  -8.194 J  -7.831
N7810 G2 X 121.855 Y 114.413 I -12.220 J  -9.367
N7815 G2 X 122.071 Y 114.058 I  -7.065 J  -4.533
N7820 G2 X 122.394 Y 113.445 I  -8.327 J  -4.780
N7825 G2 X 122.897 Y 112.272 I -13.199 J  -6.357
N7830 G2 X 123.324 Y 111.029 I -19.920 J  -7.537
N7835 G2 X 123.807 Y 109.297 I -30.352 J  -9.389
N7840 G2 X 124.311 Y 107.039 I -47.371 J -11.763
N7845 G2 X 124.775 Y 104.458 I -71.147 J -14.126
N7850 G2 X 125.204 Y 101.529 I-102.193 J -16.475
N7855 G2 X 125.629 Y  97.971 I-142.069 J -18.752
N7860 G2 X 126.009 Y  94.044 I-204.311 J -21.786
N7865 G2 X 126.314 Y  90.111 I-204.692 J -17.859
N7870 G2 X 126.513 Y  86.533 I-142.972 J  -9.712
N7875 G2 X 126.597 Y  83.574 I-103.418 J  -4.432
N7880 G2 X 126.587 Y  80.952 I -72.529 J  -1.032
N7885 G2 X 126.481 Y  78.641 I -48.798 J   1.070
N7890 G2 X 126.306 Y  76.851 I -31.695 J   2.201
N7895 G2 X 126.101 Y  75.552 I -21.129 J   2.675
N7900 G2 X 125.808 Y  74.310 I -14.393 J   2.733
N7905 G2 X 125.596 Y  73.650 I  -9.241 J   2.605
N7910 G2 X 125.446 Y  73.264 I  -7.894 J   2.855
N7915 G2 X 124.900 Y  72.100 I -14.203 J   5.945
N7920 G2 X 124.273 Y  71.040 I -10.054 J   5.233
N7925 G2 X 123.627 Y  70.187 I  -7.460 J   4.980
N7930 G2 X 122.757 Y  69.330 I  -5.499 J   4.707
N7935 G2 X 121.651 Y  68.602 I  -3.793 J   4.560
N7940 G2 X 119.722 Y  68.043 I  -2.434 J   4.791
N7945 G2 X 118.921 Y  68.021 I  -0.561 J   5.937
N7950 G2 X 118.345 Y  68.071 I   0.255 J   6.317
N7955 G2 X 116.707 Y  68.525 I   0.808 J   6.097
N7960 G2 X 115.438 Y  69.248 I   2.680 J   6.181
N7965 G2 X 114.380 Y  70.161 I   4.794 J   6.626
N7970 G2 X 113.488 Y  71.206 I   7.325 J   7.152
N7975 G2 X 112.728 Y  72.343 I  10.945 J   8.133
N7980 G2 X 112.516 Y  72.709 I  13.638 J   8.152
N7985 G3 X 112.498 Y  72.718 I  -0.016 J  -0.012
N7990 G2 X 112.497 Y  72.718 I  -0.125 J   1.575
N7995 G1 X  52.738 Y  67.997
N8000 G2 X  51.906 Y  68.159 I  -0.124 J   1.575
N8005 G3 X  49.968 Y  69.104 I -45.205 J -90.266
N8010 G3 X  47.308 Y  70.306 I -33.944 J -71.558
N8015 G3 X  44.738 Y  71.340 I -22.922 J -53.311
N8020 G3 X  42.419 Y  72.130 I -14.471 J -38.641
N8025 G3 X  40.436 Y  72.664 I  -8.376 J -27.180
N8030 G3 X  39.600 Y  72.838 I  -4.514 J -19.567
N8035 G3 X  38.761 Y  72.991 I -20.873 J-112.042
N8040 G3 X  36.890 Y  73.302 I -14.061 J -78.745
N8045 G3 X  35.290 Y  73.515 I  -5.861 J -38.012
N8050 G3 X  34.314 Y  73.593 I  -1.750 J -15.697
N8055 G3 X  33.822 Y  73.596 I  -0.273 J  -5.558
N8060 G3 X  33.719 Y  73.588 I   0.059 J  -1.501
N8065 G3 X  33.527 Y  73.557 I   0.215 J  -1.976
N8070 G3 X  33.420 Y  73.528 I   0.180 J  -0.860
N8075 G3 X  33.356 Y  73.190 I   5.761 J  -1.268
N8080 G3 X  33.242 Y  72.306 I  14.587 J  -2.329
N8085 G3 X  33.130 Y  70.808 I  32.835 J  -3.227
N8090 G3 X  33.043 Y  69.059 I 275.863 J -14.477
N8095 G3 X  32.800 Y  63.577 I1588.271 J -73.259
N8100 G2 X  32.798 Y  63.538 I  -1.579 J   0.067
N8105 G1 X  32.690 Y  61.936
N8110 G1 X  32.582 Y  60.334
N8115 G2 X  32.581 Y  60.328 I  -1.576 J   0.106
N8120 G2 X  32.402 Y  58.081 I-135.126 J   9.659
N8125 G2 X  32.334 Y  57.357 I -57.269 J   5.052
N8130 G2 X  32.329 Y  57.310 I -39.507 J   3.989
N8135 G2 X  32.318 Y  57.209 I-186.199 J  19.028
N8140 G3 X  32.166 Y  55.700 I 493.988 J -50.752
N8145 G3 X  32.097 Y  55.001 I 405.749 J -40.435
N8150 G2 X  32.087 Y  54.907 I -29.879 J   2.926
N8155 G2 X  32.065 Y  54.710 I  -8.449 J   0.854
N8160 G2 X  31.819 Y  53.314 I -14.039 J   1.752
N8165 G2 X  31.522 Y  52.165 I -19.843 J   4.528
N8170 G2 X  31.509 Y  52.124 I  -1.517 J   0.441
N8175 G2 X  21.738 Y  52.459 I  -4.838 J   1.548
N8180 F30
N8185 G1 Z  -2.210
N8190 F400
N8195 G1 X  15.590 Y  77.451
N8200 G1 X   9.442 Y 102.443
N8205 G2 X  10.530 Y 106.976 I   4.933 J   1.213
N8210 G1 X  12.243 Y 108.960
N8215 G2 X  12.358 Y 109.080 I   1.196 J  -1.033
N8220 G2 X  23.122 Y 118.251 I 100.419 J-106.958
N8225 G2 X  25.296 Y 118.018 I   0.966 J  -1.251
N8230 G3 X  49.398 Y 107.015 I  23.666 J  19.939
N8235 G1 X 109.008 Y 112.708
N8240 G2 X 109.009 Y 112.708 I   0.150 J  -1.573
N8245 G3 X 109.025 Y 112.720 I  -0.002 J   0.020
N8250 G2 X 109.171 Y 113.117 I  14.990 J  -5.270
N8255 G2 X 109.722 Y 114.368 I  12.739 J  -4.864
N8260 G2 X 110.419 Y 115.553 I   9.151 J  -4.591
N8265 G2 X 111.303 Y 116.635 I   6.753 J  -4.614
N8270 G2 X 112.428 Y 117.566 I   4.835 J  -4.692
N8275 G2 X 113.963 Y 118.298 I   3.387 J  -5.133
N8280 G2 X 114.521 Y 118.446 I   1.903 J  -6.029
N8285 G2 X 115.314 Y 118.564 I   1.269 J  -5.827
N8290 G2 X 117.311 Y 118.347 I   0.429 J  -5.356
N8295 G2 X 118.526 Y 117.822 I  -1.730 J  -5.673
N8300 G2 X 119.532 Y 117.128 I  -3.595 J  -6.282
N8305 G2 X 120.315 Y 116.400 I  -5.701 J  -6.925
N8310 G2 X 121.117 Y 115.465 I  -8.194 J  -7.831
N8315 G2 X 121.855 Y 114.413 I -12.220 J  -9.367
N8320 G2 X 122.071 Y 114.058 I  -7.065 J  -4.533
N8325 G2 X 122.394 Y 113.445 I  -8.327 J  -4.780
N8330 G2 X 122.897 Y 112.272 I -13.199 J  -6.357
N8335 G2 X 123.324 Y 111.029 I -19.920 J  -7.537
N8340 G2 X 123.807 Y 109.297 I -30.352 J  -9.389
N8345 G2 X 124.311 Y 107.039 I -47.371 J -11.763
N8350 G2 X 124.775 Y 104.458 I -71.147 J -14.126
N8355 G2 X 125.204 Y 101.529 I-102.193 J -16.475
N8360 G2 X 125.629 Y  97.971 I-142.069 J -18.752
N8365 G2 X 126.009 Y  94.044 I-204.311 J -21.786
N8370 G2 X 126.314 Y  90.111 I-204.692 J -17.859
N8375 G2 X 126.513 Y  86.533 I-142.972 J  -9.712
N8380 G2 X 126.597 Y  83.574 I-103.418 J  -4.432
N8385 G2 X 126.587 Y  80.952 I -72.529 J  -1.032
N8390 G2 X 126.481 Y  78.641 I -48.798 J   1.070
N8395 G2 X 126.306 Y  76.851 I -31.695 J   2.201
N8400 G2 X 126.101 Y  75.552 I -21.129 J   2.675
N8405 G2 X 125.808 Y  74.310 I -14.393 J   2.733
N8410 G2 X 125.596 Y  73.650 I  -9.241 J   2.605
N8415 G2 X 125.446 Y  73.264 I  -7.894 J   2.855
N8420 G2 X 124.900 Y  72.100 I -14.203 J   5.945
N8425 G2 X 124.273 Y  71.040 I -10.054 J   5.233
N8430 G2 X 123.627 Y  70.187 I  -7.460 J   4.980
N8435 G2 X 122.757 Y  69.330 I  -5.499 J   4.707
N8440 G2 X 121.651 Y  68.602 I  -3.793 J   4.560
N8445 G2 X 119.722 Y  68.043 I  -2.434 J   4.791
N8450 G2 X 118.921 Y  68.021 I  -0.561 J   5.937
N8455 G2 X 118.345 Y  68.071 I   0.255 J   6.317
N8460 G2 X 116.707 Y  68.525 I   0.808 J   6.097
N8465 G2 X 115.438 Y  69.248 I   2.680 J   6.181
N8470 G2 X 114.380 Y  70.161 I   4.794 J   6.626
N8475 G2 X 113.488 Y  71.206 I   7.325 J   7.152
N8480 G2 X 112.728 Y  72.343 I  10.945 J   8.133
N8485 G2 X 112.516 Y  72.709 I  13.638 J   8.152
N8490 G3 X 112.498 Y  72.718 I  -0.016 J  -0.012
N8495 G2 X 112.497 Y  72.718 I  -0.125 J   1.575
N8500 G1 X  52.738 Y  67.997
N8505 G2 X  51.906 Y  68.159 I  -0.124 J   1.575
N8510 G3 X  49.968 Y  69.104 I -45.205 J -90.266
N8515 G3 X  47.308 Y  70.306 I -33.944 J -71.558
N8520 G3 X  44.738 Y  71.340 I -22.922 J -53.311
N8525 G3 X  42.419 Y  72.130 I -14.471 J -38.641
N8530 G3 X  40.436 Y  72.664 I  -8.376 J -27.180
N8535 G3 X  39.600 Y  72.838 I  -4.514 J -19.567
N8540 G3 X  38.761 Y  72.991 I -20.873 J-112.042
N8545 G3 X  36.890 Y  73.302 I -14.061 J -78.745
N8550 G3 X  35.290 Y  73.515 I  -5.861 J -38.012
N8555 G3 X  34.314 Y  73.593 I  -1.750 J -15.697
N8560 G3 X  33.822 Y  73.596 I  -0.273 J  -5.558
N8565 G3 X  33.719 Y  73.588 I   0.059 J  -1.501
N8570 G3 X  33.527 Y  73.557 I   0.215 J  -1.976
N8575 G3 X  33.420 Y  73.528 I   0.180 J  -0.860
N8580 G3 X  33.356 Y  73.190 I   5.761 J  -1.268
N8585 G3 X  33.242 Y  72.306 I  14.587 J  -2.329
N8590 G3 X  33.130 Y  70.808 I  32.835 J  -3.227
N8595 G3 X  33.043 Y  69.059 I 275.863 J -14.477
N8600 G3 X  32.800 Y  63.577 I1588.271 J -73.259
N8605 G2 X  32.798 Y  63.538 I  -1.579 J   0.067
N8610 G1 X  32.690 Y  61.936
N8615 G1 X  32.582 Y  60.334
N8620 G2 X  32.581 Y  60.328 I  -1.576 J   0.106
N8625 G2 X  32.402 Y  58.081 I-135.126 J   9.659
N8630 G2 X  32.334 Y  57.357 I -57.269 J   5.052
N8635 G2 X  32.329 Y  57.310 I -39.507 J   3.989
N8640 G2 X  32.318 Y  57.209 I-186.199 J  19.028
N8645 G3 X  32.166 Y  55.700 I 493.988 J -50.752
N8650 G3 X  32.097 Y  55.001 I 405.749 J -40.435
N8655 G2 X  32.087 Y  54.907 I -29.879 J   2.926
N8660 G2 X  32.065 Y  54.710 I  -8.449 J   0.854
N8665 G2 X  31.819 Y  53.314 I -14.039 J   1.752
N8670 G2 X  31.522 Y  52.165 I -19.843 J   4.528
N8675 G2 X  31.509 Y  52.124 I  -1.517 J   0.441
N8680 G2 X  21.738 Y  52.459 I  -4.838 J   1.548
N8685 F30
N8690 G1 Z  -2.340
N8695 F400
N8700 G1 X  15.590 Y  77.451
N8705 G1 X   9.442 Y 102.443
N8710 G2 X  10.530 Y 106.976 I   4.933 J   1.213
N8715 G1 X  12.243 Y 108.960
N8720 G2 X  12.358 Y 109.080 I   1.196 J  -1.033
N8725 G2 X  23.122 Y 118.251 I 100.419 J-106.958
N8730 G2 X  25.296 Y 118.018 I   0.966 J  -1.251
N8735 G3 X  49.398 Y 107.015 I  23.666 J  19.939
N8740 G1 X 109.008 Y 112.708
N8745 G2 X 109.009 Y 112.708 I   0.150 J  -1.573
N8750 G3 X 109.025 Y 112.720 I  -0.002 J   0.020
N8755 G2 X 109.171 Y 113.117 I  14.990 J  -5.270
N8760 G2 X 109.722 Y 114.368 I  12.739 J  -4.864
N8765 G2 X 110.419 Y 115.553 I   9.151 J  -4.591
N8770 G2 X 111.303 Y 116.635 I   6.753 J  -4.614
N8775 G2 X 112.428 Y 117.566 I   4.835 J  -4.692
N8780 G2 X 113.963 Y 118.298 I   3.387 J  -5.133
N8785 G2 X 114.521 Y 118.446 I   1.903 J  -6.029
N8790 G2 X 115.314 Y 118.564 I   1.269 J  -5.827
N8795 G2 X 117.311 Y 118.347 I   0.429 J  -5.356
N8800 G2 X 118.526 Y 117.822 I  -1.730 J  -5.673
N8805 G2 X 119.532 Y 117.128 I  -3.595 J  -6.282
N8810 G2 X 120.315 Y 116.400 I  -5.701 J  -6.925
N8815 G2 X 121.117 Y 115.465 I  -8.194 J  -7.831
N8820 G2 X 121.855 Y 114.413 I -12.220 J  -9.367
N8825 G2 X 122.071 Y 114.058 I  -7.065 J  -4.533
N8830 G2 X 122.394 Y 113.445 I  -8.327 J  -4.780
N8835 G2 X 122.897 Y 112.272 I -13.199 J  -6.357
N8840 G2 X 123.324 Y 111.029 I -19.920 J  -7.537
N8845 G2 X 123.807 Y 109.297 I -30.352 J  -9.389
N8850 G2 X 124.311 Y 107.039 I -47.371 J -11.763
N8855 G2 X 124.775 Y 104.458 I -71.147 J -14.126
N8860 G2 X 125.204 Y 101.529 I-102.193 J -16.475
N8865 G2 X 125.629 Y  97.971 I-142.069 J -18.752
N8870 G2 X 126.009 Y  94.044 I-204.311 J -21.786
N8875 G2 X 126.314 Y  90.111 I-204.692 J -17.859
N8880 G2 X 126.513 Y  86.533 I-142.972 J  -9.712
N8885 G2 X 126.597 Y  83.574 I-103.418 J  -4.432
N8890 G2 X 126.587 Y  80.952 I -72.529 J  -1.032
N8895 G2 X 126.481 Y  78.641 I -48.798 J   1.070
N8900 G2 X 126.306 Y  76.851 I -31.695 J   2.201
N8905 G2 X 126.101 Y  75.552 I -21.129 J   2.675
N8910 G2 X 125.808 Y  74.310 I -14.393 J   2.733
N8915 G2 X 125.596 Y  73.650 I  -9.241 J   2.605
N8920 G2 X 125.446 Y  73.264 I  -7.894 J   2.855
N8925 G2 X 124.900 Y  72.100 I -14.203 J   5.945
N8930 G2 X 124.273 Y  71.040 I -10.054 J   5.233
N8935 G2 X 123.627 Y  70.187 I  -7.460 J   4.980
N8940 G2 X 122.757 Y  69.330 I  -5.499 J   4.707
N8945 G2 X 121.651 Y  68.602 I  -3.793 J   4.560
N8950 G2 X 119.722 Y  68.043 I  -2.434 J   4.791
N8955 G2 X 118.921 Y  68.021 I  -0.561 J   5.937
N8960 G2 X 118.345 Y  68.071 I   0.255 J   6.317
N8965 G2 X 116.707 Y  68.525 I   0.808 J   6.097
N8970 G2 X 115.438 Y  69.248 I   2.680 J   6.181
N8975 G2 X 114.380 Y  70.161 I   4.794 J   6.626
N8980 G2 X 113.488 Y  71.206 I   7.325 J   7.152
N8985 G2 X 112.728 Y  72.343 I  10.945 J   8.133
N8990 G2 X 112.516 Y  72.709 I  13.638 J   8.152
N8995 G3 X 112.498 Y  72.718 I  -0.016 J  -0.012
N9000 G2 X 112.497 Y  72.718 I  -0.125 J   1.575
N9005 G1 X  52.738 Y  67.997
N9010 G2 X  51.906 Y  68.159 I  -0.124 J   1.575
N9015 G3 X  49.968 Y  69.104 I -45.205 J -90.266
N9020 G3 X  47.308 Y  70.306 I -33.944 J -71.558
N9025 G3 X  44.738 Y  71.340 I -22.922 J -53.311
N9030 G3 X  42.419 Y  72.130 I -14.471 J -38.641
N9035 G3 X  40.436 Y  72.664 I  -8.376 J -27.180
N9040 G3 X  39.600 Y  72.838 I  -4.514 J -19.567
N9045 G3 X  38.761 Y  72.991 I -20.873 J-112.042
N9050 G3 X  36.890 Y  73.302 I -14.061 J -78.745
N9055 G3 X  35.290 Y  73.515 I  -5.861 J -38.012
N9060 G3 X  34.314 Y  73.593 I  -1.750 J -15.697
N9065 G3 X  33.822 Y  73.596 I  -0.273 J  -5.558
N9070 G3 X  33.719 Y  73.588 I   0.059 J  -1.501
N9075 G3 X  33.527 Y  73.557 I   0.215 J  -1.976
N9080 G3 X  33.420 Y  73.528 I   0.180 J  -0.860
N9085 G3 X  33.356 Y  73.190 I   5.761 J  -1.268
N9090 G3 X  33.242 Y  72.306 I  14.587 J  -2.329
N9095 G3 X  33.130 Y  70.808 I  32.835 J  -3.227
N9100 G3 X  33.043 Y  69.059 I 275.863 J -14.477
N9105 G3 X  32.800 Y  63.577 I1588.271 J -73.259
N9110 G2 X  32.798 Y  63.538 I  -1.579 J   0.067
N9115 G1 X  32.690 Y  61.936
N9120 G1 X  32.582 Y  60.334
N9125 G2 X  32.581 Y  60.328 I  -1.576 J   0.106
N9130 G2 X  32.402 Y  58.081 I-135.126 J   9.659
N9135 G2 X  32.334 Y  57.357 I -57.269 J   5.052
N9140 G2 X  32.329 Y  57.310 I -39.507 J   3.989
N9145 G2 X  32.318 Y  57.209 I-186.199 J  19.028
N9150 G3 X  32.166 Y  55.700 I 493.988 J -50.752
N9155 G3 X  32.097 Y  55.001 I 405.749 J -40.435
N9160 G2 X  32.087 Y  54.907 I -29.879 J   2.926
N9165 G2 X  32.065 Y  54.710 I  -8.449 J   0.854
N9170 G2 X  31.819 Y  53.314 I -14.039 J   1.752
N9175 G2 X  31.522 Y  52.165 I -19.843 J   4.528
N9180 G2 X  31.509 Y  52.124 I  -1.517 J   0.441
N9185 G2 X  21.738 Y  52.459 I  -4.838 J   1.548
N9190 F30
N9195 G1 Z  -2.470
N9200 F400
N9205 G1 X  15.590 Y  77.451
N9210 G1 X   9.442 Y 102.443
N9215 G2 X  10.530 Y 106.976 I   4.933 J   1.213
N9220 G1 X  12.243 Y 108.960
N9225 G2 X  12.358 Y 109.080 I   1.196 J  -1.033
N9230 G2 X  23.122 Y 118.251 I 100.419 J-106.958
N9235 G2 X  25.296 Y 118.018 I   0.966 J  -1.251
N9240 G3 X  49.398 Y 107.015 I  23.666 J  19.939
N9245 G1 X 109.008 Y 112.708
N9250 G2 X 109.009 Y 112.708 I   0.150 J  -1.573
N9255 G3 X 109.025 Y 112.720 I  -0.002 J   0.020
N9260 G2 X 109.171 Y 113.117 I  14.990 J  -5.270
N9265 G2 X 109.722 Y 114.368 I  12.739 J  -4.864
N9270 G2 X 110.419 Y 115.553 I   9.151 J  -4.591
N9275 G2 X 111.303 Y 116.635 I   6.753 J  -4.614
N9280 G2 X 112.428 Y 117.566 I   4.835 J  -4.692
N9285 G2 X 113.963 Y 118.298 I   3.387 J  -5.133
N9290 G2 X 114.521 Y 118.446 I   1.903 J  -6.029
N9295 G2 X 115.314 Y 118.564 I   1.269 J  -5.827
N9300 G2 X 117.311 Y 118.347 I   0.429 J  -5.356
N9305 G2 X 118.526 Y 117.822 I  -1.730 J  -5.673
N9310 G2 X 119.532 Y 117.128 I  -3.595 J  -6.282
N9315 G2 X 120.315 Y 116.400 I  -5.701 J  -6.925
N9320 G2 X 121.117 Y 115.465 I  -8.194 J  -7.831
N9325 G2 X 121.855 Y 114.413 I -12.220 J  -9.367
N9330 G2 X 122.071 Y 114.058 I  -7.065 J  -4.533
N9335 G2 X 122.394 Y 113.445 I  -8.327 J  -4.780
N9340 G2 X 122.897 Y 112.272 I -13.199 J  -6.357
N9345 G2 X 123.324 Y 111.029 I -19.920 J  -7.537
N9350 G2 X 123.807 Y 109.297 I -30.352 J  -9.389
N9355 G2 X 124.311 Y 107.039 I -47.371 J -11.763
N9360 G2 X 124.775 Y 104.458 I -71.147 J -14.126
N9365 G2 X 125.204 Y 101.529 I-102.193 J -16.475
N9370 G2 X 125.629 Y  97.971 I-142.069 J -18.752
N9375 G2 X 126.009 Y  94.044 I-204.311 J -21.786
N9380 G2 X 126.314 Y  90.111 I-204.692 J -17.859
N9385 G2 X 126.513 Y  86.533 I-142.972 J  -9.712
N9390 G2 X 126.597 Y  83.574 I-103.418 J  -4.432
N9395 G2 X 126.587 Y  80.952 I -72.529 J  -1.032
N9400 G2 X 126.481 Y  78.641 I -48.798 J   1.070
N9405 G2 X 126.306 Y  76.851 I -31.695 J   2.201
N9410 G2 X 126.101 Y  75.552 I -21.129 J   2.675
N9415 G2 X 125.808 Y  74.310 I -14.393 J   2.733
N9420 G2 X 125.596 Y  73.650 I  -9.241 J   2.605
N9425 G2 X 125.446 Y  73.264 I  -7.894 J   2.855
N9430 G2 X 124.900 Y  72.100 I -14.203 J   5.945
N9435 G2 X 124.273 Y  71.040 I -10.054 J   5.233
N9440 G2 X 123.627 Y  70.187 I  -7.460 J   4.980
N9445 G2 X 122.757 Y  69.330 I  -5.499 J   4.707
N9450 G2 X 121.651 Y  68.602 I  -3.793 J   4.560
N9455 G2 X 119.722 Y  68.043 I  -2.434 J   4.791
N9460 G2 X 118.921 Y  68.021 I  -0.561 J   5.937
N9465 G2 X 118.345 Y  68.071 I   0.255 J   6.317
N9470 G2 X 116.707 Y  68.525 I   0.808 J   6.097
N9475 G2 X 115.438 Y  69.248 I   2.680 J   6.181
N9480 G2 X 114.380 Y  70.161 I   4.794 J   6.626
N9485 G2 X 113.488 Y  71.206 I   7.325 J   7.152
N9490 G2 X 112.728 Y  72.343 I  10.945 J   8.133
N9495 G2 X 112.516 Y  72.709 I  13.638 J   8.152
N9500 G3 X 112.498 Y  72.718 I  -0.016 J  -0.012
N9505 G2 X 112.497 Y  72.718 I  -0.125 J   1.575
N9510 G1 X  52.738 Y  67.997
N9515 G2 X  51.906 Y  68.159 I  -0.124 J   1.575
N9520 G3 X  49.968 Y  69.104 I -45.205 J -90.266
N9525 G3 X  47.308 Y  70.306 I -33.944 J -71.558
N9530 G3 X  44.738 Y  71.340 I -22.922 J -53.311
N9535 G3 X  42.419 Y  72.130 I -14.471 J -38.641
N9540 G3 X  40.436 Y  72.664 I  -8.376 J -27.180
N9545 G3 X  39.600 Y  72.838 I  -4.514 J -19.567
N9550 G3 X  38.761 Y  72.991 I -20.873 J-112.042
N9555 G3 X  36.890 Y  73.302 I -14.061 J -78.745
N9560 G3 X  35.290 Y  73.515 I  -5.861 J -38.012
N9565 G3 X  34.314 Y  73.593 I  -1.750 J -15.697
N9570 G3 X  33.822 Y  73.596 I  -0.273 J  -5.558
N9575 G3 X  33.719 Y  73.588 I   0.059 J  -1.501
N9580 G3 X  33.527 Y  73.557 I   0.215 J  -1.976
N9585 G3 X  33.420 Y  73.528 I   0.180 J  -0.860
N9590 G3 X  33.356 Y  73.190 I   5.761 J  -1.268
N9595 G3 X  33.242 Y  72.306 I  14.587 J  -2.329
N9600 G3 X  33.130 Y  70.808 I  32.835 J  -3.227
N9605 G3 X  33.043 Y  69.059 I 275.863 J -14.477
N9610 G3 X  32.800 Y  63.577 I1588.271 J -73.259
N9615 G2 X  32.798 Y  63.538 I  -1.579 J   0.067
N9620 G1 X  32.690 Y  61.936
N9625 G1 X  32.582 Y  60.334
N9630 G2 X  32.581 Y  60.328 I  -1.576 J   0.106
N9635 G2 X  32.402 Y  58.081 I-135.126 J   9.659
N9640 G2 X  32.334 Y  57.357 I -57.269 J   5.052
N9645 G2 X  32.329 Y  57.310 I -39.507 J   3.989
N9650 G2 X  32.318 Y  57.209 I-186.199 J  19.028
N9655 G3 X  32.166 Y  55.700 I 493.988 J -50.752
N9660 G3 X  32.097 Y  55.001 I 405.749 J -40.435
N9665 G2 X  32.087 Y  54.907 I -29.879 J   2.926
N9670 G2 X  32.065 Y  54.710 I  -8.449 J   0.854
N9675 G2 X  31.819 Y  53.314 I -14.039 J   1.752
N9680 G2 X  31.522 Y  52.165 I -19.843 J   4.528
N9685 G2 X  31.509 Y  52.124 I  -1.517 J   0.441
N9690 G2 X  21.738 Y  52.459 I  -4.838 J   1.548
N9695 F30
N9700 G1 Z  -2.600
N9705 F400
N9710 G1 X  15.590 Y  77.451
N9715 G1 X   9.442 Y 102.443
N9720 G2 X  10.530 Y 106.976 I   4.933 J   1.213
N9725 G1 X  12.243 Y 108.960
N9730 G2 X  12.358 Y 109.080 I   1.196 J  -1.033
N9735 G2 X  23.122 Y 118.251 I 100.419 J-106.958
N9740 G2 X  25.296 Y 118.018 I   0.966 J  -1.251
N9745 G3 X  49.398 Y 107.015 I  23.666 J  19.939
N9750 G1 X 109.008 Y 112.708
N9755 G2 X 109.009 Y 112.708 I   0.150 J  -1.573
N9760 G3 X 109.025 Y 112.720 I  -0.002 J   0.020
N9765 G2 X 109.171 Y 113.117 I  14.990 J  -5.270
N9770 G2 X 109.722 Y 114.368 I  12.739 J  -4.864
N9775 G2 X 110.419 Y 115.553 I   9.151 J  -4.591
N9780 G2 X 111.303 Y 116.635 I   6.753 J  -4.614
N9785 G2 X 112.428 Y 117.566 I   4.835 J  -4.692
N9790 G2 X 113.963 Y 118.298 I   3.387 J  -5.133
N9795 G2 X 114.521 Y 118.446 I   1.903 J  -6.029
N9800 G2 X 115.314 Y 118.564 I   1.269 J  -5.827
N9805 G2 X 117.311 Y 118.347 I   0.429 J  -5.356
N9810 G2 X 118.526 Y 117.822 I  -1.730 J  -5.673
N9815 G2 X 119.532 Y 117.128 I  -3.595 J  -6.282
N9820 G2 X 120.315 Y 116.400 I  -5.701 J  -6.925
N9825 G2 X 121.117 Y 115.465 I  -8.194 J  -7.831
N9830 G2 X 121.855 Y 114.413 I -12.220 J  -9.367
N9835 G2 X 122.071 Y 114.058 I  -7.065 J  -4.533
N9840 G2 X 122.394 Y 113.445 I  -8.327 J  -4.780
N9845 G2 X 122.897 Y 112.272 I -13.199 J  -6.357
N9850 G2 X 123.324 Y 111.029 I -19.920 J  -7.537
N9855 G2 X 123.807 Y 109.297 I -30.352 J  -9.389
N9860 G2 X 124.311 Y 107.039 I -47.371 J -11.763
N9865 G2 X 124.775 Y 104.458 I -71.147 J -14.126
N9870 G2 X 125.204 Y 101.529 I-102.193 J -16.475
N9875 G2 X 125.629 Y  97.971 I-142.069 J -18.752
N9880 G2 X 126.009 Y  94.044 I-204.311 J -21.786
N9885 G2 X 126.314 Y  90.111 I-204.692 J -17.859
N9890 G2 X 126.513 Y  86.533 I-142.972 J  -9.712
N9895 G2 X 126.597 Y  83.574 I-103.418 J  -4.432
N9900 G2 X 126.587 Y  80.952 I -72.529 J  -1.032
N9905 G2 X 126.481 Y  78.641 I -48.798 J   1.070
N9910 G2 X 126.306 Y  76.851 I -31.695 J   2.201
N9915 G2 X 126.101 Y  75.552 I -21.129 J   2.675
N9920 G2 X 125.808 Y  74.310 I -14.393 J   2.733
N9925 G2 X 125.596 Y  73.650 I  -9.241 J   2.605
N9930 G2 X 125.446 Y  73.264 I  -7.894 J   2.855
N9935 G2 X 124.900 Y  72.100 I -14.203 J   5.945
N9940 G2 X 124.273 Y  71.040 I -10.054 J   5.233
N9945 G2 X 123.627 Y  70.187 I  -7.460 J   4.980
N9950 G2 X 122.757 Y  69.330 I  -5.499 J   4.707
N9955 G2 X 121.651 Y  68.602 I  -3.793 J   4.560
N9960 G2 X 119.722 Y  68.043 I  -2.434 J   4.791
N9965 G2 X 118.921 Y  68.021 I  -0.561 J   5.937
N9970 G2 X 118.345 Y  68.071 I   0.255 J   6.317
N9975 G2 X 116.707 Y  68.525 I   0.808 J   6.097
N9980 G2 X 115.438 Y  69.248 I   2.680 J   6.181
N9985 G2 X 114.380 Y  70.161 I   4.794 J   6.626
N9990 G2 X 113.488 Y  71.206 I   7.325 J   7.152
N9995 G2 X 112.728 Y  72.343 I  10.945 J   8.133
N10000 G2 X 112.516 Y  72.709 I  13.638 J   8.152
N10005 G3 X 112.498 Y  72.718 I  -0.016 J  -0.012
N10010 G2 X 112.497 Y  72.718 I  -0.125 J   1.575
N10015 G1 X  52.738 Y  67.997
N10020 G2 X  51.906 Y  68.159 I  -0.124 J   1.575
N10025 G3 X  49.968 Y  69.104 I -45.205 J -90.266
N10030 G3 X  47.308 Y  70.306 I -33.944 J -71.558
N10035 G3 X  44.738 Y  71.340 I -22.922 J -53.311
N10040 G3 X  42.419 Y  72.130 I -14.471 J -38.641
N10045 G3 X  40.436 Y  72.664 I  -8.376 J -27.180
N10050 G3 X  39.600 Y  72.838 I  -4.514 J -19.567
N10055 G3 X  38.761 Y  72.991 I -20.873 J-112.042
N10060 G3 X  36.890 Y  73.302 I -14.061 J -78.745
N10065 G3 X  35.290 Y  73.515 I  -5.861 J -38.012
N10070 G3 X  34.314 Y  73.593 I  -1.750 J -15.697
N10075 G3 X  33.822 Y  73.596 I  -0.273 J  -5.558
N10080 G3 X  33.719 Y  73.588 I   0.059 J  -1.501
N10085 G3 X  33.527 Y  73.557 I   0.215 J  -1.976
N10090 G3 X  33.420 Y  73.528 I   0.180 J  -0.860
N10095 G3 X  33.356 Y  73.190 I   5.761 J  -1.268
N10100 G3 X  33.242 Y  72.306 I  14.587 J  -2.329
N10105 G3 X  33.130 Y  70.808 I  32.835 J  -3.227
N10110 G3 X  33.043 Y  69.059 I 275.863 J -14.477
N10115 G3 X  32.800 Y  63.577 I1588.271 J -73.259
N10120 G2 X  32.798 Y  63.538 I  -1.579 J   0.067
N10125 G1 X  32.690 Y  61.936
N10130 G1 X  32.582 Y  60.334
N10135 G2 X  32.581 Y  60.328 I  -1.576 J   0.106
N10140 G2 X  32.402 Y  58.081 I-135.126 J   9.659
N10145 G2 X  32.334 Y  57.357 I -57.269 J   5.052
N10150 G2 X  32.329 Y  57.310 I -39.507 J   3.989
N10155 G2 X  32.318 Y  57.209 I-186.199 J  19.028
N10160 G3 X  32.166 Y  55.700 I 493.988 J -50.752
N10165 G3 X  32.097 Y  55.001 I 405.749 J -40.435
N10170 G2 X  32.087 Y  54.907 I -29.879 J   2.926
N10175 G2 X  32.065 Y  54.710 I  -8.449 J   0.854
N10180 G2 X  31.819 Y  53.314 I -14.039 J   1.752
N10185 G2 X  31.522 Y  52.165 I -19.843 J   4.528
N10190 G2 X  31.509 Y  52.124 I  -1.517 J   0.441
N10195 G2 X  21.738 Y  52.459 I  -4.838 J   1.548
N10200 F30
N10205 G1 Z  -2.730
N10210 F400
N10215 G1 X  15.590 Y  77.451
N10220 G1 X   9.442 Y 102.443
N10225 G2 X  10.530 Y 106.976 I   4.933 J   1.213
N10230 G1 X  12.243 Y 108.960
N10235 G2 X  12.358 Y 109.080 I   1.196 J  -1.033
N10240 G2 X  23.122 Y 118.251 I 100.419 J-106.958
N10245 G2 X  25.296 Y 118.018 I   0.966 J  -1.251
N10250 G3 X  49.398 Y 107.015 I  23.666 J  19.939
N10255 G1 X 109.008 Y 112.708
N10260 G2 X 109.009 Y 112.708 I   0.150 J  -1.573
N10265 G3 X 109.025 Y 112.720 I  -0.002 J   0.020
N10270 G2 X 109.171 Y 113.117 I  14.990 J  -5.270
N10275 G2 X 109.722 Y 114.368 I  12.739 J  -4.864
N10280 G2 X 110.419 Y 115.553 I   9.151 J  -4.591
N10285 G2 X 111.303 Y 116.635 I   6.753 J  -4.614
N10290 G2 X 112.428 Y 117.566 I   4.835 J  -4.692
N10295 G2 X 113.963 Y 118.298 I   3.387 J  -5.133
N10300 G2 X 114.521 Y 118.446 I   1.903 J  -6.029
N10305 G2 X 115.314 Y 118.564 I   1.269 J  -5.827
N10310 G2 X 117.311 Y 118.347 I   0.429 J  -5.356
N10315 G2 X 118.526 Y 117.822 I  -1.730 J  -5.673
N10320 G2 X 119.532 Y 117.128 I  -3.595 J  -6.282
N10325 G2 X 120.315 Y 116.400 I  -5.701 J  -6.925
N10330 G2 X 121.117 Y 115.465 I  -8.194 J  -7.831
N10335 G2 X 121.855 Y 114.413 I -12.220 J  -9.367
N10340 G2 X 122.071 Y 114.058 I  -7.065 J  -4.533
N10345 G2 X 122.394 Y 113.445 I  -8.327 J  -4.780
N10350 G2 X 122.897 Y 112.272 I -13.199 J  -6.357
N10355 G2 X 123.324 Y 111.029 I -19.920 J  -7.537
N10360 G2 X 123.807 Y 109.297 I -30.352 J  -9.389
N10365 G2 X 124.311 Y 107.039 I -47.371 J -11.763
N10370 G2 X 124.775 Y 104.458 I -71.147 J -14.126
N10375 G2 X 125.204 Y 101.529 I-102.193 J -16.475
N10380 G2 X 125.629 Y  97.971 I-142.069 J -18.752
N10385 G2 X 126.009 Y  94.044 I-204.311 J -21.786
N10390 G2 X 126.314 Y  90.111 I-204.692 J -17.859
N10395 G2 X 126.513 Y  86.533 I-142.972 J  -9.712
N10400 G2 X 126.597 Y  83.574 I-103.418 J  -4.432
N10405 G2 X 126.587 Y  80.952 I -72.529 J  -1.032
N10410 G2 X 126.481 Y  78.641 I -48.798 J   1.070
N10415 G2 X 126.306 Y  76.851 I -31.695 J   2.201
N10420 G2 X 126.101 Y  75.552 I -21.129 J   2.675
N10425 G2 X 125.808 Y  74.310 I -14.393 J   2.733
N10430 G2 X 125.596 Y  73.650 I  -9.241 J   2.605
N10435 G2 X 125.446 Y  73.264 I  -7.894 J   2.855
N10440 G2 X 124.900 Y  72.100 I -14.203 J   5.945
N10445 G2 X 124.273 Y  71.040 I -10.054 J   5.233
N10450 G2 X 123.627 Y  70.187 I  -7.460 J   4.980
N10455 G2 X 122.757 Y  69.330 I  -5.499 J   4.707
N10460 G2 X 121.651 Y  68.602 I  -3.793 J   4.560
N10465 G2 X 119.722 Y  68.043 I  -2.434 J   4.791
N10470 G2 X 118.921 Y  68.021 I  -0.561 J   5.937
N10475 G2 X 118.345 Y  68.071 I   0.255 J   6.317
N10480 G2 X 116.707 Y  68.525 I   0.808 J   6.097
N10485 G2 X 115.438 Y  69.248 I   2.680 J   6.181
N10490 G2 X 114.380 Y  70.161 I   4.794 J   6.626
N10495 G2 X 113.488 Y  71.206 I   7.325 J   7.152
N10500 G2 X 112.728 Y  72.343 I  10.945 J   8.133
N10505 G2 X 112.516 Y  72.709 I  13.638 J   8.152
N10510 G3 X 112.498 Y  72.718 I  -0.016 J  -0.012
N10515 G2 X 112.497 Y  72.718 I  -0.125 J   1.575
N10520 G1 X  52.738 Y  67.997
N10525 G2 X  51.906 Y  68.159 I  -0.124 J   1.575
N10530 G3 X  49.968 Y  69.104 I -45.205 J -90.266
N10535 G3 X  47.308 Y  70.306 I -33.944 J -71.558
N10540 G3 X  44.738 Y  71.340 I -22.922 J -53.311
N10545 G3 X  42.419 Y  72.130 I -14.471 J -38.641
N10550 G3 X  40.436 Y  72.664 I  -8.376 J -27.180
