N10 (Generated with: DXF2GCODE, Version: Py3.6.7 PyQt5.11.3, Date: $Date: Fri Oct 25 20:45:56 2019 +0200 $)
N15 (Created from file: C:/Users/wryan/SkyDrive/cad/5x7 laser gun/plot-handle.dxf)
N20 (Output format description: G-CODE for LinuxCNC)
N25 (Time: Sat Feb 29 21:36:00 2020)
N30 G21 (Units in millimeters)
N35 G90 (Absolute programming)
N40 G64 (Default cutting) 
N45 G17 (XY plane) 
N50 G40 (Cancel radius comp.) 
N55 G49 (Cancel length comp.)
N60 G0 Z   0.000 
N65 
(*** LAYER: spacer tabs1 ***)
N70 T1 M6
N75 S10000
N80 
(* SHAPE Nr: 17 *)
N85 G0 X 138.550 Y 101.063
N90 M3 M8
N95 G0 Z   0.050 
N100 F1000
N105 G1 Z   0.000
N110 F40
N115 G2 X 143.579 Y 106.092 I   2.514 J   2.514
N120 G2 X 138.550 Y 101.063 I  -2.514 J  -2.514
N125 F1000
N130 G1 Z  -0.050
N135 F40
N140 G2 X 143.579 Y 106.092 I   2.514 J   2.514
N145 G2 X 138.550 Y 101.063 I  -2.514 J  -2.514
N150 F1000
N155 G1 Z   0.050
N160 G0 Z   0.000 
N165 M9 M5
N170 
(* SHAPE Nr: 18 *)
N175 G0 X 158.704 Y 103.430
N180 M3 M8
N185 G0 Z   0.050 
N190 G1 Z   0.000
N195 F40
N200 G2 X 160.826 Y 105.551 I   1.061 J   1.061
N205 G2 X 158.704 Y 103.430 I  -1.061 J  -1.061
N210 F1000
N215 G1 Z  -0.050
N220 F40
N225 G2 X 160.826 Y 105.551 I   1.061 J   1.061
N230 G2 X 158.704 Y 103.430 I  -1.061 J  -1.061
N235 F1000
N240 G1 Z   0.050
N245 G0 Z   0.000 
N250 M9 M5
N255 
(* SHAPE Nr: 19 *)
N260 G0 X   4.398 Y  12.981
N265 M3 M8
N270 G0 Z   0.050 
N275 G1 Z   0.000
N280 F40
N285 G2 X   9.426 Y  18.010 I   2.514 J   2.514
N290 G2 X   4.398 Y  12.981 I  -2.514 J  -2.514
N295 F1000
N300 G1 Z  -0.050
N305 F40
N310 G2 X   9.426 Y  18.010 I   2.514 J   2.514
N315 G2 X   4.398 Y  12.981 I  -2.514 J  -2.514
N320 F1000
N325 G1 Z   0.050
N330 G0 Z   0.000 
N335 M9 M5
N340 
(* SHAPE Nr: 20 *)
N345 G0 X  24.211 Y  12.069
N350 M3 M8
N355 G0 Z   0.050 
N360 G1 Z   0.000
N365 F40
N370 G2 X  29.240 Y  17.098 I   2.514 J   2.514
N375 G2 X  24.211 Y  12.069 I  -2.514 J  -2.514
N380 F1000
N385 G1 Z  -0.050
N390 F40
N395 G2 X  29.240 Y  17.098 I   2.514 J   2.514
N400 G2 X  24.211 Y  12.069 I  -2.514 J  -2.514
N405 F1000
N410 G1 Z   0.050
N415 G0 Z   0.000 
N420 M9 M5
N425 
(*** LAYER: spacer tabs2 ***)
N430 
(* SHAPE Nr: 25 *)
N435 G0 X 135.064 Y  94.578
N440 M3 M8
N445 G0 Z   0.050 
N450 G1 Z   0.000
N455 F40
N460 G1 X 135.064 Y 103.578
N465 G1 X 135.064 Y 112.578
N470 G1 X 136.564 Y 112.578
N475 G1 X 138.064 Y 112.578
N480 G1 X 138.064 Y 113.953
N485 G1 X 138.064 Y 115.328
N490 G1 X 141.064 Y 115.328
N495 G1 X 144.064 Y 115.328
N500 G1 X 144.064 Y 113.953
N505 G1 X 144.064 Y 112.578
N510 G1 X 145.564 Y 112.578
N515 G1 X 147.064 Y 112.578
N520 G1 X 147.064 Y 103.578
N525 G1 X 147.064 Y  94.578
N530 G1 X 145.564 Y  94.578
N535 G1 X 144.064 Y  94.578
N540 G1 X 144.064 Y  93.203
N545 G1 X 144.064 Y  91.828
N550 G1 X 141.064 Y  91.828
N555 G1 X 138.064 Y  91.828
N560 G1 X 138.064 Y  93.203
N565 G1 X 138.064 Y  94.578
N570 G1 X 136.564 Y  94.578
N575 G1 X 135.064 Y  94.578
N580 F1000
N585 G1 Z  -0.050
N590 F40
N595 G1 X 135.064 Y 103.578
N600 G1 X 135.064 Y 112.578
N605 G1 X 136.564 Y 112.578
N610 G1 X 138.064 Y 112.578
N615 G1 X 138.064 Y 113.953
N620 G1 X 138.064 Y 115.328
N625 G1 X 141.064 Y 115.328
N630 G1 X 144.064 Y 115.328
N635 G1 X 144.064 Y 113.953
N640 G1 X 144.064 Y 112.578
N645 G1 X 145.564 Y 112.578
N650 G1 X 147.064 Y 112.578
N655 G1 X 147.064 Y 103.578
N660 G1 X 147.064 Y  94.578
N665 G1 X 145.564 Y  94.578
N670 G1 X 144.064 Y  94.578
N675 G1 X 144.064 Y  93.203
N680 G1 X 144.064 Y  91.828
N685 G1 X 141.064 Y  91.828
N690 G1 X 138.064 Y  91.828
N695 G1 X 138.064 Y  93.203
N700 G1 X 138.064 Y  94.578
N705 G1 X 136.564 Y  94.578
N710 G1 X 135.064 Y  94.578
N715 F1000
N720 G1 Z   0.050
N725 G0 Z   0.000 
N730 M9 M5
N735 
(* SHAPE Nr: 26 *)
N740 G0 X 153.765 Y  95.491
N745 M3 M8
N750 G0 Z   0.050 
N755 G1 Z   0.000
N760 F40
N765 G1 X 153.765 Y 104.491
N770 G1 X 153.765 Y 113.491
N775 G1 X 155.265 Y 113.491
N780 G1 X 156.765 Y 113.491
N785 G1 X 156.765 Y 114.866
N790 G1 X 156.765 Y 116.241
N795 G1 X 159.765 Y 116.241
N800 G1 X 162.765 Y 116.241
N805 G1 X 162.765 Y 114.866
N810 G1 X 162.765 Y 113.491
N815 G1 X 164.265 Y 113.491
N820 G1 X 165.765 Y 113.491
N825 G1 X 165.765 Y 104.491
N830 G1 X 165.765 Y  95.491
N835 G1 X 164.265 Y  95.491
N840 G1 X 162.765 Y  95.491
N845 G1 X 162.765 Y  94.116
N850 G1 X 162.765 Y  92.741
N855 G1 X 159.765 Y  92.741
N860 G1 X 156.765 Y  92.741
N865 G1 X 156.765 Y  94.116
N870 G1 X 156.765 Y  95.491
N875 G1 X 155.265 Y  95.491
N880 G1 X 153.765 Y  95.491
N885 F1000
N890 G1 Z  -0.050
N895 F40
N900 G1 X 153.765 Y 104.491
N905 G1 X 153.765 Y 113.491
N910 G1 X 155.265 Y 113.491
N915 G1 X 156.765 Y 113.491
N920 G1 X 156.765 Y 114.866
N925 G1 X 156.765 Y 116.241
N930 G1 X 159.765 Y 116.241
N935 G1 X 162.765 Y 116.241
N940 G1 X 162.765 Y 114.866
N945 G1 X 162.765 Y 113.491
N950 G1 X 164.265 Y 113.491
N955 G1 X 165.765 Y 113.491
N960 G1 X 165.765 Y 104.491
N965 G1 X 165.765 Y  95.491
N970 G1 X 164.265 Y  95.491
N975 G1 X 162.765 Y  95.491
N980 G1 X 162.765 Y  94.116
N985 G1 X 162.765 Y  92.741
N990 G1 X 159.765 Y  92.741
N995 G1 X 156.765 Y  92.741
N1000 G1 X 156.765 Y  94.116
N1005 G1 X 156.765 Y  95.491
N1010 G1 X 155.265 Y  95.491
N1015 G1 X 153.765 Y  95.491
N1020 F1000
N1025 G1 Z   0.050
N1030 G0 Z   0.000 
N1035 M9 M5
N1040 
(* SHAPE Nr: 27 *)
N1045 G0 X   0.912 Y   3.746
N1050 M3 M8
N1055 G0 Z   0.050 
N1060 G1 Z   0.000
N1065 F40
N1070 G1 X   0.912 Y  15.496
N1075 G1 X   0.912 Y  27.246
N1080 G1 X   2.412 Y  27.246
N1085 G1 X   3.912 Y  27.246
N1090 G1 X   3.912 Y  28.621
N1095 G1 X   3.912 Y  29.996
N1100 G1 X   6.912 Y  29.996
N1105 G1 X   9.912 Y  29.996
N1110 G1 X   9.912 Y  28.621
N1115 G1 X   9.912 Y  27.246
N1120 G1 X  11.412 Y  27.246
N1125 G1 X  12.912 Y  27.246
N1130 G1 X  12.912 Y  15.496
N1135 G1 X  12.912 Y   3.746
N1140 G1 X  11.412 Y   3.746
N1145 G1 X   9.912 Y   3.746
N1150 G1 X   9.912 Y   2.371
N1155 G1 X   9.912 Y   0.996
N1160 G1 X   6.912 Y   0.996
N1165 G1 X   3.912 Y   0.996
N1170 G1 X   3.912 Y   2.371
N1175 G1 X   3.912 Y   3.746
N1180 G1 X   2.412 Y   3.746
N1185 G1 X   0.912 Y   3.746
N1190 F1000
N1195 G1 Z  -0.050
N1200 F40
N1205 G1 X   0.912 Y  15.496
N1210 G1 X   0.912 Y  27.246
N1215 G1 X   2.412 Y  27.246
N1220 G1 X   3.912 Y  27.246
N1225 G1 X   3.912 Y  28.621
N1230 G1 X   3.912 Y  29.996
N1235 G1 X   6.912 Y  29.996
N1240 G1 X   9.912 Y  29.996
N1245 G1 X   9.912 Y  28.621
N1250 G1 X   9.912 Y  27.246
N1255 G1 X  11.412 Y  27.246
N1260 G1 X  12.912 Y  27.246
N1265 G1 X  12.912 Y  15.496
N1270 G1 X  12.912 Y   3.746
N1275 G1 X  11.412 Y   3.746
N1280 G1 X   9.912 Y   3.746
N1285 G1 X   9.912 Y   2.371
N1290 G1 X   9.912 Y   0.996
N1295 G1 X   6.912 Y   0.996
N1300 G1 X   3.912 Y   0.996
N1305 G1 X   3.912 Y   2.371
N1310 G1 X   3.912 Y   3.746
N1315 G1 X   2.412 Y   3.746
N1320 G1 X   0.912 Y   3.746
N1325 F1000
N1330 G1 Z   0.050
N1335 G0 Z   0.000 
N1340 M9 M5
N1345 
(* SHAPE Nr: 28 *)
N1350 G0 X  20.725 Y   3.583
N1355 M3 M8
N1360 G0 Z   0.050 
N1365 G1 Z   0.000
N1370 F40
N1375 G1 X  20.725 Y  14.583
N1380 G1 X  20.725 Y  25.583
N1385 G1 X  22.225 Y  25.583
N1390 G1 X  23.725 Y  25.583
N1395 G1 X  23.725 Y  26.958
N1400 G1 X  23.725 Y  28.333
N1405 G1 X  26.725 Y  28.333
N1410 G1 X  29.725 Y  28.333
N1415 G1 X  29.725 Y  26.958
N1420 G1 X  29.725 Y  25.583
N1425 G1 X  31.225 Y  25.583
N1430 G1 X  32.725 Y  25.583
N1435 G1 X  32.725 Y  14.583
N1440 G1 X  32.725 Y   3.583
N1445 G1 X  31.225 Y   3.583
N1450 G1 X  29.725 Y   3.583
N1455 G1 X  29.725 Y   2.208
N1460 G1 X  29.725 Y   0.833
N1465 G1 X  26.725 Y   0.833
N1470 G1 X  23.725 Y   0.833
N1475 G1 X  23.725 Y   2.208
N1480 G1 X  23.725 Y   3.583
N1485 G1 X  22.225 Y   3.583
N1490 G1 X  20.725 Y   3.583
N1495 F1000
N1500 G1 Z  -0.050
N1505 F40
N1510 G1 X  20.725 Y  14.583
N1515 G1 X  20.725 Y  25.583
N1520 G1 X  22.225 Y  25.583
N1525 G1 X  23.725 Y  25.583
N1530 G1 X  23.725 Y  26.958
N1535 G1 X  23.725 Y  28.333
N1540 G1 X  26.725 Y  28.333
N1545 G1 X  29.725 Y  28.333
N1550 G1 X  29.725 Y  26.958
N1555 G1 X  29.725 Y  25.583
N1560 G1 X  31.225 Y  25.583
N1565 G1 X  32.725 Y  25.583
N1570 G1 X  32.725 Y  14.583
N1575 G1 X  32.725 Y   3.583
N1580 G1 X  31.225 Y   3.583
N1585 G1 X  29.725 Y   3.583
N1590 G1 X  29.725 Y   2.208
N1595 G1 X  29.725 Y   0.833
N1600 G1 X  26.725 Y   0.833
N1605 G1 X  23.725 Y   0.833
N1610 G1 X  23.725 Y   2.208
N1615 G1 X  23.725 Y   3.583
N1620 G1 X  22.225 Y   3.583
N1625 G1 X  20.725 Y   3.583
N1630 F1000
N1635 G1 Z   0.050
N1640 G0 Z   0.000 
N1645 M9 M5
N1650 
(*** LAYER: handle1 ***)
N1655 
(* SHAPE Nr: 2 *)
N1660 G0 X  48.732 Y  98.817
N1665 M3 M8
N1670 G0 Z   0.050 
N1675 G1 Z   0.000
N1680 F40
N1685 G2 X  50.995 Y 101.079 I   1.131 J   1.131
N1690 G2 X  48.732 Y  98.817 I  -1.131 J  -1.131
N1695 F1000
N1700 G1 Z  -0.050
N1705 F40
N1710 G2 X  50.995 Y 101.079 I   1.131 J   1.131
N1715 G2 X  48.732 Y  98.817 I  -1.131 J  -1.131
N1720 F1000
N1725 G1 Z   0.050
N1730 G0 Z   0.000 
N1735 M9 M5
N1740 
(* SHAPE Nr: 3 *)
N1745 G0 X  50.905 Y  73.911
N1750 M3 M8
N1755 G0 Z   0.050 
N1760 G1 Z   0.000
N1765 F40
N1770 G2 X  53.168 Y  76.174 I   1.131 J   1.131
N1775 G2 X  50.905 Y  73.911 I  -1.131 J  -1.131
N1780 F1000
N1785 G1 Z  -0.050
N1790 F40
N1795 G2 X  53.168 Y  76.174 I   1.131 J   1.131
N1800 G2 X  50.905 Y  73.911 I  -1.131 J  -1.131
N1805 F1000
N1810 G1 Z   0.050
N1815 G0 Z   0.000 
N1820 M9 M5
N1825 
(* SHAPE Nr: 4 *)
N1830 G0 X 114.448 Y 112.179
N1835 M3 M8
N1840 G0 Z   0.050 
N1845 G1 Z   0.000
N1850 F40
N1855 G2 X 116.710 Y 114.442 I   1.131 J   1.131
N1860 G2 X 114.448 Y 112.179 I  -1.131 J  -1.131
N1865 F1000
N1870 G1 Z  -0.050
N1875 F40
N1880 G2 X 116.710 Y 114.442 I   1.131 J   1.131
N1885 G2 X 114.448 Y 112.179 I  -1.131 J  -1.131
N1890 F1000
N1895 G1 Z   0.050
N1900 G0 Z   0.000 
N1905 M9 M5
N1910 
(* SHAPE Nr: 5 *)
N1915 G0 X 117.942 Y  72.131
N1920 M3 M8
N1925 G0 Z   0.050 
N1930 G1 Z   0.000
N1935 F40
N1940 G2 X 120.205 Y  74.394 I   1.131 J   1.131
N1945 G2 X 117.942 Y  72.131 I  -1.131 J  -1.131
N1950 F1000
N1955 G1 Z  -0.050
N1960 F40
N1965 G2 X 120.205 Y  74.394 I   1.131 J   1.131
N1970 G2 X 117.942 Y  72.131 I  -1.131 J  -1.131
N1975 F1000
N1980 G1 Z   0.050
N1985 G0 Z   0.000 
N1990 M9 M5
N1995 
(* SHAPE Nr: 6 *)
N2000 G0 X  20.925 Y 109.233
N2005 M3 M8
N2010 G0 Z   0.050 
N2015 G1 Z   0.000
N2020 F40
N2025 G2 X  23.188 Y 111.496 I   1.131 J   1.131
N2030 G2 X  20.925 Y 109.233 I  -1.131 J  -1.131
N2035 F1000
N2040 G1 Z  -0.050
N2045 F40
N2050 G2 X  23.188 Y 111.496 I   1.131 J   1.131
N2055 G2 X  20.925 Y 109.233 I  -1.131 J  -1.131
N2060 F1000
N2065 G1 Z   0.050
N2070 G0 Z   0.000 
N2075 M9 M5
N2080 
(* SHAPE Nr: 7 *)
N2085 G0 X  13.244 Y 102.525
N2090 M3 M8
N2095 G0 Z   0.050 
N2100 G1 Z   0.000
N2105 F40
N2110 G2 X  15.507 Y 104.787 I   1.131 J   1.131
N2115 G2 X  13.244 Y 102.525 I  -1.131 J  -1.131
N2120 F1000
N2125 G1 Z  -0.050
N2130 F40
N2135 G2 X  15.507 Y 104.787 I   1.131 J   1.131
N2140 G2 X  13.244 Y 102.525 I  -1.131 J  -1.131
N2145 F1000
N2150 G1 Z   0.050
N2155 G0 Z   0.000 
N2160 M9 M5
N2165 
(* SHAPE Nr: 8 *)
N2170 G0 X  25.539 Y  52.541
N2175 M3 M8
N2180 G0 Z   0.050 
N2185 G1 Z   0.000
N2190 F40
N2195 G2 X  27.802 Y  54.804 I   1.131 J   1.131
N2200 G2 X  25.539 Y  52.541 I  -1.131 J  -1.131
N2205 F1000
N2210 G1 Z  -0.050
N2215 F40
N2220 G2 X  27.802 Y  54.804 I   1.131 J   1.131
N2225 G2 X  25.539 Y  52.541 I  -1.131 J  -1.131
N2230 F1000
N2235 G1 Z   0.050
N2240 G0 Z   0.000 
N2245 M9 M5
N2250 
(* SHAPE Nr: 10 *)
N2255 G0 X 118.381 Y  15.915
N2260 M3 M8
N2265 G0 Z   0.050 
N2270 G1 Z   0.000
N2275 F40
N2280 G2 X 120.643 Y  18.178 I   1.131 J   1.131
N2285 G2 X 118.381 Y  15.915 I  -1.131 J  -1.131
N2290 F1000
N2295 G1 Z  -0.050
N2300 F40
N2305 G2 X 120.643 Y  18.178 I   1.131 J   1.131
N2310 G2 X 118.381 Y  15.915 I  -1.131 J  -1.131
N2315 F1000
N2320 G1 Z   0.050
N2325 G0 Z   0.000 
N2330 M9 M5
N2335 
(* SHAPE Nr: 11 *)
N2340 G0 X 116.203 Y  40.820
N2345 M3 M8
N2350 G0 Z   0.050 
N2355 G1 Z   0.000
N2360 F40
N2365 G2 X 118.465 Y  43.083 I   1.131 J   1.131
N2370 G2 X 116.203 Y  40.820 I  -1.131 J  -1.131
N2375 F1000
N2380 G1 Z  -0.050
N2385 F40
N2390 G2 X 118.465 Y  43.083 I   1.131 J   1.131
N2395 G2 X 116.203 Y  40.820 I  -1.131 J  -1.131
N2400 F1000
N2405 G1 Z   0.050
N2410 G0 Z   0.000 
N2415 M9 M5
N2420 
(* SHAPE Nr: 12 *)
N2425 G0 X  52.668 Y   2.539
N2430 M3 M8
N2435 G0 Z   0.050 
N2440 G1 Z   0.000
N2445 F40
N2450 G2 X  54.930 Y   4.802 I   1.131 J   1.131
N2455 G2 X  52.668 Y   2.539 I  -1.131 J  -1.131
N2460 F1000
N2465 G1 Z  -0.050
N2470 F40
N2475 G2 X  54.930 Y   4.802 I   1.131 J   1.131
N2480 G2 X  52.668 Y   2.539 I  -1.131 J  -1.131
N2485 F1000
N2490 G1 Z   0.050
N2495 G0 Z   0.000 
N2500 M9 M5
N2505 
(* SHAPE Nr: 13 *)
N2510 G0 X  49.165 Y  42.587
N2515 M3 M8
N2520 G0 Z   0.050 
N2525 G1 Z   0.000
N2530 F40
N2535 G2 X  51.428 Y  44.849 I   1.131 J   1.131
N2540 G2 X  49.165 Y  42.587 I  -1.131 J  -1.131
N2545 F1000
N2550 G1 Z  -0.050
N2555 F40
N2560 G2 X  51.428 Y  44.849 I   1.131 J   1.131
N2565 G2 X  49.165 Y  42.587 I  -1.131 J  -1.131
N2570 F1000
N2575 G1 Z   0.050
N2580 G0 Z   0.000 
N2585 M9 M5
N2590 
(* SHAPE Nr: 14 *)
N2595 G0 X 146.189 Y   5.505
N2600 M3 M8
N2605 G0 Z   0.050 
N2610 G1 Z   0.000
N2615 F40
N2620 G2 X 148.452 Y   7.767 I   1.131 J   1.131
N2625 G2 X 146.189 Y   5.505 I  -1.131 J  -1.131
N2630 F1000
N2635 G1 Z  -0.050
N2640 F40
N2645 G2 X 148.452 Y   7.767 I   1.131 J   1.131
N2650 G2 X 146.189 Y   5.505 I  -1.131 J  -1.131
N2655 F1000
N2660 G1 Z   0.050
N2665 G0 Z   0.000 
N2670 M9 M5
N2675 
(* SHAPE Nr: 15 *)
N2680 G0 X 153.869 Y  12.215
N2685 M3 M8
N2690 G0 Z   0.050 
N2695 G1 Z   0.000
N2700 F40
N2705 G2 X 156.132 Y  14.477 I   1.131 J   1.131
N2710 G2 X 153.869 Y  12.215 I  -1.131 J  -1.131
N2715 F1000
N2720 G1 Z  -0.050
N2725 F40
N2730 G2 X 156.132 Y  14.477 I   1.131 J   1.131
N2735 G2 X 153.869 Y  12.215 I  -1.131 J  -1.131
N2740 F1000
N2745 G1 Z   0.050
N2750 G0 Z   0.000 
N2755 M9 M5
N2760 
(* SHAPE Nr: 16 *)
N2765 G0 X 141.564 Y  62.196
N2770 M3 M8
N2775 G0 Z   0.050 
N2780 G1 Z   0.000
N2785 F40
N2790 G2 X 143.826 Y  64.458 I   1.131 J   1.131
N2795 G2 X 141.564 Y  62.196 I  -1.131 J  -1.131
N2800 F1000
N2805 G1 Z  -0.050
N2810 F40
N2815 G2 X 143.826 Y  64.458 I   1.131 J   1.131
N2820 G2 X 141.564 Y  62.196 I  -1.131 J  -1.131
N2825 F1000
N2830 G1 Z   0.050
N2835 G0 Z   0.000 
N2840 M9 M5
N2845 
(*** LAYER: handle2 ***)
N2850 
(* SHAPE Nr: 9 *)
N2855 G0 X 150.987 Y  21.197
N2860 M3 M8
N2865 G0 Z   0.050 
N2870 G1 Z   0.000
N2875 F40
N2880 G2 X 153.250 Y  23.459 I   1.131 J   1.131
N2885 G2 X 150.987 Y  21.197 I  -1.131 J  -1.131
N2890 F1000
N2895 G1 Z  -0.050
N2900 F40
N2905 G2 X 153.250 Y  23.459 I   1.131 J   1.131
N2910 G2 X 150.987 Y  21.197 I  -1.131 J  -1.131
N2915 F1000
N2920 G1 Z   0.050
N2925 G0 Z   0.000 
N2930 M9 M5
N2935 
(*** LAYER: handle3 ***)
N2940 
(* SHAPE Nr: 22 *)
N2945 G0 X  40.615 Y  76.491
N2950 M3 M8
N2955 G0 Z   0.050 
N2960 G1 Z   0.000
N2965 F40
N2970 G1 X  40.995 Y  77.734
N2975 G1 X  41.376 Y  78.977
N2980 G1 X  44.244 Y  78.100
N2985 G1 X  47.113 Y  77.222
N2990 G1 X  46.733 Y  75.979
N2995 G1 X  46.352 Y  74.736
N3000 G1 X  43.483 Y  75.613
N3005 G1 X  40.615 Y  76.491
N3010 F1000
N3015 G1 Z  -0.050
N3020 F40
N3025 G1 X  40.995 Y  77.734
N3030 G1 X  41.376 Y  78.977
N3035 G1 X  44.244 Y  78.100
N3040 G1 X  47.113 Y  77.222
N3045 G1 X  46.733 Y  75.979
N3050 G1 X  46.352 Y  74.736
N3055 G1 X  43.483 Y  75.613
N3060 G1 X  40.615 Y  76.491
N3065 F1000
N3070 G1 Z   0.050
N3075 G0 Z   0.000 
N3080 M9 M5
N3085 
(* SHAPE Nr: 24 *)
N3090 G0 X 122.258 Y  39.773
N3095 M3 M8
N3100 G0 Z   0.050 
N3105 G1 Z   0.000
N3110 F40
N3115 G1 X 122.638 Y  41.017
N3120 G1 X 123.018 Y  42.260
N3125 G1 X 125.887 Y  41.383
N3130 G1 X 128.756 Y  40.505
N3135 G1 X 128.376 Y  39.262
N3140 G1 X 127.995 Y  38.019
N3145 G1 X 125.127 Y  38.896
N3150 G1 X 122.258 Y  39.773
N3155 F1000
N3160 G1 Z  -0.050
N3165 F40
N3170 G1 X 122.638 Y  41.017
N3175 G1 X 123.018 Y  42.260
N3180 G1 X 125.887 Y  41.383
N3185 G1 X 128.756 Y  40.505
N3190 G1 X 128.376 Y  39.262
N3195 G1 X 127.995 Y  38.019
N3200 G1 X 125.127 Y  38.896
N3205 G1 X 122.258 Y  39.773
N3210 F1000
N3215 G1 Z   0.050
N3220 G0 Z   0.000 
N3225 M9 M5
N3230 
(*** LAYER: handle4 ***)
N3235 
(* SHAPE Nr: 21 *)
N3240 G0 X  23.272 Y  52.837
N3245 M3 M8
N3250 G0 Z   0.050 
N3255 G1 Z   0.000
N3260 F40
N3265 G1 X  17.124 Y  77.828
N3270 G1 X  10.977 Y 102.820
N3275 G2 X  11.726 Y 105.943 I   3.399 J   0.836
N3280 G1 X  12.583 Y 106.935
N3285 G1 X  13.439 Y 107.928
N3290 G2 X  24.087 Y 117.000 I  99.338 J-105.806
N3295 G3 X  49.485 Y 105.436 I  24.874 J  20.958
N3300 G1 X  79.321 Y 108.286
N3305 G1 X 109.158 Y 111.135
N3310 G3 X 110.510 Y 112.180 I  -0.151 J   1.593
N3315 G2 X 110.647 Y 112.554 I  13.505 J  -4.730
N3320 G2 X 111.134 Y 113.660 I  11.263 J  -4.300
N3325 G2 X 111.724 Y 114.662 I   7.739 J  -3.882
N3330 G2 X 112.437 Y 115.535 I   5.449 J  -3.723
N3335 G2 X 113.298 Y 116.248 I   3.701 J  -3.592
N3340 G2 X 114.439 Y 116.791 I   2.517 J  -3.815
N3345 G2 X 114.857 Y 116.903 I   1.428 J  -4.522
N3350 G2 X 115.440 Y 116.989 I   0.933 J  -4.283
N3355 G2 X 116.850 Y 116.836 I   0.303 J  -3.781
N3360 G2 X 117.741 Y 116.451 I  -1.269 J  -4.162
N3365 G2 X 118.527 Y 115.908 I  -2.810 J  -4.911
N3370 G2 X 119.173 Y 115.308 I  -4.697 J  -5.705
N3375 G2 X 119.863 Y 114.504 I  -7.052 J  -6.739
N3380 G2 X 120.526 Y 113.559 I -10.966 J  -8.406
N3385 G2 X 120.700 Y 113.272 I  -5.735 J  -3.680
N3390 G2 X 120.970 Y 112.759 I  -6.956 J  -3.993
N3395 G2 X 121.419 Y 111.713 I -11.776 J  -5.672
N3400 G2 X 121.815 Y 110.562 I -18.442 J  -6.978
N3405 G2 X 122.273 Y 108.916 I -28.842 J  -8.922
N3410 G2 X 122.761 Y 106.731 I -45.838 J -11.382
N3415 G2 X 123.215 Y 104.206 I -69.597 J -13.818
N3420 G2 X 123.638 Y 101.322 I-100.634 J -16.223
N3425 G2 X 124.058 Y  97.803 I-140.503 J -18.545
N3430 G2 X 124.435 Y  93.907 I-202.740 J -21.619
N3435 G2 X 124.738 Y  90.004 I-203.118 J -17.722
N3440 G2 X 124.934 Y  86.466 I-141.396 J  -9.605
N3445 G2 X 125.017 Y  83.552 I-101.839 J  -4.364
N3450 G2 X 125.007 Y  80.986 I -70.949 J  -1.009
N3455 G2 X 124.905 Y  78.750 I -47.218 J   1.036
N3460 G2 X 124.739 Y  77.049 I -30.118 J   2.092
N3465 G2 X 124.549 Y  75.847 I -19.562 J   2.477
N3470 G2 X 124.288 Y  74.739 I -12.841 J   2.439
N3475 G2 X 124.110 Y  74.188 I  -7.720 J   2.177
N3480 G2 X 123.988 Y  73.874 I  -6.408 J   2.317
N3485 G2 X 123.499 Y  72.829 I -12.746 J   5.335
N3490 G2 X 122.959 Y  71.917 I  -8.652 J   4.504
N3495 G2 X 122.427 Y  71.215 I  -6.146 J   4.103
N3500 G2 X 121.747 Y  70.544 I  -4.298 J   3.679
N3505 G2 X 120.935 Y  70.010 I  -2.782 J   3.345
N3510 G2 X 119.573 Y  69.616 I  -1.718 J   3.382
N3515 G2 X 118.984 Y  69.600 I  -0.412 J   4.364
N3520 G2 X 118.553 Y  69.637 I   0.192 J   4.739
N3525 G2 X 117.335 Y  69.975 I   0.600 J   4.531
N3530 G2 X 116.364 Y  70.528 I   2.052 J   4.732
N3535 G2 X 115.510 Y  71.264 I   3.868 J   5.346
N3540 G2 X 114.756 Y  72.149 I   6.195 J   6.048
N3545 G2 X 114.084 Y  73.154 I   9.677 J   7.191
N3550 G2 X 113.885 Y  73.498 I  12.282 J   7.342
N3555 G3 X 112.373 Y  74.293 I  -1.385 J  -0.800
N3560 G1 X  82.493 Y  71.932
N3565 G1 X  52.614 Y  69.572
N3570 G3 X  50.645 Y  70.532 I -45.913 J -91.679
N3575 G3 X  47.933 Y  71.758 I -34.621 J -72.986
N3580 G3 X  45.292 Y  72.819 I -23.546 J -54.763
N3585 G3 X  42.885 Y  73.640 I -15.025 J -40.121
N3590 G3 X  40.791 Y  74.203 I  -8.842 J -28.689
N3595 G3 X  39.889 Y  74.391 I  -4.869 J -21.106
N3600 G3 X  39.038 Y  74.547 I -21.163 J-113.596
N3605 G3 X  37.131 Y  74.864 I -14.339 J -80.300
N3610 G3 X  35.465 Y  75.085 I  -6.102 J -39.573
N3615 G3 X  34.391 Y  75.171 I  -1.925 J -17.267
N3620 G3 X  33.760 Y  75.174 I  -0.350 J  -7.136
N3625 G3 X  33.547 Y  75.159 I   0.122 J  -3.080
N3630 G3 X  33.204 Y  75.104 I   0.386 J  -3.546
N3635 G3 X  32.774 Y  74.972 I   0.503 J  -2.407
N3640 G3 X  32.378 Y  74.741 I   0.627 J  -1.530
N3645 G3 X  32.034 Y  74.330 I   0.806 J  -1.022
N3650 G3 X  31.904 Y  73.986 I   1.272 J  -0.677
N3655 G3 X  31.796 Y  73.440 I   7.277 J  -1.725
N3660 G3 X  31.670 Y  72.460 I  16.148 J  -2.578
N3665 G3 X  31.552 Y  70.891 I  34.407 J  -3.381
N3670 G3 X  31.465 Y  69.132 I 277.441 J -14.560
N3675 G3 X  31.221 Y  63.645 I1589.849 J -73.332
N3680 G1 X  31.113 Y  62.042
N3685 G1 X  31.005 Y  60.440
N3690 G2 X  30.828 Y  58.220 I-133.550 J   9.546
N3695 G2 X  30.762 Y  57.516 I -55.695 J   4.914
N3700 G2 X  30.757 Y  57.470 I -37.935 J   3.831
N3705 G2 X  30.747 Y  57.370 I-184.628 J  18.867
N3710 G3 X  30.593 Y  55.856 I 495.560 J -50.914
N3715 G3 X  30.524 Y  55.155 I 407.321 J -40.591
N3720 G2 X  30.515 Y  55.066 I -28.306 J   2.772
N3725 G2 X  30.497 Y  54.906 I  -6.877 J   0.695
N3730 G2 X  30.279 Y  53.666 I -12.472 J   1.556
N3735 G2 X  30.004 Y  52.606 I -18.303 J   4.177
N3740 G2 X  23.272 Y  52.837 I  -3.333 J   1.067
N3745 F1000
N3750 G1 Z  -0.050
N3755 F40
N3760 G1 X  17.124 Y  77.828
N3765 G1 X  10.977 Y 102.820
N3770 G2 X  11.726 Y 105.943 I   3.399 J   0.836
N3775 G1 X  12.583 Y 106.935
N3780 G1 X  13.439 Y 107.928
N3785 G2 X  24.087 Y 117.000 I  99.338 J-105.806
N3790 G3 X  49.485 Y 105.436 I  24.874 J  20.958
N3795 G1 X  79.321 Y 108.286
N3800 G1 X 109.158 Y 111.135
N3805 G3 X 110.510 Y 112.180 I  -0.151 J   1.593
N3810 G2 X 110.647 Y 112.554 I  13.505 J  -4.730
N3815 G2 X 111.134 Y 113.660 I  11.263 J  -4.300
N3820 G2 X 111.724 Y 114.662 I   7.739 J  -3.882
N3825 G2 X 112.437 Y 115.535 I   5.449 J  -3.723
N3830 G2 X 113.298 Y 116.248 I   3.701 J  -3.592
N3835 G2 X 114.439 Y 116.791 I   2.517 J  -3.815
N3840 G2 X 114.857 Y 116.903 I   1.428 J  -4.522
N3845 G2 X 115.440 Y 116.989 I   0.933 J  -4.283
N3850 G2 X 116.850 Y 116.836 I   0.303 J  -3.781
N3855 G2 X 117.741 Y 116.451 I  -1.269 J  -4.162
N3860 G2 X 118.527 Y 115.908 I  -2.810 J  -4.911
N3865 G2 X 119.173 Y 115.308 I  -4.697 J  -5.705
N3870 G2 X 119.863 Y 114.504 I  -7.052 J  -6.739
N3875 G2 X 120.526 Y 113.559 I -10.966 J  -8.406
N3880 G2 X 120.700 Y 113.272 I  -5.735 J  -3.680
N3885 G2 X 120.970 Y 112.759 I  -6.956 J  -3.993
N3890 G2 X 121.419 Y 111.713 I -11.776 J  -5.672
N3895 G2 X 121.815 Y 110.562 I -18.442 J  -6.978
N3900 G2 X 122.273 Y 108.916 I -28.842 J  -8.922
N3905 G2 X 122.761 Y 106.731 I -45.838 J -11.382
N3910 G2 X 123.215 Y 104.206 I -69.597 J -13.818
N3915 G2 X 123.638 Y 101.322 I-100.634 J -16.223
N3920 G2 X 124.058 Y  97.803 I-140.503 J -18.545
N3925 G2 X 124.435 Y  93.907 I-202.740 J -21.619
N3930 G2 X 124.738 Y  90.004 I-203.118 J -17.722
N3935 G2 X 124.934 Y  86.466 I-141.396 J  -9.605
N3940 G2 X 125.017 Y  83.552 I-101.839 J  -4.364
N3945 G2 X 125.007 Y  80.986 I -70.949 J  -1.009
N3950 G2 X 124.905 Y  78.750 I -47.218 J   1.036
N3955 G2 X 124.739 Y  77.049 I -30.118 J   2.092
N3960 G2 X 124.549 Y  75.847 I -19.562 J   2.477
N3965 G2 X 124.288 Y  74.739 I -12.841 J   2.439
N3970 G2 X 124.110 Y  74.188 I  -7.720 J   2.177
N3975 G2 X 123.988 Y  73.874 I  -6.408 J   2.317
N3980 G2 X 123.499 Y  72.829 I -12.746 J   5.335
N3985 G2 X 122.959 Y  71.917 I  -8.652 J   4.504
N3990 G2 X 122.427 Y  71.215 I  -6.146 J   4.103
N3995 G2 X 121.747 Y  70.544 I  -4.298 J   3.679
N4000 G2 X 120.935 Y  70.010 I  -2.782 J   3.345
N4005 G2 X 119.573 Y  69.616 I  -1.718 J   3.382
N4010 G2 X 118.984 Y  69.600 I  -0.412 J   4.364
N4015 G2 X 118.553 Y  69.637 I   0.192 J   4.739
N4020 G2 X 117.335 Y  69.975 I   0.600 J   4.531
N4025 G2 X 116.364 Y  70.528 I   2.052 J   4.732
N4030 G2 X 115.510 Y  71.264 I   3.868 J   5.346
N4035 G2 X 114.756 Y  72.149 I   6.195 J   6.048
N4040 G2 X 114.084 Y  73.154 I   9.677 J   7.191
N4045 G2 X 113.885 Y  73.498 I  12.282 J   7.342
N4050 G3 X 112.373 Y  74.293 I  -1.385 J  -0.800
N4055 G1 X  82.493 Y  71.932
N4060 G1 X  52.614 Y  69.572
N4065 G3 X  50.645 Y  70.532 I -45.913 J -91.679
N4070 G3 X  47.933 Y  71.758 I -34.621 J -72.986
N4075 G3 X  45.292 Y  72.819 I -23.546 J -54.763
N4080 G3 X  42.885 Y  73.640 I -15.025 J -40.121
N4085 G3 X  40.791 Y  74.203 I  -8.842 J -28.689
N4090 G3 X  39.889 Y  74.391 I  -4.869 J -21.106
N4095 G3 X  39.038 Y  74.547 I -21.163 J-113.596
N4100 G3 X  37.131 Y  74.864 I -14.339 J -80.300
N4105 G3 X  35.465 Y  75.085 I  -6.102 J -39.573
N4110 G3 X  34.391 Y  75.171 I  -1.925 J -17.267
N4115 G3 X  33.760 Y  75.174 I  -0.350 J  -7.136
N4120 G3 X  33.547 Y  75.159 I   0.122 J  -3.080
N4125 G3 X  33.204 Y  75.104 I   0.386 J  -3.546
N4130 G3 X  32.774 Y  74.972 I   0.503 J  -2.407
N4135 G3 X  32.378 Y  74.741 I   0.627 J  -1.530
N4140 G3 X  32.034 Y  74.330 I   0.806 J  -1.022
N4145 G3 X  31.904 Y  73.986 I   1.272 J  -0.677
N4150 G3 X  31.796 Y  73.440 I   7.277 J  -1.725
N4155 G3 X  31.670 Y  72.460 I  16.148 J  -2.578
N4160 G3 X  31.552 Y  70.891 I  34.407 J  -3.381
N4165 G3 X  31.465 Y  69.132 I 277.441 J -14.560
N4170 G3 X  31.221 Y  63.645 I1589.849 J -73.332
N4175 G1 X  31.113 Y  62.042
N4180 G1 X  31.005 Y  60.440
N4185 G2 X  30.828 Y  58.220 I-133.550 J   9.546
N4190 G2 X  30.762 Y  57.516 I -55.695 J   4.914
N4195 G2 X  30.757 Y  57.470 I -37.935 J   3.831
N4200 G2 X  30.747 Y  57.370 I-184.628 J  18.867
N4205 G3 X  30.593 Y  55.856 I 495.560 J -50.914
N4210 G3 X  30.524 Y  55.155 I 407.321 J -40.591
N4215 G2 X  30.515 Y  55.066 I -28.306 J   2.772
N4220 G2 X  30.497 Y  54.906 I  -6.877 J   0.695
N4225 G2 X  30.279 Y  53.666 I -12.472 J   1.556
N4230 G2 X  30.004 Y  52.606 I -18.303 J   4.177
N4235 G2 X  23.272 Y  52.837 I  -3.333 J   1.067
N4240 F1000
N4245 G1 Z   0.050
N4250 G0 Z   0.000 
N4255 M9 M5
N4260 
(* SHAPE Nr: 23 *)
N4265 G0 X  46.616 Y  10.249
N4270 M3 M8
N4275 G0 Z   0.050 
N4280 G1 Z   0.000
N4285 F40
N4290 G2 X  46.161 Y  12.774 I  69.595 J  13.832
N4295 G2 X  45.738 Y  15.658 I 100.630 J  16.244
N4300 G2 X  45.317 Y  19.176 I 140.499 J  18.574
N4305 G2 X  44.939 Y  23.073 I 202.736 J  21.660
N4310 G2 X  44.635 Y  26.976 I 203.114 J  17.764
N4315 G2 X  44.439 Y  30.514 I 141.394 J   9.634
N4320 G2 X  44.359 Y  33.114 I 102.887 J   4.430
N4325 G2 X  44.348 Y  34.243 I  78.230 J   1.390
N4330 G2 X  44.347 Y  34.702 I  74.215 J   0.247
N4335 G2 X  44.389 Y  36.805 I  62.306 J  -0.177
N4340 G2 X  44.503 Y  38.703 I  41.004 J  -1.502
N4345 G2 X  44.649 Y  40.062 I  27.706 J  -2.304
N4350 G2 X  44.863 Y  41.337 I  18.958 J  -2.519
N4355 G2 X  45.102 Y  42.307 I  11.719 J  -2.373
N4360 G2 X  45.275 Y  42.833 I   7.726 J  -2.249
N4365 G2 X  45.376 Y  43.092 I   6.056 J  -2.225
N4370 G2 X  45.882 Y  44.171 I  12.727 J  -5.308
N4375 G2 X  46.483 Y  45.169 I   8.506 J  -4.446
N4380 G2 X  47.049 Y  45.886 I   5.786 J  -3.985
N4385 G2 X  47.737 Y  46.527 I   4.017 J  -3.618
N4390 G2 X  48.502 Y  47.004 I   2.609 J  -3.338
N4395 G2 X  49.739 Y  47.359 I   1.651 J  -3.414
N4400 G2 X  50.344 Y  47.382 I   0.466 J  -4.254
N4405 G2 X  50.785 Y  47.348 I  -0.155 J  -4.794
N4410 G2 X  52.003 Y  47.019 I  -0.568 J  -4.532
N4415 G2 X  52.960 Y  46.485 I  -2.000 J  -4.708
N4420 G2 X  53.824 Y  45.753 I  -3.760 J  -5.307
N4425 G2 X  54.599 Y  44.852 I  -6.107 J  -6.042
N4430 G2 X  55.274 Y  43.847 I  -9.601 J  -7.173
N4435 G2 X  55.485 Y  43.483 I -12.242 J  -7.348
N4440 G3 X  56.997 Y  42.689 I   1.385 J   0.801
N4445 G1 X  86.876 Y  45.056
N4450 G1 X 116.755 Y  47.422
N4455 G3 X 118.724 Y  46.463 I  45.894 J  91.688
N4460 G3 X 121.437 Y  45.237 I  34.606 J  72.993
N4465 G3 X 124.078 Y  44.176 I  23.535 J  54.767
N4470 G3 X 126.485 Y  43.356 I  15.017 J  40.124
N4475 G3 X 128.579 Y  42.793 I   8.836 J  28.691
N4480 G3 X 129.481 Y  42.605 I   4.865 J  21.107
N4485 G3 X 130.332 Y  42.450 I  21.139 J 113.600
N4490 G3 X 132.240 Y  42.133 I  14.322 J  80.303
N4495 G3 X 133.905 Y  41.913 I   6.094 J  39.575
N4500 G3 X 134.979 Y  41.827 I   1.922 J  17.267
N4505 G3 X 135.611 Y  41.824 I   0.349 J   7.136
N4510 G3 X 135.823 Y  41.840 I  -0.122 J   3.080
N4515 G3 X 136.167 Y  41.894 I  -0.387 J   3.546
N4520 G3 X 136.596 Y  42.026 I  -0.504 J   2.407
N4525 G3 X 136.992 Y  42.257 I  -0.628 J   1.530
N4530 G3 X 137.336 Y  42.669 I  -0.806 J   1.022
N4535 G3 X 137.466 Y  43.013 I  -1.272 J   0.676
N4540 G3 X 137.574 Y  43.559 I  -7.277 J   1.724
N4545 G3 X 137.700 Y  44.538 I -16.148 J   2.575
N4550 G3 X 137.818 Y  46.107 I -34.408 J   3.374
N4555 G3 X 137.904 Y  47.867 I-277.444 J  14.503
N4560 G3 X 138.146 Y  53.354 I-1589.864 J  73.007
N4565 G1 X 138.254 Y  54.956
N4570 G1 X 138.362 Y  56.558
N4575 G2 X 138.539 Y  58.779 I 133.552 J  -9.519
N4580 G2 X 138.605 Y  59.483 I  55.696 J  -4.902
N4585 G2 X 138.610 Y  59.528 I  37.936 J  -3.823
N4590 G2 X 138.620 Y  59.628 I 184.631 J -18.830
N4595 G3 X 138.773 Y  61.142 I-495.570 J  50.812
N4600 G3 X 138.842 Y  61.843 I-407.329 J  40.508
N4605 G2 X 138.851 Y  61.932 I  28.307 J  -2.766
N4610 G2 X 138.869 Y  62.093 I   6.877 J  -0.694
N4615 G2 X 139.087 Y  63.333 I  12.472 J  -1.554
N4620 G2 X 139.361 Y  64.393 I  18.303 J  -4.173
N4625 G2 X 146.094 Y  64.164 I   3.334 J  -1.066
N4630 G1 X 152.246 Y  39.173
N4635 G1 X 158.399 Y  14.183
N4640 G2 X 157.650 Y  11.059 I  -3.399 J  -0.837
N4645 G1 X 156.794 Y  10.067
N4650 G1 X 155.938 Y   9.075
N4655 G2 X 145.292 Y  -0.000 I -99.359 J 105.785
N4660 G3 X 119.892 Y  11.559 I -24.870 J -20.963
N4665 G1 X  90.056 Y   8.703
N4670 G1 X  60.220 Y   5.847
N4675 G3 X  58.868 Y   4.802 I   0.151 J  -1.593
N4680 G2 X  58.731 Y   4.429 I -13.506 J   4.727
N4685 G2 X  58.244 Y   3.322 I -11.264 J   4.298
N4690 G2 X  57.654 Y   2.321 I  -7.739 J   3.881
N4695 G2 X  56.942 Y   1.447 I  -5.449 J   3.721
N4700 G2 X  56.081 Y   0.734 I  -3.702 J   3.591
N4705 G2 X  54.940 Y   0.190 I  -2.518 J   3.814
N4710 G2 X  54.522 Y   0.079 I  -1.429 J   4.522
N4715 G2 X  53.939 Y  -0.008 I  -0.934 J   4.283
N4720 G2 X  52.529 Y   0.145 I  -0.304 J   3.781
N4725 G2 X  51.637 Y   0.530 I   1.269 J   4.162
N4730 G2 X  50.851 Y   1.073 I   2.809 J   4.911
N4735 G2 X  50.205 Y   1.672 I   4.696 J   5.706
N4740 G2 X  49.516 Y   2.477 I   7.051 J   6.740
N4745 G2 X  48.852 Y   3.421 I  10.965 J   8.408
N4750 G2 X  48.678 Y   3.708 I   5.734 J   3.681
N4755 G2 X  48.408 Y   4.221 I   6.956 J   3.994
N4760 G2 X  47.959 Y   5.267 I  11.774 J   5.674
N4765 G2 X  47.563 Y   6.418 I  18.440 J   6.982
N4770 G2 X  47.104 Y   8.064 I  28.841 J   8.928
N4775 G2 X  46.616 Y  10.249 I  45.835 J  11.391
N4780 F1000
N4785 G1 Z  -0.050
N4790 F40
N4795 G2 X  46.161 Y  12.774 I  69.595 J  13.832
N4800 G2 X  45.738 Y  15.658 I 100.630 J  16.244
N4805 G2 X  45.317 Y  19.176 I 140.499 J  18.574
N4810 G2 X  44.939 Y  23.073 I 202.736 J  21.660
N4815 G2 X  44.635 Y  26.976 I 203.114 J  17.764
N4820 G2 X  44.439 Y  30.514 I 141.394 J   9.634
N4825 G2 X  44.359 Y  33.114 I 102.887 J   4.430
N4830 G2 X  44.348 Y  34.243 I  78.230 J   1.390
N4835 G2 X  44.347 Y  34.702 I  74.215 J   0.247
N4840 G2 X  44.389 Y  36.805 I  62.306 J  -0.177
N4845 G2 X  44.503 Y  38.703 I  41.004 J  -1.502
N4850 G2 X  44.649 Y  40.062 I  27.706 J  -2.304
N4855 G2 X  44.863 Y  41.337 I  18.958 J  -2.519
N4860 G2 X  45.102 Y  42.307 I  11.719 J  -2.373
N4865 G2 X  45.275 Y  42.833 I   7.726 J  -2.249
N4870 G2 X  45.376 Y  43.092 I   6.056 J  -2.225
N4875 G2 X  45.882 Y  44.171 I  12.727 J  -5.308
N4880 G2 X  46.483 Y  45.169 I   8.506 J  -4.446
N4885 G2 X  47.049 Y  45.886 I   5.786 J  -3.985
N4890 G2 X  47.737 Y  46.527 I   4.017 J  -3.618
N4895 G2 X  48.502 Y  47.004 I   2.609 J  -3.338
N4900 G2 X  49.739 Y  47.359 I   1.651 J  -3.414
N4905 G2 X  50.344 Y  47.382 I   0.466 J  -4.254
N4910 G2 X  50.785 Y  47.348 I  -0.155 J  -4.794
N4915 G2 X  52.003 Y  47.019 I  -0.568 J  -4.532
N4920 G2 X  52.960 Y  46.485 I  -2.000 J  -4.708
N4925 G2 X  53.824 Y  45.753 I  -3.760 J  -5.307
N4930 G2 X  54.599 Y  44.852 I  -6.107 J  -6.042
N4935 G2 X  55.274 Y  43.847 I  -9.601 J  -7.173
N4940 G2 X  55.485 Y  43.483 I -12.242 J  -7.348
N4945 G3 X  56.997 Y  42.689 I   1.385 J   0.801
N4950 G1 X  86.876 Y  45.056
N4955 G1 X 116.755 Y  47.422
N4960 G3 X 118.724 Y  46.463 I  45.894 J  91.688
N4965 G3 X 121.437 Y  45.237 I  34.606 J  72.993
N4970 G3 X 124.078 Y  44.176 I  23.535 J  54.767
N4975 G3 X 126.485 Y  43.356 I  15.017 J  40.124
N4980 G3 X 128.579 Y  42.793 I   8.836 J  28.691
N4985 G3 X 129.481 Y  42.605 I   4.865 J  21.107
N4990 G3 X 130.332 Y  42.450 I  21.139 J 113.600
N4995 G3 X 132.240 Y  42.133 I  14.322 J  80.303
N5000 G3 X 133.905 Y  41.913 I   6.094 J  39.575
N5005 G3 X 134.979 Y  41.827 I   1.922 J  17.267
N5010 G3 X 135.611 Y  41.824 I   0.349 J   7.136
N5015 G3 X 135.823 Y  41.840 I  -0.122 J   3.080
N5020 G3 X 136.167 Y  41.894 I  -0.387 J   3.546
N5025 G3 X 136.596 Y  42.026 I  -0.504 J   2.407
N5030 G3 X 136.992 Y  42.257 I  -0.628 J   1.530
N5035 G3 X 137.336 Y  42.669 I  -0.806 J   1.022
N5040 G3 X 137.466 Y  43.013 I  -1.272 J   0.676
N5045 G3 X 137.574 Y  43.559 I  -7.277 J   1.724
N5050 G3 X 137.700 Y  44.538 I -16.148 J   2.575
N5055 G3 X 137.818 Y  46.107 I -34.408 J   3.374
N5060 G3 X 137.904 Y  47.867 I-277.444 J  14.503
N5065 G3 X 138.146 Y  53.354 I-1589.864 J  73.007
N5070 G1 X 138.254 Y  54.956
N5075 G1 X 138.362 Y  56.558
N5080 G2 X 138.539 Y  58.779 I 133.552 J  -9.519
N5085 G2 X 138.605 Y  59.483 I  55.696 J  -4.902
N5090 G2 X 138.610 Y  59.528 I  37.936 J  -3.823
N5095 G2 X 138.620 Y  59.628 I 184.631 J -18.830
N5100 G3 X 138.773 Y  61.142 I-495.570 J  50.812
N5105 G3 X 138.842 Y  61.843 I-407.329 J  40.508
N5110 G2 X 138.851 Y  61.932 I  28.307 J  -2.766
N5115 G2 X 138.869 Y  62.093 I   6.877 J  -0.694
N5120 G2 X 139.087 Y  63.333 I  12.472 J  -1.554
N5125 G2 X 139.361 Y  64.393 I  18.303 J  -4.173
N5130 G2 X 146.094 Y  64.164 I   3.334 J  -1.066
N5135 G1 X 152.246 Y  39.173
N5140 G1 X 158.399 Y  14.183
N5145 G2 X 157.650 Y  11.059 I  -3.399 J  -0.837
N5150 G1 X 156.794 Y  10.067
N5155 G1 X 155.938 Y   9.075
N5160 G2 X 145.292 Y  -0.000 I -99.359 J 105.785
N5165 G3 X 119.892 Y  11.559 I -24.870 J -20.963
N5170 G1 X  90.056 Y   8.703
N5175 G1 X  60.220 Y   5.847
N5180 G3 X  58.868 Y   4.802 I   0.151 J  -1.593
N5185 G2 X  58.731 Y   4.429 I -13.506 J   4.727
N5190 G2 X  58.244 Y   3.322 I -11.264 J   4.298
N5195 G2 X  57.654 Y   2.321 I  -7.739 J   3.881
N5200 G2 X  56.942 Y   1.447 I  -5.449 J   3.721
N5205 G2 X  56.081 Y   0.734 I  -3.702 J   3.591
N5210 G2 X  54.940 Y   0.190 I  -2.518 J   3.814
N5215 G2 X  54.522 Y   0.079 I  -1.429 J   4.522
N5220 G2 X  53.939 Y  -0.008 I  -0.934 J   4.283
N5225 G2 X  52.529 Y   0.145 I  -0.304 J   3.781
N5230 G2 X  51.637 Y   0.530 I   1.269 J   4.162
N5235 G2 X  50.851 Y   1.073 I   2.809 J   4.911
N5240 G2 X  50.205 Y   1.672 I   4.696 J   5.706
N5245 G2 X  49.516 Y   2.477 I   7.051 J   6.740
N5250 G2 X  48.852 Y   3.421 I  10.965 J   8.408
N5255 G2 X  48.678 Y   3.708 I   5.734 J   3.681
N5260 G2 X  48.408 Y   4.221 I   6.956 J   3.994
N5265 G2 X  47.959 Y   5.267 I  11.774 J   5.674
N5270 G2 X  47.563 Y   6.418 I  18.440 J   6.982
N5275 G2 X  47.104 Y   8.064 I  28.841 J   8.928
N5280 G2 X  46.616 Y  10.249 I  45.835 J  11.391
N5285 F1000
N5290 G1 Z   0.050
N5295 G0 Z   0.000 
N5300 M9 M5
N5305 G0 X   0.000 Y   0.000
N5310 M2 (Program end)