( pcb2gcode 2.5.0 )
( Software-independent Gcode )

( This file uses 2 drill bit sizes. )
( Bit sizes: [0.4mm] [1mm] )

G94       (Millimeters per minute feed rate.)
G21       (Units == Millimeters.)
G91.1     (Incremental arc distance mode.)
G90       (Absolute coordinates.)
G00 S10000     (RPM spindle speed.)

G00 Z17.83500 (Retract)
T1
M5      (Spindle stop.)
G04 P1.00000
(MSG, Change tool bit to drill size 0.4mm)
M6      (Tool change.)
M0      (Temporary machine stop.)
M3      (Spindle on clockwise.)
G0 Z1.00000
G04 P1.00000

G1 F30.00000
G0 X1.27000 Y-9.21000
G1 Z-2.50000
G1 Z1.00000
G0 X1.27000 Y-14.29000
G1 Z-2.50000
G1 Z1.00000
G0 X10.16000 Y-16.83000
G1 Z-2.50000
G1 Z1.00000
G0 X10.16000 Y-6.67000
G1 Z-2.50000
G1 Z1.00000

G00 Z17.83500 (Retract)
T2
M5      (Spindle stop.)
G04 P1.00000
(MSG, Change tool bit to drill size 1mm)
M6      (Tool change.)
M0      (Temporary machine stop.)
M3      (Spindle on clockwise.)
G0 Z1.00000
G04 P1.00000

G1 F30.00000
G0 X5.08000 Y-9.21000
G1 Z-2.50000
G1 Z1.00000
G0 X7.62000 Y-9.21000
G1 Z-2.50000
G1 Z1.00000
G0 X5.08000 Y-14.29000
G1 Z-2.50000
G1 Z1.00000
G0 X7.62000 Y-14.29000
G1 Z-2.50000
G1 Z1.00000

G00 Z17.835 ( All done -- retract )

M5      (Spindle off.)
G04 P1.000000
M9      (Coolant off.)
M2      (Program end.)

