( pcb2gcode 2.5.0 )
( Software-independent Gcode )

G94 ( Millimeters per minute feed rate. )
G21 ( Units == Millimeters. )

G90 ( Absolute coordinates. )
G00 S10000 ( RPM spindle speed. )
G64 P0.01016 ( set maximum deviation from commanded toolpath )
G01 F200.00000 ( Feedrate. )


G00 Z7.62000 (Retract to tool change height)
T1
M5      (Spindle stop.)
G04 P1.00000 (Wait for spindle to stop)
(MSG, Change tool bit to mill diameter 0.15000mm)
M6      (Tool change.)
M0      (Temporary machine stop.)
M3 ( Spindle on clockwise. )
G04 P1.00000 (Wait for spindle to get up to speed)
G04 P0 ( dwell for no time -- G64 should not smooth over this point )
G00 Z0.63500 ( retract )

G00 X0.58745 Y5.09521 ( rapid move to begin. )
G01 F30.00000
( Mill infeed pass 1/1 )
G01 Z-0.14000
G04 P0 ( dwell for no time -- G64 should not smooth over this point )
G01 F200.00000
G01 X0.58745 Y5.09521
G01 X0.37368 Y5.09521
G01 X0.32794 Y5.13156
G01 X0.25905 Y5.20045
G01 X0.19888 Y5.27751
G01 X0.17384 Y5.31932
G01 X0.15075 Y5.36255
G01 X0.11346 Y5.45257
G01 X0.09924 Y5.49946
G01 X0.08024 Y5.59501
G01 X0.07302 Y5.69250
G01 X0.28400 Y5.69250
G01 X0.28539 Y6.24553
G01 X0.29019 Y6.29430
G01 X0.30112 Y6.34926
G01 X0.31534 Y6.39618
G01 X0.32482 Y6.42259
G01 X0.35992 Y6.49117
G01 X0.39106 Y6.53781
G01 X0.44099 Y6.59648
G01 X0.49967 Y6.64642
G01 X0.54628 Y6.67756
G01 X0.61488 Y6.71266
G01 X0.68819 Y6.73636
G01 X0.73002 Y6.74467
G01 X0.75049 Y6.72963
G01 X0.73002 Y6.74467
G01 X0.73000 Y8.78967
G01 X0.73401 Y8.79081
G01 X0.73000 Y8.78967
G01 X0.69962 Y8.82889
G01 X0.64823 Y8.92211
G01 X0.62677 Y8.97390
G01 X0.60401 Y9.04893
G01 X0.59306 Y9.10392
G01 X0.58539 Y9.18195
G01 X0.58539 Y9.23803
G01 X0.59306 Y9.31606
G01 X0.60401 Y9.37105
G01 X0.62677 Y9.44608
G01 X0.64823 Y9.49787
G01 X0.69962 Y9.59109
G01 X0.78494 Y9.69505
G01 X0.86634 Y9.76363
G01 X0.91295 Y9.79477
G01 X1.00747 Y9.84374
G01 X1.10894 Y9.87598
G01 X1.16393 Y9.88690
G01 X1.27000 Y9.89597
G01 X1.37604 Y9.88690
G01 X1.43104 Y9.87598
G01 X1.50607 Y9.85319
G01 X1.55786 Y9.83176
G01 X1.65110 Y9.78035
G01 X1.73426 Y9.71390
G01 X1.77389 Y9.67425
G01 X1.84036 Y9.59109
G01 X1.89174 Y9.49787
G01 X1.91320 Y9.44608
G01 X1.93596 Y9.37105
G01 X1.94691 Y9.31606
G01 X1.95458 Y9.23803
G01 X1.95458 Y9.18195
G01 X1.94280 Y9.07616
G01 X1.91320 Y8.97390
G01 X1.89174 Y8.92211
G01 X1.84036 Y8.82889
G01 X1.80998 Y8.78967
G01 X1.80597 Y8.79081
G01 X1.80998 Y8.78967
G01 X1.80995 Y6.74467
G01 X1.78948 Y6.72963
G01 X1.80995 Y6.74467
G01 X1.89868 Y6.72211
G01 X1.95047 Y6.70067
G01 X1.99370 Y6.67756
G01 X2.04031 Y6.64642
G01 X2.09898 Y6.59648
G01 X2.14892 Y6.53781
G01 X2.18006 Y6.49117
G01 X2.21516 Y6.42259
G01 X2.24566 Y6.32206
G01 X2.25598 Y6.21749
G01 X2.25598 Y5.69250
G01 X2.24566 Y5.58792
G01 X2.22463 Y5.51381
G01 X2.20317 Y5.46202
G01 X2.16563 Y5.39471
G01 X2.11783 Y5.33428
G01 X2.07818 Y5.29466
G01 X2.04031 Y5.26357
G01 X1.99370 Y5.23240
G01 X1.92509 Y5.19730
G01 X1.89868 Y5.18785
G01 X1.82456 Y5.16682
G01 X1.71999 Y5.15650
G01 X0.81999 Y5.15650
G01 X0.74318 Y5.16268
G01 X0.68819 Y5.17362
G01 X0.61488 Y5.19730
G01 X0.54628 Y5.23240
G01 X0.49967 Y5.26357
G01 X0.46180 Y5.29466
G01 X0.42215 Y5.33428
G01 X0.37435 Y5.39471
G01 X0.33680 Y5.46202
G01 X0.31534 Y5.51381
G01 X0.30112 Y5.56069
G01 X0.29019 Y5.61569
G01 X0.28400 Y5.69250
G01 X0.38951 Y5.69250
G01 X0.39037 Y6.23517
G01 X0.40208 Y6.31866
G01 X0.42984 Y6.39821
G01 X0.47259 Y6.47088
G01 X0.51559 Y6.52188
G01 X0.56660 Y6.56488
G01 X0.63924 Y6.60763
G01 X0.71882 Y6.63539
G01 X0.80228 Y6.64710
G01 X0.83551 Y6.64797
G01 X0.86060 Y6.62666
G01 X0.83551 Y6.64797
G01 X0.83551 Y8.82741
G01 X0.83988 Y8.82871
G01 X0.83551 Y8.82741
G01 X0.77823 Y8.90267
G01 X0.74125 Y8.97184
G01 X0.70495 Y9.07956
G01 X0.69037 Y9.19229
G01 X0.69037 Y9.22767
G01 X0.70066 Y9.32325
G01 X0.72771 Y9.41545
G01 X0.74125 Y9.44814
G01 X0.78732 Y9.53249
G01 X0.84762 Y9.60732
G01 X0.93325 Y9.68210
G01 X1.03182 Y9.73872
G01 X1.06451 Y9.75225
G01 X1.17427 Y9.78192
G01 X1.27000 Y9.79048
G01 X1.36571 Y9.78192
G01 X1.47546 Y9.75225
G01 X1.57729 Y9.70176
G01 X1.60670 Y9.68210
G01 X1.69235 Y9.60732
G01 X1.75265 Y9.53249
G01 X1.79873 Y9.44814
G01 X1.81226 Y9.41545
G01 X1.83932 Y9.32325
G01 X1.84960 Y9.22767
G01 X1.84960 Y9.19229
G01 X1.83502 Y9.07956
G01 X1.79873 Y8.97184
G01 X1.76174 Y8.90267
G01 X1.70447 Y8.82741
G01 X1.70010 Y8.82871
G01 X1.70447 Y8.82741
G01 X1.70447 Y6.64797
G01 X1.67937 Y6.62666
G01 X1.70447 Y6.64797
G01 X1.78646 Y6.64230
G01 X1.82115 Y6.63539
G01 X1.88473 Y6.61518
G01 X1.94396 Y6.58454
G01 X2.01127 Y6.53379
G01 X2.03629 Y6.50878
G01 X2.08704 Y6.44147
G01 X2.11770 Y6.38223
G01 X2.14221 Y6.30146
G01 X2.15047 Y6.21749
G01 X2.15047 Y5.69250
G01 X2.14480 Y5.62602
G01 X2.13789 Y5.59133
G01 X2.11013 Y5.51172
G01 X2.07792 Y5.45333
G01 X2.03629 Y5.40121
G01 X1.97338 Y5.34510
G01 X1.94396 Y5.32544
G01 X1.86804 Y5.28879
G01 X1.80398 Y5.27027
G01 X1.71999 Y5.26199
G01 X0.81999 Y5.26199
G01 X0.73599 Y5.27027
G01 X0.67193 Y5.28879
G01 X0.63924 Y5.30235
G01 X0.59601 Y5.32544
G01 X0.52870 Y5.37619
G01 X0.50368 Y5.40121
G01 X0.45293 Y5.46852
G01 X0.41631 Y5.54441
G01 X0.40208 Y5.59133
G01 X0.39517 Y5.62602
G01 X0.38951 Y5.69250
G01 X0.49500 Y5.69250
G01 X0.50015 Y5.63636
G01 X0.51725 Y5.57505
G01 X0.55415 Y5.50601
G01 X0.59563 Y5.45772
G01 X0.64574 Y5.41848
G01 X0.69560 Y5.39222
G01 X0.75659 Y5.37373
G01 X0.81999 Y5.36748
G01 X1.71999 Y5.36748
G01 X1.78338 Y5.37373
G01 X1.84437 Y5.39222
G01 X1.89423 Y5.41848
G01 X1.94434 Y5.45772
G01 X1.99400 Y5.51825
G01 X2.02273 Y5.57505
G01 X2.03873 Y5.62907
G01 X2.04498 Y5.69250
G01 X2.04498 Y6.21749
G01 X2.03873 Y6.28089
G01 X2.01709 Y6.34850
G01 X1.98582 Y6.40395
G01 X1.94434 Y6.45223
G01 X1.89423 Y6.49150
G01 X1.84437 Y6.51774
G01 X1.77612 Y6.53733
G01 X1.71999 Y6.54246
G01 X1.59893 Y6.54246
G01 X1.59893 Y8.86800
G01 X1.66494 Y8.94608
G01 X1.71130 Y9.03514
G01 X1.73586 Y9.11733
G01 X1.74462 Y9.20265
G01 X1.73586 Y9.30265
G01 X1.70569 Y9.39841
G01 X1.66494 Y9.47390
G01 X1.61082 Y9.54042
G01 X1.53980 Y9.60054
G01 X1.44483 Y9.65131
G01 X1.35537 Y9.67694
G01 X1.27000 Y9.68499
G01 X1.17018 Y9.67407
G01 X1.08821 Y9.64883
G01 X1.01239 Y9.60872
G01 X0.93957 Y9.55081
G01 X0.87125 Y9.46757
G01 X0.83114 Y9.39175
G01 X0.80305 Y9.29538
G01 X0.79535 Y9.20265
G01 X0.80411 Y9.11733
G01 X0.82867 Y9.03514
G01 X0.87942 Y8.94019
G01 X0.94099 Y8.86800
G01 X0.94099 Y6.54246
G01 X0.81999 Y6.54246
G01 X0.76385 Y6.53733
G01 X0.69560 Y6.51774
G01 X0.64574 Y6.49150
G01 X0.59563 Y6.45223
G01 X0.55415 Y6.40395
G01 X0.52288 Y6.34850
G01 X0.50302 Y6.28802
G01 X0.49500 Y6.21749
G01 X0.49500 Y5.69250
G01 X0.07302 Y5.69250
G01 X0.07541 Y6.26621
G01 X0.08024 Y6.31497
G01 X0.09924 Y6.41053
G01 X0.12990 Y6.50334
G01 X0.17384 Y6.59061
G01 X0.22797 Y6.67164
G01 X0.29182 Y6.74566
G01 X0.36584 Y6.80951
G01 X0.44684 Y6.86364
G01 X0.51902 Y6.90044
G01 X0.53284 Y6.89257
G01 X0.51902 Y6.90044
G01 X0.51902 Y8.72028
G01 X0.52174 Y8.72091
G01 X0.51902 Y8.72028
G01 X0.49911 Y8.75350
G01 X0.46215 Y8.82264
G01 X0.42487 Y8.91266
G01 X0.39027 Y9.03501
G01 X0.37541 Y9.16127
G01 X0.37541 Y9.25871
G01 X0.39027 Y9.38497
G01 X0.40211 Y9.43229
G01 X0.42487 Y9.50732
G01 X0.46215 Y9.59731
G01 X0.52421 Y9.70831
G01 X0.55324 Y9.74748
G01 X0.63574 Y9.84423
G01 X0.67188 Y9.87699
G01 X0.73249 Y9.92673
G01 X0.81349 Y9.98085
G01 X0.92674 Y10.03866
G01 X1.04770 Y10.07786
G01 X1.14323 Y10.09686
G01 X1.22128 Y10.10455
G01 X1.27000 Y10.10694
G01 X1.39675 Y10.09686
G01 X1.49228 Y10.07786
G01 X1.56733 Y10.05510
G01 X1.65732 Y10.01781
G01 X1.76832 Y9.95578
G01 X1.86809 Y9.87699
G01 X1.93698 Y9.80811
G01 X2.01577 Y9.70831
G01 X2.04086 Y9.66648
G01 X2.07782 Y9.59731
G01 X2.11511 Y9.50732
G01 X2.14970 Y9.38497
G01 X2.16456 Y9.25871
G01 X2.16456 Y9.16127
G01 X2.14970 Y9.03501
G01 X2.11511 Y8.91266
G01 X2.07782 Y8.82264
G01 X2.04086 Y8.75350
G01 X2.02095 Y8.72028
G01 X2.01823 Y8.72091
G01 X2.02095 Y8.72028
G01 X2.02095 Y6.90044
G01 X2.00797 Y6.89333
G01 X2.02095 Y6.90044
G01 X2.09314 Y6.86364
G01 X2.17414 Y6.80951
G01 X2.24815 Y6.74566
G01 X2.31201 Y6.67164
G01 X2.36614 Y6.59061
G01 X2.41008 Y6.50334
G01 X2.42651 Y6.45739
G01 X2.45260 Y6.36321
G01 X2.46695 Y6.21749
G01 X2.46695 Y5.69250
G01 X2.45260 Y5.54675
G01 X2.42651 Y5.45257
G01 X2.38923 Y5.36255
G01 X2.34107 Y5.27751
G01 X2.28092 Y5.20045
G01 X2.21204 Y5.13156
G01 X2.16629 Y5.09521
G01 X0.58745 Y5.09521
G01 X0.49657 Y5.13939
G01 X0.43274 Y5.18201
G01 X0.39487 Y5.21310
G01 X0.34061 Y5.26738
G01 X0.28661 Y5.33611
G01 X0.24376 Y5.41228
G01 X0.21440 Y5.48317
G01 X0.20018 Y5.53009
G01 X0.18522 Y5.60535
G01 X0.18042 Y5.65412
G01 X0.17851 Y6.21749
G01 X0.18522 Y6.30464
G01 X0.20018 Y6.37987
G01 X0.22736 Y6.46298
G01 X0.26688 Y6.54091
G01 X0.30950 Y6.60474
G01 X0.36639 Y6.67108
G01 X0.43274 Y6.72795
G01 X0.49657 Y6.77060
G01 X0.53978 Y6.79371
G01 X0.62451 Y6.82727
G01 X0.64160 Y6.81617
G01 X0.62451 Y6.82727
G01 X0.62451 Y8.75327
G01 X0.62817 Y8.75424
G01 X0.62451 Y8.75327
G01 X0.61191 Y8.77026
G01 X0.55519 Y8.87237
G01 X0.52583 Y8.94329
G01 X0.49373 Y9.05558
G01 X0.48042 Y9.17161
G01 X0.48042 Y9.24837
G01 X0.48809 Y9.32640
G01 X0.50307 Y9.40166
G01 X0.52583 Y9.47669
G01 X0.55519 Y9.54761
G01 X0.61191 Y9.64971
G01 X0.71034 Y9.76963
G01 X0.79941 Y9.84519
G01 X0.86322 Y9.88781
G01 X0.96710 Y9.94120
G01 X1.07831 Y9.97692
G01 X1.15359 Y9.99188
G01 X1.27000 Y10.00145
G01 X1.38638 Y9.99188
G01 X1.46167 Y9.97692
G01 X1.53670 Y9.95416
G01 X1.60759 Y9.92480
G01 X1.67676 Y9.88781
G01 X1.74056 Y9.84519
G01 X1.80116 Y9.79543
G01 X1.85544 Y9.74118
G01 X1.92806 Y9.64971
G01 X1.98478 Y9.54761
G01 X2.01414 Y9.47669
G01 X2.04625 Y9.36440
G01 X2.05956 Y9.24837
G01 X2.05956 Y9.17161
G01 X2.04625 Y9.05558
G01 X2.01414 Y8.94329
G01 X1.98478 Y8.87237
G01 X1.92806 Y8.77026
G01 X1.91546 Y8.75327
G01 X1.91181 Y8.75424
G01 X1.91546 Y8.75327
G01 X1.91546 Y6.82727
G01 X1.89837 Y6.81617
G01 X1.91546 Y6.82727
G01 X1.92931 Y6.82307
G01 X1.96548 Y6.81012
G01 X2.04340 Y6.77060
G01 X2.10723 Y6.72795
G01 X2.17358 Y6.67108
G01 X2.19936 Y6.64258
G01 X2.23048 Y6.60474
G01 X2.27310 Y6.54091
G01 X2.31262 Y6.46298
G01 X2.34912 Y6.34263
G01 X2.35956 Y6.25587
G01 X2.36146 Y5.69250
G01 X2.34912 Y5.56735
G01 X2.32557 Y5.48317
G01 X2.29621 Y5.41228
G01 X2.27310 Y5.36905
G01 X2.25336 Y5.33611
G01 X2.19936 Y5.26738
G01 X2.14511 Y5.21310
G01 X2.07637 Y5.15912
G01 X2.00020 Y5.11627
G01 X1.95252 Y5.09521
G01 X1.94945 Y4.98973
G01 X2.04340 Y4.94561
G01 X2.10723 Y4.90296
G01 X2.14511 Y4.87187
G01 X2.19936 Y4.81762
G01 X2.23363 Y4.77545
G01 X2.23025 Y4.76733
G01 X2.23363 Y4.77545
G01 X4.23106 Y4.77545
G01 X4.24147 Y4.75902
G01 X4.23106 Y4.77545
G01 X4.26580 Y4.86405
G01 X4.30807 Y4.93916
G01 X4.38706 Y5.03540
G01 X4.45247 Y5.09151
G01 X4.51627 Y5.13415
G01 X4.59316 Y5.17309
G01 X4.62933 Y5.18605
G01 X4.67505 Y5.19991
G01 X4.75031 Y5.21490
G01 X4.79786 Y5.21957
G01 X5.32374 Y5.22145
G01 X5.40967 Y5.21490
G01 X5.48493 Y5.19991
G01 X5.56682 Y5.17309
G01 X5.64370 Y5.13415
G01 X5.70751 Y5.09151
G01 X5.77291 Y5.03540
G01 X5.79869 Y5.00695
G01 X5.82902 Y4.96999
G01 X5.87164 Y4.90619
G01 X5.89417 Y4.86405
G01 X5.92353 Y4.79316
G01 X5.94675 Y4.71015
G01 X5.95897 Y4.58625
G01 X5.95897 Y3.67373
G01 X5.94675 Y3.54980
G01 X5.92353 Y3.46682
G01 X5.89417 Y3.39593
G01 X5.87164 Y3.35379
G01 X5.85191 Y3.32082
G01 X5.79869 Y3.25298
G01 X5.74444 Y3.19872
G01 X5.70751 Y3.16845
G01 X5.64370 Y3.12583
G01 X5.56682 Y3.08686
G01 X5.48493 Y3.06006
G01 X5.40967 Y3.04508
G01 X5.32374 Y3.03853
G01 X4.79786 Y3.04041
G01 X4.75031 Y3.04508
G01 X4.67505 Y3.06006
G01 X4.59316 Y3.08686
G01 X4.51627 Y3.12583
G01 X4.45247 Y3.16845
G01 X4.38706 Y3.22458
G01 X4.36128 Y3.25298
G01 X4.30807 Y3.32082
G01 X4.26580 Y3.39593
G01 X4.23106 Y3.48450
G01 X4.24150 Y3.50093
G01 X4.23106 Y3.48450
G01 X2.23363 Y3.48450
G01 X2.23058 Y3.49209
G01 X2.23363 Y3.48450
G01 X2.19936 Y3.44236
G01 X2.14511 Y3.38811
G01 X2.07637 Y3.33413
G01 X2.00020 Y3.29128
G01 X1.92931 Y3.26189
G01 X1.84513 Y3.23835
G01 X1.71999 Y3.22603
G01 X0.81999 Y3.22603
G01 X0.73284 Y3.23271
G01 X0.65758 Y3.24767
G01 X0.61067 Y3.26189
G01 X0.53978 Y3.29128
G01 X0.49657 Y3.31432
G01 X0.46360 Y3.33413
G01 X0.39487 Y3.38811
G01 X0.34061 Y3.44236
G01 X0.28661 Y3.51112
G01 X0.24376 Y3.58727
G01 X0.21440 Y3.65818
G01 X0.20018 Y3.70507
G01 X0.18522 Y3.78033
G01 X0.17851 Y3.86748
G01 X0.07302 Y3.86748
G01 X0.28400 Y3.86748
G01 X0.28400 Y4.39250
G01 X0.29019 Y4.46928
G01 X0.30112 Y4.52427
G01 X0.31534 Y4.57116
G01 X0.33680 Y4.62298
G01 X0.37435 Y4.69026
G01 X0.42215 Y4.75069
G01 X0.46180 Y4.79034
G01 X0.52222 Y4.83814
G01 X0.54628 Y4.85257
G01 X0.58951 Y4.87566
G01 X0.64130 Y4.89712
G01 X0.71542 Y4.91818
G01 X0.81999 Y4.92846
G01 X1.71999 Y4.92846
G01 X1.82456 Y4.91818
G01 X1.89868 Y4.89712
G01 X1.95047 Y4.87566
G01 X2.01775 Y4.83814
G01 X2.04031 Y4.82143
G01 X2.07818 Y4.79034
G01 X2.11783 Y4.75069
G01 X2.16563 Y4.69026
G01 X2.17780 Y4.66997
G01 X2.17310 Y4.65991
G01 X2.17780 Y4.66997
G01 X4.31378 Y4.66997
G01 X4.32719 Y4.65084
G01 X4.31378 Y4.66997
G01 X4.32351 Y4.71681
G01 X4.35884 Y4.81432
G01 X4.39577 Y4.88053
G01 X4.44282 Y4.94002
G01 X4.48246 Y4.97967
G01 X4.56601 Y5.04111
G01 X4.63352 Y5.07563
G01 X4.70568 Y5.09897
G01 X4.80819 Y5.11459
G01 X5.35178 Y5.11459
G01 X5.45429 Y5.09897
G01 X5.52646 Y5.07563
G01 X5.59397 Y5.04111
G01 X5.64058 Y5.00997
G01 X5.69831 Y4.96082
G01 X5.74746 Y4.90309
G01 X5.77863 Y4.85645
G01 X5.80113 Y4.81432
G01 X5.83646 Y4.71681
G01 X5.84330 Y4.68958
G01 X5.85208 Y4.61427
G01 X5.85346 Y3.67373
G01 X5.84330 Y3.57040
G01 X5.82259 Y3.49745
G01 X5.80113 Y3.44564
G01 X5.76420 Y3.37944
G01 X5.71716 Y3.31991
G01 X5.69831 Y3.29916
G01 X5.64058 Y3.25001
G01 X5.59397 Y3.21887
G01 X5.52646 Y3.18432
G01 X5.50004 Y3.17487
G01 X5.39933 Y3.15006
G01 X5.32374 Y3.14401
G01 X4.83624 Y3.14401
G01 X4.76065 Y3.15006
G01 X4.70568 Y3.16100
G01 X4.63352 Y3.18432
G01 X4.56601 Y3.21887
G01 X4.48246 Y3.28031
G01 X4.44282 Y3.31991
G01 X4.39577 Y3.37944
G01 X4.35884 Y3.44564
G01 X4.32351 Y3.54317
G01 X4.31378 Y3.58999
G01 X4.32887 Y3.61051
G01 X4.31378 Y3.58999
G01 X2.17780 Y3.58999
G01 X2.17213 Y3.60124
G01 X2.17780 Y3.58999
G01 X2.14892 Y3.54716
G01 X2.11783 Y3.50929
G01 X2.07818 Y3.46964
G01 X2.04031 Y3.43855
G01 X2.01775 Y3.42184
G01 X1.95047 Y3.38430
G01 X1.89868 Y3.36286
G01 X1.82456 Y3.34180
G01 X1.71999 Y3.33151
G01 X0.81999 Y3.33151
G01 X0.74318 Y3.33769
G01 X0.68819 Y3.34863
G01 X0.64130 Y3.36286
G01 X0.58951 Y3.38430
G01 X0.52222 Y3.42184
G01 X0.49967 Y3.43855
G01 X0.46180 Y3.46964
G01 X0.42215 Y3.50929
G01 X0.37435 Y3.56972
G01 X0.35992 Y3.59380
G01 X0.33680 Y3.63700
G01 X0.31534 Y3.68879
G01 X0.30112 Y3.73571
G01 X0.29019 Y3.79070
G01 X0.28539 Y3.83946
G01 X0.28400 Y3.86748
G01 X0.38951 Y3.86748
G01 X0.39037 Y4.41018
G01 X0.40208 Y4.49364
G01 X0.42984 Y4.57324
G01 X0.47259 Y4.64589
G01 X0.52870 Y4.70878
G01 X0.56660 Y4.73987
G01 X0.63924 Y4.78264
G01 X0.67193 Y4.79618
G01 X0.73599 Y4.81470
G01 X0.81999 Y4.82298
G01 X1.71999 Y4.82298
G01 X1.80398 Y4.81470
G01 X1.86804 Y4.79618
G01 X1.90073 Y4.78264
G01 X1.95915 Y4.75043
G01 X2.01127 Y4.70878
G01 X2.03629 Y4.68376
G01 X2.07792 Y4.63166
G01 X2.11430 Y4.56446
G01 X2.10741 Y4.55176
G01 X2.11430 Y4.56446
G01 X4.41201 Y4.56446
G01 X4.43365 Y4.53916
G01 X4.41201 Y4.56446
G01 X4.41287 Y4.60393
G01 X4.42016 Y4.66900
G01 X4.43832 Y4.73192
G01 X4.45186 Y4.76461
G01 X4.48351 Y4.82194
G01 X4.53626 Y4.88622
G01 X4.58633 Y4.92844
G01 X4.65788 Y4.97060
G01 X4.73629 Y4.99801
G01 X4.77098 Y5.00492
G01 X4.83624 Y5.01048
G01 X5.32374 Y5.01048
G01 X5.38899 Y5.00492
G01 X5.42369 Y4.99801
G01 X5.48610 Y4.97817
G01 X5.54424 Y4.94810
G01 X5.61061 Y4.89811
G01 X5.63562 Y4.87309
G01 X5.68559 Y4.80675
G01 X5.72165 Y4.73192
G01 X5.73982 Y4.66900
G01 X5.74797 Y4.58625
G01 X5.74797 Y3.67373
G01 X5.73982 Y3.59098
G01 X5.72165 Y3.52806
G01 X5.70812 Y3.49537
G01 X5.67647 Y3.43804
G01 X5.62371 Y3.37375
G01 X5.57365 Y3.33154
G01 X5.54424 Y3.31188
G01 X5.48610 Y3.28178
G01 X5.42369 Y3.26194
G01 X5.38899 Y3.25501
G01 X5.32374 Y3.24945
G01 X4.83624 Y3.24945
G01 X4.77098 Y3.25501
G01 X4.67388 Y3.28178
G01 X4.61574 Y3.31188
G01 X4.54937 Y3.36187
G01 X4.52435 Y3.38689
G01 X4.47439 Y3.45323
G01 X4.43832 Y3.52806
G01 X4.41754 Y3.60850
G01 X4.41201 Y3.69550
G01 X4.43654 Y3.72267
G01 X4.41201 Y3.69550
G01 X2.11376 Y3.69550
G01 X2.10546 Y3.70977
G01 X2.11376 Y3.69550
G01 X2.08704 Y3.64350
G01 X2.06738 Y3.61409
G01 X2.01127 Y3.55120
G01 X1.95915 Y3.50954
G01 X1.90073 Y3.47734
G01 X1.86804 Y3.46380
G01 X1.80398 Y3.44528
G01 X1.71999 Y3.43700
G01 X0.81999 Y3.43700
G01 X0.75352 Y3.44267
G01 X0.67193 Y3.46380
G01 X0.63924 Y3.47734
G01 X0.58082 Y3.50954
G01 X0.52870 Y3.55120
G01 X0.50368 Y3.57622
G01 X0.46205 Y3.62831
G01 X0.42984 Y3.68673
G01 X0.41631 Y3.71942
G01 X0.39517 Y3.80103
G01 X0.38951 Y3.86748
G01 X0.49500 Y3.86748
G01 X0.50302 Y3.79694
G01 X0.52288 Y3.73647
G01 X0.54976 Y3.68694
G01 X0.58524 Y3.64312
G01 X0.63353 Y3.60164
G01 X0.70254 Y3.56474
G01 X0.75659 Y3.54874
G01 X0.81999 Y3.54249
G01 X1.71999 Y3.54249
G01 X1.78338 Y3.54874
G01 X1.85102 Y3.57038
G01 X1.90055 Y3.59725
G01 X1.94434 Y3.63273
G01 X1.99400 Y3.69324
G01 X2.02273 Y3.75006
G01 X2.03794 Y3.80098
G01 X4.51749 Y3.80098
G01 X4.51749 Y3.67373
G01 X4.52252 Y3.61884
G01 X4.54490 Y3.54510
G01 X4.57121 Y3.49664
G01 X4.61084 Y3.44835
G01 X4.65323 Y3.41310
G01 X4.70761 Y3.38239
G01 X4.76692 Y3.36291
G01 X4.83624 Y3.35498
G01 X5.32374 Y3.35498
G01 X5.39306 Y3.36291
G01 X5.44571 Y3.37924
G01 X5.49450 Y3.40492
G01 X5.54914 Y3.44835
G01 X5.58876 Y3.49664
G01 X5.61508 Y3.54510
G01 X5.63636 Y3.61155
G01 X5.64248 Y3.67373
G01 X5.64248 Y4.58625
G01 X5.63636 Y4.64843
G01 X5.61823 Y4.70822
G01 X5.59255 Y4.75701
G01 X5.55407 Y4.80616
G01 X5.50675 Y4.84688
G01 X5.45236 Y4.87759
G01 X5.37865 Y4.89994
G01 X5.32374 Y4.90499
G01 X4.83624 Y4.90499
G01 X4.76692 Y4.89707
G01 X4.70761 Y4.87759
G01 X4.65323 Y4.84688
G01 X4.61084 Y4.81162
G01 X4.57121 Y4.76331
G01 X4.54490 Y4.71488
G01 X4.52252 Y4.64114
G01 X4.51749 Y4.58625
G01 X4.51749 Y4.45897
G01 X2.03794 Y4.45897
G01 X2.02024 Y4.51686
G01 X1.99400 Y4.56674
G01 X1.94434 Y4.62725
G01 X1.90055 Y4.66270
G01 X1.85102 Y4.68960
G01 X1.78338 Y4.71124
G01 X1.71999 Y4.71749
G01 X0.81999 Y4.71749
G01 X0.75659 Y4.71124
G01 X0.68895 Y4.68960
G01 X0.63942 Y4.66270
G01 X0.59563 Y4.62725
G01 X0.54976 Y4.57304
G01 X0.51725 Y4.50992
G01 X0.50015 Y4.44861
G01 X0.49500 Y4.39250
G01 X0.49500 Y3.86748
G01 X0.17851 Y3.86748
G01 X0.17851 Y4.39250
G01 X0.18522 Y4.47962
G01 X0.20018 Y4.55491
G01 X0.21440 Y4.60179
G01 X0.24376 Y4.67269
G01 X0.26688 Y4.71592
G01 X0.28661 Y4.74886
G01 X0.34061 Y4.81762
G01 X0.39487 Y4.87187
G01 X0.46360 Y4.92585
G01 X0.53978 Y4.96870
G01 X0.59055 Y4.98973
G01 X2.16710 Y4.98973
G01 X2.21204 Y4.95341
G01 X2.28092 Y4.88452
G01 X2.28387 Y4.88094
G01 X2.28097 Y4.87360
G01 X2.28387 Y4.88094
G01 X4.15915 Y4.88094
G01 X4.16837 Y4.86570
G01 X4.15915 Y4.88094
G01 X4.19529 Y4.95592
G01 X4.24942 Y5.03692
G01 X4.31249 Y5.11000
G01 X4.38554 Y5.17307
G01 X4.46656 Y5.22719
G01 X4.55277 Y5.27055
G01 X4.64442 Y5.30085
G01 X4.73997 Y5.31988
G01 X4.78752 Y5.32455
G01 X5.37246 Y5.32455
G01 X5.42000 Y5.31988
G01 X5.51556 Y5.30085
G01 X5.56128 Y5.28698
G01 X5.60720 Y5.27055
G01 X5.69341 Y5.22719
G01 X5.77444 Y5.17307
G01 X5.84749 Y5.11000
G01 X5.91055 Y5.03692
G01 X5.96468 Y4.95592
G01 X5.96468 Y3.30406
G01 X5.91055 Y3.22306
G01 X5.84749 Y3.14998
G01 X5.81137 Y3.11721
G01 X5.77444 Y3.08691
G01 X5.69341 Y3.03279
G01 X5.65127 Y3.01026
G01 X5.60720 Y2.98940
G01 X5.51556 Y2.95910
G01 X5.42000 Y2.94010
G01 X5.32374 Y2.93304
G01 X4.78752 Y2.93543
G01 X4.73997 Y2.94010
G01 X4.64442 Y2.95910
G01 X4.55277 Y2.98940
G01 X4.46656 Y3.03279
G01 X4.38554 Y3.08691
G01 X4.31249 Y3.14998
G01 X4.24942 Y3.22306
G01 X4.19529 Y3.30406
G01 X4.15917 Y3.37901
G01 X4.16839 Y3.39425
G01 X4.15917 Y3.37901
G01 X2.28384 Y3.37901
G01 X2.28161 Y3.38526
G01 X2.28384 Y3.37901
G01 X2.28092 Y3.37543
G01 X2.21204 Y3.30650
G01 X2.13497 Y3.24642
G01 X2.04993 Y3.19824
G01 X1.95991 Y3.16095
G01 X1.86571 Y3.13489
G01 X1.71999 Y3.12052
G01 X0.81999 Y3.12052
G01 X0.72250 Y3.12773
G01 X0.67427 Y3.13489
G01 X0.58006 Y3.16095
G01 X0.49004 Y3.19824
G01 X0.44684 Y3.22128
G01 X0.40500 Y3.24642
G01 X0.32794 Y3.30650
G01 X0.25905 Y3.37543
G01 X0.19888 Y3.45249
G01 X0.17384 Y3.49433
G01 X0.15075 Y3.53756
G01 X0.11346 Y3.62755
G01 X0.09924 Y3.67447
G01 X0.08024 Y3.76999
G01 X0.07541 Y3.81879
G01 X0.07302 Y4.39250
G01 X0.08024 Y4.48996
G01 X0.09924 Y4.58551
G01 X0.11346 Y4.63243
G01 X0.15075 Y4.72242
G01 X0.19888 Y4.80748
G01 X0.25905 Y4.88452
G01 X0.32794 Y4.95341
G01 X0.37287 Y4.98973
G01 X1.94945 Y4.98973
G01 X5.12628 Y7.42716
G01 X5.05196 Y7.42539
G01 X4.88612 Y7.44172
G01 X4.83116 Y7.45266
G01 X4.64528 Y7.51048
G01 X4.47294 Y7.60103
G01 X4.42633 Y7.63217
G01 X4.29753 Y7.73788
G01 X4.25788 Y7.77753
G01 X4.15216 Y7.90633
G01 X4.12102 Y7.95294
G01 X4.04249 Y8.09991
G01 X4.02102 Y8.15170
G01 X3.96583 Y8.33836
G01 X3.94401 Y8.55998
G01 X3.73304 Y8.55998
G01 X4.04950 Y8.55998
G01 X4.05036 Y9.87768
G01 X4.06931 Y10.06102
G01 X4.12196 Y10.23767
G01 X4.13550 Y10.27036
G01 X4.21406 Y10.41730
G01 X4.23372 Y10.44672
G01 X4.35132 Y10.58865
G01 X4.50748 Y10.71682
G01 X4.68564 Y10.81204
G01 X4.86176 Y10.86637
G01 X4.89646 Y10.87328
G01 X5.08000 Y10.89048
G01 X5.26351 Y10.87328
G01 X5.29821 Y10.86637
G01 X5.47433 Y10.81204
G01 X5.63730 Y10.72591
G01 X5.66671 Y10.70625
G01 X5.80865 Y10.58865
G01 X5.92625 Y10.44672
G01 X5.94591 Y10.41730
G01 X6.02447 Y10.27036
G01 X6.03801 Y10.23767
G01 X6.09067 Y10.06102
G01 X6.10961 Y9.87768
G01 X6.11048 Y8.55998
G01 X6.09067 Y8.35894
G01 X6.03801 Y8.18231
G01 X6.02447 Y8.14962
G01 X5.93682 Y7.98749
G01 X5.82054 Y7.84443
G01 X5.79552 Y7.81942
G01 X5.65249 Y7.70316
G01 X5.47433 Y7.60793
G01 X5.29821 Y7.55360
G01 X5.26351 Y7.54670
G01 X5.08000 Y7.52950
G01 X4.89646 Y7.54670
G01 X4.86176 Y7.55360
G01 X4.70230 Y7.60197
G01 X4.66961 Y7.61550
G01 X4.50748 Y7.70316
G01 X4.36446 Y7.81942
G01 X4.33944 Y7.84443
G01 X4.23372 Y7.97326
G01 X4.21406 Y8.00268
G01 X4.13550 Y8.14962
G01 X4.12196 Y8.18231
G01 X4.06931 Y8.35894
G01 X4.04950 Y8.55998
G01 X4.15498 Y8.55998
G01 X4.17276 Y8.37954
G01 X4.22293 Y8.21294
G01 X4.31089 Y8.04608
G01 X4.42097 Y7.91136
G01 X4.56608 Y7.79087
G01 X4.72600 Y7.70539
G01 X4.89240 Y7.65454
G01 X5.07263 Y7.63534
G01 X5.26758 Y7.65454
G01 X5.43397 Y7.70539
G01 X5.59389 Y7.79087
G01 X5.73900 Y7.91136
G01 X5.84909 Y8.04608
G01 X5.93143 Y8.19935
G01 X5.98721 Y8.37954
G01 X6.00499 Y8.55998
G01 X6.00499 Y9.85998
G01 X5.98543 Y10.04758
G01 X5.93458 Y10.21397
G01 X5.85287 Y10.36757
G01 X5.73405 Y10.51405
G01 X5.58757 Y10.63287
G01 X5.43397 Y10.71458
G01 X5.26758 Y10.76543
G01 X5.07263 Y10.78464
G01 X4.89240 Y10.76543
G01 X4.72600 Y10.71458
G01 X4.57241 Y10.63287
G01 X4.43136 Y10.51900
G01 X4.30710 Y10.36757
G01 X4.22539 Y10.21397
G01 X4.17454 Y10.04758
G01 X4.15534 Y9.86734
G01 X4.15498 Y8.55998
G01 X3.94401 Y8.55998
G01 X3.94401 Y9.85998
G01 X3.96171 Y10.05385
G01 X3.97266 Y10.10882
G01 X4.02102 Y10.26828
G01 X4.04249 Y10.32007
G01 X4.12102 Y10.46704
G01 X4.15216 Y10.51364
G01 X4.25788 Y10.64245
G01 X4.29753 Y10.68210
G01 X4.42633 Y10.78781
G01 X4.47294 Y10.81895
G01 X4.64528 Y10.90950
G01 X4.83116 Y10.96731
G01 X4.88612 Y10.97826
G01 X5.08000 Y10.99596
G01 X5.27385 Y10.97826
G01 X5.32882 Y10.96731
G01 X5.51470 Y10.90950
G01 X5.68703 Y10.81895
G01 X5.73364 Y10.78781
G01 X5.88325 Y10.66325
G01 X6.00781 Y10.51364
G01 X6.03895 Y10.46704
G01 X6.12950 Y10.29470
G01 X6.19415 Y10.08162
G01 X6.21459 Y9.88802
G01 X6.21596 Y8.55998
G01 X6.19415 Y8.33836
G01 X6.13895 Y8.15170
G01 X6.11749 Y8.09991
G01 X6.02452 Y7.92886
G01 X5.90210 Y7.77753
G01 X5.86245 Y7.73788
G01 X5.73364 Y7.63217
G01 X5.68703 Y7.60103
G01 X5.54007 Y7.52249
G01 X5.48828 Y7.50103
G01 X5.32882 Y7.45266
G01 X5.27385 Y7.44172
G01 X5.12628 Y7.42716
G01 X6.29722 Y8.32559
G01 X6.29722 Y10.43137
G01 X6.22501 Y10.56648
G01 X6.17088 Y10.64748
G01 X6.06519 Y10.77631
G01 X5.99630 Y10.84519
G01 X5.86748 Y10.95088
G01 X5.78648 Y11.00501
G01 X5.59544 Y11.10442
G01 X5.39008 Y11.16922
G01 X5.29453 Y11.18822
G01 X5.12869 Y11.20455
G01 X5.03128 Y11.20455
G01 X4.86545 Y11.18822
G01 X4.76989 Y11.16922
G01 X4.56453 Y11.10442
G01 X4.37350 Y11.00501
G01 X4.29250 Y10.95088
G01 X4.16367 Y10.84519
G01 X4.09478 Y10.77631
G01 X3.98910 Y10.64748
G01 X3.93497 Y10.56648
G01 X3.85641 Y10.41954
G01 X3.81912 Y10.32952
G01 X3.75892 Y10.12276
G01 X3.73543 Y9.90869
G01 X3.73304 Y8.55998
G01 X3.75176 Y8.34545
G01 X3.77076 Y8.24989
G01 X3.81912 Y8.09046
G01 X3.85641 Y8.00044
G01 X3.96004 Y7.81167
G01 X4.09478 Y7.64367
G01 X4.16367 Y7.57479
G01 X4.33167 Y7.44004
G01 X4.52044 Y7.33641
G01 X4.61046 Y7.29912
G01 X4.76989 Y7.25076
G01 X4.86545 Y7.23176
G01 X5.03128 Y7.21543
G01 X5.12869 Y7.21543
G01 X5.29453 Y7.23176
G01 X5.39008 Y7.25076
G01 X5.59544 Y7.31556
G01 X5.78648 Y7.41497
G01 X5.86748 Y7.46907
G01 X5.99630 Y7.57479
G01 X6.06519 Y7.64367
G01 X6.19994 Y7.81167
G01 X6.29722 Y7.98860
G01 X6.29722 Y10.09439
G01 X6.28828 Y10.13945
G01 X6.23989 Y10.29891
G01 X6.21053 Y10.36980
G01 X6.13199 Y10.51677
G01 X6.08935 Y10.58057
G01 X5.95785 Y10.73785
G01 X5.80057 Y10.86935
G01 X5.73677 Y10.91199
G01 X5.55508 Y11.00696
G01 X5.35945 Y11.06828
G01 X5.28419 Y11.08324
G01 X5.08000 Y11.10145
G01 X4.87578 Y11.08324
G01 X4.80052 Y11.06828
G01 X4.60489 Y11.00696
G01 X4.42321 Y10.91199
G01 X4.35940 Y10.86935
G01 X4.20213 Y10.73785
G01 X4.07063 Y10.58057
G01 X4.02798 Y10.51677
G01 X3.94945 Y10.36980
G01 X3.92008 Y10.29891
G01 X3.86237 Y10.10219
G01 X3.83852 Y9.85998
G01 X3.83852 Y8.55998
G01 X3.85674 Y8.35579
G01 X3.87170 Y8.28053
G01 X3.92008 Y8.12107
G01 X3.94945 Y8.05017
G01 X4.04774 Y7.87027
G01 X4.17634 Y7.71060
G01 X4.23060 Y7.65635
G01 X4.39026 Y7.52775
G01 X4.60489 Y7.41302
G01 X4.80052 Y7.35170
G01 X4.87578 Y7.33674
G01 X5.04162 Y7.32041
G01 X5.11835 Y7.32041
G01 X5.28419 Y7.33674
G01 X5.35945 Y7.35170
G01 X5.55508 Y7.41302
G01 X5.73677 Y7.50799
G01 X5.80057 Y7.55063
G01 X5.92938 Y7.65635
G01 X5.98363 Y7.71060
G01 X6.11223 Y7.87027
G01 X6.21053 Y8.05017
G01 X6.23989 Y8.12107
G01 X6.28828 Y8.28053
G01 X6.29722 Y8.32559
G01 X6.36293 Y5.11520
G01 X6.32747 Y5.09151
G01 X6.26207 Y5.03540
G01 X6.20596 Y4.96999
G01 X6.16331 Y4.90619
G01 X6.12437 Y4.82933
G01 X6.08823 Y4.71015
G01 X6.07601 Y4.58625
G01 X6.07601 Y3.67373
G01 X6.08823 Y3.54980
G01 X6.11142 Y3.46682
G01 X6.14081 Y3.39593
G01 X6.16331 Y3.35379
G01 X6.20596 Y3.28996
G01 X6.23626 Y3.25298
G01 X6.26207 Y3.22458
G01 X6.32747 Y3.16845
G01 X6.39127 Y3.12583
G01 X6.46816 Y3.08686
G01 X6.55005 Y3.06006
G01 X6.62531 Y3.04508
G01 X6.71124 Y3.03853
G01 X7.19874 Y3.03853
G01 X7.28467 Y3.04508
G01 X7.35993 Y3.06006
G01 X7.40565 Y3.07393
G01 X7.47654 Y3.10330
G01 X7.51870 Y3.12583
G01 X7.58251 Y3.16845
G01 X7.61944 Y3.19872
G01 X7.67370 Y3.25298
G01 X7.70402 Y3.28996
G01 X7.74664 Y3.35379
G01 X7.78561 Y3.43065
G01 X7.79854 Y3.46682
G01 X7.80392 Y3.48450
G01 X7.79455 Y3.49976
G01 X7.80392 Y3.48450
G01 X8.92835 Y3.48640
G01 X9.01591 Y3.49692
G01 X9.10082 Y3.52069
G01 X9.17174 Y3.55006
G01 X9.24860 Y3.59329
G01 X9.27946 Y3.61617
G01 X9.34641 Y3.67355
G01 X10.61641 Y4.94355
G01 X10.66315 Y4.99643
G01 X10.72010 Y5.08013
G01 X10.74798 Y5.13486
G01 X10.78220 Y5.23009
G01 X10.79152 Y5.26885
G01 X10.80425 Y5.36926
G01 X10.80546 Y6.21480
G01 X10.80204 Y6.21568
G01 X10.80546 Y6.21480
G01 X10.83782 Y6.26323
G01 X10.87478 Y6.33237
G01 X10.89122 Y6.36707
G01 X10.92690 Y6.47832
G01 X10.94189 Y6.55358
G01 X10.95146 Y6.66999
G01 X10.94189 Y6.78640
G01 X10.92690 Y6.86166
G01 X10.90414 Y6.93669
G01 X10.87478 Y7.00761
G01 X10.83782 Y7.07674
G01 X10.79518 Y7.14055
G01 X10.74544 Y7.20118
G01 X10.69116 Y7.25543
G01 X10.59970 Y7.32808
G01 X10.49759 Y7.38480
G01 X10.42670 Y7.41416
G01 X10.35167 Y7.43692
G01 X10.27638 Y7.45188
G01 X10.19835 Y7.45957
G01 X10.12162 Y7.45957
G01 X10.04359 Y7.45188
G01 X9.96831 Y7.43692
G01 X9.89327 Y7.41416
G01 X9.82238 Y7.38480
G01 X9.75322 Y7.34781
G01 X9.68941 Y7.30519
G01 X9.62881 Y7.25543
G01 X9.57453 Y7.20118
G01 X9.50191 Y7.10971
G01 X9.44519 Y7.00761
G01 X9.41583 Y6.93669
G01 X9.39307 Y6.86166
G01 X9.37809 Y6.78640
G01 X9.37042 Y6.70837
G01 X9.36851 Y6.66999
G01 X9.37809 Y6.55358
G01 X9.39307 Y6.47832
G01 X9.42876 Y6.36707
G01 X9.44519 Y6.33237
G01 X9.48215 Y6.26323
G01 X9.51451 Y6.21480
G01 X9.51758 Y6.21553
G01 X9.51451 Y6.21480
G01 X9.51451 Y5.66735
G01 X9.52254 Y5.66402
G01 X9.51451 Y5.66735
G01 X8.62261 Y4.77545
G01 X8.62594 Y4.76743
G01 X8.62261 Y4.77545
G01 X7.80392 Y4.77545
G01 X7.79267 Y4.75826
G01 X7.80392 Y4.77545
G01 X7.79854 Y4.79316
G01 X7.78561 Y4.82933
G01 X7.74664 Y4.90619
G01 X7.70402 Y4.96999
G01 X7.64791 Y5.03540
G01 X7.61944 Y5.06120
G01 X7.58251 Y5.09151
G01 X7.51870 Y5.13415
G01 X7.44182 Y5.17309
G01 X7.35993 Y5.19991
G01 X7.28467 Y5.21490
G01 X7.19874 Y5.22145
G01 X6.71124 Y5.22145
G01 X6.62531 Y5.21490
G01 X6.55005 Y5.19991
G01 X6.46816 Y5.17309
G01 X6.39127 Y5.13415
G01 X6.36293 Y5.11520
G01 X6.36557 Y4.98632
G01 X6.31782 Y4.94002
G01 X6.28749 Y4.90309
G01 X6.25635 Y4.85645
G01 X6.22183 Y4.78897
G01 X6.21238 Y4.76253
G01 X6.18757 Y4.66181
G01 X6.18150 Y4.58625
G01 X6.18150 Y3.67373
G01 X6.18757 Y3.59816
G01 X6.19851 Y3.54317
G01 X6.22183 Y3.47101
G01 X6.25635 Y3.40350
G01 X6.28749 Y3.35689
G01 X6.33666 Y3.29916
G01 X6.39440 Y3.25001
G01 X6.44101 Y3.21887
G01 X6.50852 Y3.18432
G01 X6.58066 Y3.16100
G01 X6.63562 Y3.15006
G01 X6.71124 Y3.14401
G01 X7.19874 Y3.14401
G01 X7.27433 Y3.15006
G01 X7.37504 Y3.17487
G01 X7.42683 Y3.19634
G01 X7.49305 Y3.23324
G01 X7.57331 Y3.29916
G01 X7.62246 Y3.35689
G01 X7.65363 Y3.40350
G01 X7.68815 Y3.47101
G01 X7.69760 Y3.49745
G01 X7.72079 Y3.58999
G01 X7.70560 Y3.61058
G01 X7.72079 Y3.58999
G01 X8.89000 Y3.58999
G01 X8.99533 Y3.60037
G01 X9.07021 Y3.62166
G01 X9.12200 Y3.64310
G01 X9.18997 Y3.68099
G01 X9.27181 Y3.74815
G01 X10.54181 Y5.01815
G01 X10.58294 Y5.06496
G01 X10.63013 Y5.13524
G01 X10.65052 Y5.17522
G01 X10.67963 Y5.25473
G01 X10.69597 Y5.33781
G01 X10.69909 Y5.37754
G01 X10.69998 Y6.24967
G01 X10.69660 Y6.25056
G01 X10.69998 Y6.24967
G01 X10.71364 Y6.26633
G01 X10.74478 Y6.31294
G01 X10.79376 Y6.40748
G01 X10.82596 Y6.50893
G01 X10.83691 Y6.56389
G01 X10.84458 Y6.64195
G01 X10.84458 Y6.69803
G01 X10.83691 Y6.77606
G01 X10.82596 Y6.83105
G01 X10.79376 Y6.93250
G01 X10.74478 Y7.02704
G01 X10.71364 Y7.07365
G01 X10.66389 Y7.13425
G01 X10.62426 Y7.17390
G01 X10.56363 Y7.22363
G01 X10.51702 Y7.25477
G01 X10.44786 Y7.29176
G01 X10.39607 Y7.31319
G01 X10.32104 Y7.33598
G01 X10.26605 Y7.34690
G01 X10.18802 Y7.35460
G01 X10.13196 Y7.35460
G01 X10.05393 Y7.34690
G01 X9.99894 Y7.33598
G01 X9.92391 Y7.31319
G01 X9.87212 Y7.29176
G01 X9.80295 Y7.25477
G01 X9.75634 Y7.22363
G01 X9.69571 Y7.17390
G01 X9.65609 Y7.13425
G01 X9.58962 Y7.05109
G01 X9.53823 Y6.95787
G01 X9.51677 Y6.90608
G01 X9.49401 Y6.83105
G01 X9.48306 Y6.77606
G01 X9.47400 Y6.66999
G01 X9.48306 Y6.56389
G01 X9.49401 Y6.50893
G01 X9.51677 Y6.43390
G01 X9.53823 Y6.38211
G01 X9.57519 Y6.31294
G01 X9.60633 Y6.26633
G01 X9.62000 Y6.24967
G01 X9.62342 Y6.25056
G01 X9.62000 Y6.24967
G01 X9.62000 Y5.62364
G01 X9.62805 Y5.62031
G01 X9.62000 Y5.62364
G01 X8.66633 Y4.66997
G01 X8.66965 Y4.66192
G01 X8.66633 Y4.66997
G01 X7.72079 Y4.66997
G01 X7.70730 Y4.65077
G01 X7.72079 Y4.66997
G01 X7.71147 Y4.71681
G01 X7.68815 Y4.78897
G01 X7.65363 Y4.85645
G01 X7.62246 Y4.90309
G01 X7.57331 Y4.96082
G01 X7.51558 Y5.00997
G01 X7.42683 Y5.06364
G01 X7.37504 Y5.08511
G01 X7.27433 Y5.10990
G01 X7.19874 Y5.11597
G01 X6.71124 Y5.11597
G01 X6.63562 Y5.10990
G01 X6.58066 Y5.09897
G01 X6.50852 Y5.07563
G01 X6.44101 Y5.04111
G01 X6.36557 Y4.98632
G01 X6.36867 Y4.83563
G01 X6.32686 Y4.76461
G01 X6.31332 Y4.73192
G01 X6.29255 Y4.65148
G01 X6.28787 Y4.60393
G01 X6.28701 Y3.67373
G01 X6.29255 Y3.60850
G01 X6.29945 Y3.57378
G01 X6.31929 Y3.51140
G01 X6.34939 Y3.45323
G01 X6.36902 Y3.42382
G01 X6.41126 Y3.37375
G01 X6.46133 Y3.33154
G01 X6.49074 Y3.31188
G01 X6.54888 Y3.28178
G01 X6.64599 Y3.25501
G01 X6.71124 Y3.24945
G01 X7.19874 Y3.24945
G01 X7.26399 Y3.25501
G01 X7.29869 Y3.26194
G01 X7.37710 Y3.28938
G01 X7.43443 Y3.32100
G01 X7.49871 Y3.37375
G01 X7.54093 Y3.42382
G01 X7.58312 Y3.49537
G01 X7.61053 Y3.57378
G01 X7.62211 Y3.65605
G01 X7.62297 Y3.69550
G01 X7.59844 Y3.72267
G01 X7.62297 Y3.69550
G01 X8.89000 Y3.69550
G01 X8.97476 Y3.70383
G01 X9.03958 Y3.72260
G01 X9.07227 Y3.73614
G01 X9.13138 Y3.76870
G01 X9.19721 Y3.82275
G01 X10.46721 Y5.09275
G01 X10.51936 Y5.15638
G01 X10.55306 Y5.21559
G01 X10.57707 Y5.27934
G01 X10.58636 Y5.31810
G01 X10.59447 Y5.39999
G01 X10.59447 Y6.28741
G01 X10.59063 Y6.28851
G01 X10.59447 Y6.28741
G01 X10.65174 Y6.36267
G01 X10.70226 Y6.46450
G01 X10.72932 Y6.55673
G01 X10.73960 Y6.65229
G01 X10.73960 Y6.68767
G01 X10.72932 Y6.78325
G01 X10.70226 Y6.87545
G01 X10.68873 Y6.90814
G01 X10.65174 Y6.97730
G01 X10.58235 Y7.06732
G01 X10.49673 Y7.14210
G01 X10.39815 Y7.19872
G01 X10.36546 Y7.21225
G01 X10.27323 Y7.23933
G01 X10.17768 Y7.24962
G01 X10.14230 Y7.24962
G01 X10.04674 Y7.23933
G01 X9.95451 Y7.21225
G01 X9.92182 Y7.19872
G01 X9.82325 Y7.14210
G01 X9.73762 Y7.06732
G01 X9.67732 Y6.99249
G01 X9.63125 Y6.90814
G01 X9.61771 Y6.87545
G01 X9.59066 Y6.78325
G01 X9.57951 Y6.66999
G01 X9.59066 Y6.55673
G01 X9.61771 Y6.46450
G01 X9.66823 Y6.36267
G01 X9.72551 Y6.28741
G01 X9.72942 Y6.28853
G01 X9.72551 Y6.28741
G01 X9.72551 Y5.57995
G01 X9.73353 Y5.57662
G01 X9.72551 Y5.57995
G01 X8.71002 Y4.56446
G01 X8.71334 Y4.55643
G01 X8.71002 Y4.56446
G01 X7.62297 Y4.56446
G01 X7.59844 Y4.53728
G01 X7.62297 Y4.56446
G01 X7.61743 Y4.65148
G01 X7.61053 Y4.68617
G01 X7.59069 Y4.74858
G01 X7.56059 Y4.80675
G01 X7.54093 Y4.83616
G01 X7.49871 Y4.88622
G01 X7.44865 Y4.92844
G01 X7.41924 Y4.94810
G01 X7.36110 Y4.97817
G01 X7.29869 Y4.99801
G01 X7.26399 Y5.00492
G01 X7.19874 Y5.01048
G01 X6.71124 Y5.01048
G01 X6.64599 Y5.00492
G01 X6.61129 Y4.99801
G01 X6.53285 Y4.97060
G01 X6.49074 Y4.94810
G01 X6.42437 Y4.89811
G01 X6.36867 Y4.83563
G01 X6.39247 Y3.67373
G01 X6.39752 Y3.61884
G01 X6.41424 Y3.55869
G01 X6.45058 Y3.49075
G01 X6.48584 Y3.44835
G01 X6.52823 Y3.41310
G01 X6.58924 Y3.37924
G01 X6.65632 Y3.36004
G01 X6.71124 Y3.35498
G01 X7.19874 Y3.35498
G01 X7.26806 Y3.36291
G01 X7.32737 Y3.38239
G01 X7.37583 Y3.40871
G01 X7.42412 Y3.44835
G01 X7.45940 Y3.49075
G01 X7.49008 Y3.54510
G01 X7.51243 Y3.61884
G01 X7.51749 Y3.67373
G01 X7.51749 Y3.80098
G01 X8.89000 Y3.80098
G01 X8.95416 Y3.80731
G01 X9.02254 Y3.82918
G01 X9.07278 Y3.85643
G01 X9.12261 Y3.89735
G01 X10.39261 Y5.16735
G01 X10.42251 Y5.20197
G01 X10.45025 Y5.24548
G01 X10.47448 Y5.30398
G01 X10.48563 Y5.35435
G01 X10.48898 Y5.39999
G01 X10.48898 Y6.32800
G01 X10.55873 Y6.41241
G01 X10.59884 Y6.48818
G01 X10.62408 Y6.57017
G01 X10.63462 Y6.67733
G01 X10.62408 Y6.76979
G01 X10.59884 Y6.85175
G01 X10.55055 Y6.93979
G01 X10.50082 Y7.00042
G01 X10.42980 Y7.06054
G01 X10.33483 Y7.11131
G01 X10.24537 Y7.13694
G01 X10.16000 Y7.14499
G01 X10.07461 Y7.13694
G01 X9.97821 Y7.10882
G01 X9.89018 Y7.06054
G01 X9.81916 Y7.00042
G01 X9.76942 Y6.93979
G01 X9.71867 Y6.84484
G01 X9.69305 Y6.75538
G01 X9.68499 Y6.66999
G01 X9.69589 Y6.57017
G01 X9.72114 Y6.48818
G01 X9.76942 Y6.40016
G01 X9.83099 Y6.32800
G01 X9.83099 Y5.53626
G01 X8.75370 Y4.45897
G01 X7.51749 Y4.45897
G01 X7.51749 Y4.58625
G01 X7.51243 Y4.64114
G01 X7.49323 Y4.70822
G01 X7.46755 Y4.75701
G01 X7.42412 Y4.81162
G01 X7.38175 Y4.84688
G01 X7.32071 Y4.88071
G01 X7.25363 Y4.89994
G01 X7.19874 Y4.90499
G01 X6.71124 Y4.90499
G01 X6.65632 Y4.89994
G01 X6.58261 Y4.87759
G01 X6.54045 Y4.85506
G01 X6.49127 Y4.81658
G01 X6.45058 Y4.76923
G01 X6.41988 Y4.71488
G01 X6.39862 Y4.64843
G01 X6.39285 Y4.59359
G01 X6.39247 Y3.67373
G01 X6.07601 Y3.67373
G01 X6.07022 Y3.62948
G01 X6.07022 Y3.30421
G01 X6.12442 Y3.22306
G01 X6.15472 Y3.18613
G01 X6.18747 Y3.14998
G01 X6.26054 Y3.08691
G01 X6.34154 Y3.03279
G01 X6.42777 Y2.98940
G01 X6.51942 Y2.95910
G01 X6.61497 Y2.94010
G01 X6.71124 Y2.93304
G01 X7.19874 Y2.93304
G01 X7.29501 Y2.94010
G01 X7.39056 Y2.95910
G01 X7.43628 Y2.97299
G01 X7.52627 Y3.01026
G01 X7.61025 Y3.05786
G01 X7.64941 Y3.08691
G01 X7.72249 Y3.14998
G01 X7.78556 Y3.22306
G01 X7.83968 Y3.30406
G01 X7.86221 Y3.34620
G01 X7.87773 Y3.37901
G01 X7.87062 Y3.39184
G01 X7.87773 Y3.37901
G01 X8.93869 Y3.38140
G01 X9.03648 Y3.39344
G01 X9.13145 Y3.41975
G01 X9.22144 Y3.45704
G01 X9.26536 Y3.48051
G01 X9.34636 Y3.53464
G01 X9.42099 Y3.59898
G01 X10.69099 Y4.86898
G01 X10.74336 Y4.92793
G01 X10.81004 Y5.02501
G01 X10.84544 Y5.09448
G01 X10.88479 Y5.20548
G01 X10.90628 Y5.32125
G01 X10.91095 Y5.39999
G01 X10.91095 Y6.18371
G01 X10.90773 Y6.18452
G01 X10.91095 Y6.18371
G01 X10.93086 Y6.21350
G01 X10.98867 Y6.32673
G01 X11.02787 Y6.44769
G01 X11.04687 Y6.54324
G01 X11.05456 Y6.62127
G01 X11.05456 Y6.71871
G01 X11.04687 Y6.79674
G01 X11.02787 Y6.89229
G01 X11.00511 Y6.96732
G01 X10.98867 Y7.01324
G01 X10.93086 Y7.12648
G01 X10.87674 Y7.20748
G01 X10.82698 Y7.26811
G01 X10.75809 Y7.33699
G01 X10.65832 Y7.41578
G01 X10.61649 Y7.44085
G01 X10.54732 Y7.47781
G01 X10.45733 Y7.51510
G01 X10.38228 Y7.53786
G01 X10.28675 Y7.55686
G01 X10.16000 Y7.56694
G01 X10.03323 Y7.55686
G01 X9.93770 Y7.53786
G01 X9.86264 Y7.51510
G01 X9.77265 Y7.47781
G01 X9.70349 Y7.44085
G01 X9.62249 Y7.38673
G01 X9.56188 Y7.33699
G01 X9.49300 Y7.26811
G01 X9.41421 Y7.16831
G01 X9.35215 Y7.05731
G01 X9.31487 Y6.96732
G01 X9.29211 Y6.89229
G01 X9.27311 Y6.79674
G01 X9.26302 Y6.66999
G01 X9.26541 Y6.62127
G01 X9.27311 Y6.54324
G01 X9.29211 Y6.44769
G01 X9.33130 Y6.32673
G01 X9.38911 Y6.21350
G01 X9.40902 Y6.18371
G01 X9.41227 Y6.18452
G01 X9.40902 Y6.18371
G01 X9.40902 Y5.71104
G01 X9.41705 Y5.70771
G01 X9.40902 Y5.71104
G01 X8.57893 Y4.88094
G01 X8.58225 Y4.87291
G01 X8.57893 Y4.88094
G01 X7.87773 Y4.88094
G01 X7.86983 Y4.86707
G01 X7.87773 Y4.88094
G01 X7.86221 Y4.91378
G01 X7.83968 Y4.95592
G01 X7.78556 Y5.03692
G01 X7.72249 Y5.11000
G01 X7.64941 Y5.17307
G01 X7.56841 Y5.22719
G01 X7.48220 Y5.27055
G01 X7.39056 Y5.30085
G01 X7.29501 Y5.31988
G01 X7.19874 Y5.32694
G01 X6.66252 Y5.32455
G01 X6.61497 Y5.31988
G01 X6.51942 Y5.30085
G01 X6.42777 Y5.27055
G01 X6.34154 Y5.22719
G01 X6.26054 Y5.17307
G01 X6.18747 Y5.11000
G01 X6.12442 Y5.03692
G01 X6.07022 Y4.95577
G01 X6.07022 Y3.62948
G04 P0 ( dwell for no time -- G64 should not smooth over this point )
G00 Z0.63500 ( retract )

G00 X6.69498 Y8.55998 ( rapid move to begin. )
G01 F30.00000
( Mill infeed pass 1/1 )
G01 Z-0.14000
G04 P0 ( dwell for no time -- G64 should not smooth over this point )
G01 F200.00000
G01 X6.69498 Y8.55998
G01 X6.69534 Y9.86734
G01 X6.71454 Y10.04758
G01 X6.76539 Y10.21397
G01 X6.84710 Y10.36757
G01 X6.96592 Y10.51405
G01 X7.10016 Y10.62472
G01 X7.27293 Y10.71705
G01 X7.43953 Y10.76721
G01 X7.62000 Y10.78499
G01 X7.79318 Y10.76830
G01 X7.96704 Y10.71705
G01 X8.13981 Y10.62472
G01 X8.27900 Y10.50861
G01 X8.38909 Y10.37389
G01 X8.47143 Y10.22063
G01 X8.52721 Y10.04044
G01 X8.54499 Y9.85998
G01 X8.54464 Y8.55264
G01 X8.52543 Y8.37240
G01 X8.47143 Y8.19935
G01 X8.39287 Y8.05241
G01 X8.26861 Y7.90097
G01 X8.13389 Y7.79087
G01 X7.98063 Y7.70854
G01 X7.79318 Y7.65167
G01 X7.61263 Y7.63534
G01 X7.43953 Y7.65277
G01 X7.25935 Y7.70854
G01 X7.10608 Y7.79087
G01 X6.97136 Y7.90097
G01 X6.85526 Y8.04017
G01 X6.76293 Y8.21294
G01 X6.71167 Y8.38680
G01 X6.69498 Y8.55998
G01 X6.58950 Y8.55998
G01 X6.60669 Y8.37646
G01 X6.61360 Y8.34177
G01 X6.66196 Y8.18231
G01 X6.67550 Y8.14962
G01 X6.76316 Y7.98749
G01 X6.87944 Y7.84443
G01 X6.90446 Y7.81942
G01 X7.04748 Y7.70316
G01 X7.20961 Y7.61550
G01 X7.24230 Y7.60197
G01 X7.40176 Y7.55360
G01 X7.43646 Y7.54670
G01 X7.62000 Y7.52950
G01 X7.80351 Y7.54670
G01 X7.83821 Y7.55360
G01 X7.99767 Y7.60197
G01 X8.03036 Y7.61550
G01 X8.19249 Y7.70316
G01 X8.33552 Y7.81942
G01 X8.36054 Y7.84443
G01 X8.46625 Y7.97326
G01 X8.48591 Y8.00268
G01 X8.56447 Y8.14962
G01 X8.57801 Y8.18231
G01 X8.62637 Y8.34177
G01 X8.63328 Y8.37646
G01 X8.64961 Y8.54230
G01 X8.65048 Y9.85998
G01 X8.63067 Y10.06102
G01 X8.57801 Y10.23767
G01 X8.56447 Y10.27036
G01 X8.47682 Y10.43249
G01 X8.36054 Y10.57552
G01 X8.33552 Y10.60054
G01 X8.20671 Y10.70625
G01 X8.17730 Y10.72591
G01 X8.03036 Y10.80447
G01 X7.99767 Y10.81801
G01 X7.83821 Y10.86637
G01 X7.80351 Y10.87328
G01 X7.62000 Y10.89048
G01 X7.43646 Y10.87328
G01 X7.40176 Y10.86637
G01 X7.24230 Y10.81801
G01 X7.20961 Y10.80447
G01 X7.06267 Y10.72591
G01 X7.03326 Y10.70625
G01 X6.89132 Y10.58865
G01 X6.77372 Y10.44672
G01 X6.75406 Y10.41730
G01 X6.66793 Y10.25434
G01 X6.61360 Y10.07821
G01 X6.60669 Y10.04352
G01 X6.58950 Y9.85998
G01 X6.58950 Y8.55998
G01 X6.48401 Y8.55998
G01 X6.50171 Y8.36612
G01 X6.51266 Y8.31113
G01 X6.57047 Y8.12526
G01 X6.66102 Y7.95294
G01 X6.69216 Y7.90633
G01 X6.79788 Y7.77753
G01 X6.83753 Y7.73788
G01 X6.98886 Y7.61545
G01 X7.15990 Y7.52249
G01 X7.21169 Y7.50103
G01 X7.37116 Y7.45266
G01 X7.42612 Y7.44172
G01 X7.62000 Y7.42401
G01 X7.81385 Y7.44172
G01 X7.86882 Y7.45266
G01 X8.02828 Y7.50103
G01 X8.08007 Y7.52249
G01 X8.25111 Y7.61545
G01 X8.40245 Y7.73788
G01 X8.44210 Y7.77753
G01 X8.54781 Y7.90633
G01 X8.57895 Y7.95294
G01 X8.65749 Y8.09991
G01 X8.67895 Y8.15170
G01 X8.72731 Y8.31113
G01 X8.73826 Y8.36612
G01 X8.75459 Y8.53196
G01 X8.75596 Y9.85998
G01 X8.73415 Y10.08162
G01 X8.67895 Y10.26828
G01 X8.65749 Y10.32007
G01 X8.57895 Y10.46704
G01 X8.54781 Y10.51364
G01 X8.42325 Y10.66325
G01 X8.27364 Y10.78781
G01 X8.22703 Y10.81895
G01 X8.08007 Y10.89749
G01 X8.02828 Y10.91895
G01 X7.86882 Y10.96731
G01 X7.81385 Y10.97826
G01 X7.62000 Y10.99596
G01 X7.42612 Y10.97826
G01 X7.37116 Y10.96731
G01 X7.21169 Y10.91895
G01 X7.15990 Y10.89749
G01 X7.01294 Y10.81895
G01 X6.96633 Y10.78781
G01 X6.81672 Y10.66325
G01 X6.69216 Y10.51364
G01 X6.66102 Y10.46704
G01 X6.57047 Y10.29470
G01 X6.51266 Y10.10882
G01 X6.50171 Y10.05385
G01 X6.48401 Y9.85998
G01 X6.48401 Y8.55998
G01 X6.40273 Y8.32571
G01 X6.41170 Y8.28053
G01 X6.46008 Y8.12107
G01 X6.48945 Y8.05017
G01 X6.58772 Y7.87027
G01 X6.71634 Y7.71060
G01 X6.77060 Y7.65635
G01 X6.93026 Y7.52775
G01 X7.11017 Y7.42945
G01 X7.18106 Y7.40009
G01 X7.34052 Y7.35170
G01 X7.41578 Y7.33674
G01 X7.58162 Y7.32041
G01 X7.65835 Y7.32041
G01 X7.82419 Y7.33674
G01 X7.89945 Y7.35170
G01 X8.05891 Y7.40009
G01 X8.12980 Y7.42945
G01 X8.27677 Y7.50799
G01 X8.34057 Y7.55063
G01 X8.46938 Y7.65635
G01 X8.52363 Y7.71060
G01 X8.65223 Y7.87027
G01 X8.76696 Y8.08490
G01 X8.82828 Y8.28053
G01 X8.84324 Y8.35579
G01 X8.86145 Y8.55998
G01 X8.86145 Y9.85998
G01 X8.83760 Y10.10219
G01 X8.77989 Y10.29891
G01 X8.75053 Y10.36980
G01 X8.67199 Y10.51677
G01 X8.62935 Y10.58057
G01 X8.52363 Y10.70938
G01 X8.46938 Y10.76363
G01 X8.34057 Y10.86935
G01 X8.27677 Y10.91199
G01 X8.09508 Y11.00696
G01 X7.89945 Y11.06828
G01 X7.82419 Y11.08324
G01 X7.62000 Y11.10145
G01 X7.41578 Y11.08324
G01 X7.34052 Y11.06828
G01 X7.18106 Y11.01989
G01 X7.11017 Y10.99053
G01 X6.96321 Y10.91199
G01 X6.89940 Y10.86935
G01 X6.74213 Y10.73785
G01 X6.61063 Y10.58057
G01 X6.56796 Y10.51677
G01 X6.48945 Y10.36980
G01 X6.46008 Y10.29891
G01 X6.41170 Y10.13945
G01 X6.40273 Y10.09426
G01 X6.29722 Y10.09439
G01 X6.40273 Y10.09426
G01 X6.40273 Y10.43132
G01 X6.47494 Y10.56648
G01 X6.52907 Y10.64748
G01 X6.66755 Y10.81242
G01 X6.83250 Y10.95088
G01 X6.91350 Y11.00501
G01 X7.06044 Y11.08357
G01 X7.15046 Y11.12083
G01 X7.30989 Y11.16922
G01 X7.40545 Y11.18822
G01 X7.62000 Y11.20694
G01 X7.83453 Y11.18822
G01 X7.93008 Y11.16922
G01 X8.13544 Y11.10442
G01 X8.32648 Y11.00501
G01 X8.40748 Y10.95088
G01 X8.53631 Y10.84519
G01 X8.60519 Y10.77631
G01 X8.71088 Y10.64748
G01 X8.76501 Y10.56648
G01 X8.84357 Y10.41954
G01 X8.88086 Y10.32952
G01 X8.92922 Y10.17008
G01 X8.94822 Y10.07453
G01 X8.96694 Y9.85998
G01 X8.96694 Y8.55998
G01 X8.94822 Y8.34545
G01 X8.92922 Y8.24989
G01 X8.86442 Y8.04454
G01 X8.76501 Y7.85348
G01 X8.71088 Y7.77248
G01 X8.60519 Y7.64367
G01 X8.53631 Y7.57479
G01 X8.36831 Y7.44004
G01 X8.17954 Y7.33641
G01 X8.08952 Y7.29912
G01 X7.93008 Y7.25076
G01 X7.83453 Y7.23176
G01 X7.62000 Y7.21304
G01 X7.40545 Y7.23176
G01 X7.30989 Y7.25076
G01 X7.15046 Y7.29912
G01 X7.06044 Y7.33641
G01 X6.91350 Y7.41497
G01 X6.83250 Y7.46907
G01 X6.70367 Y7.57479
G01 X6.63478 Y7.64367
G01 X6.50004 Y7.81167
G01 X6.40273 Y7.98863
G01 X6.40273 Y10.09426
G01 X6.29722 Y13.39632
G01 X6.23989 Y13.20107
G01 X6.21053 Y13.13015
G01 X6.11223 Y12.95027
G01 X5.98363 Y12.79060
G01 X5.92938 Y12.73632
G01 X5.80057 Y12.63063
G01 X5.73677 Y12.58799
G01 X5.55508 Y12.49302
G01 X5.35945 Y12.43170
G01 X5.28419 Y12.41674
G01 X5.11835 Y12.40041
G01 X5.04162 Y12.40041
G01 X4.87578 Y12.41674
G01 X4.80052 Y12.43170
G01 X4.60489 Y12.49302
G01 X4.42321 Y12.58799
G01 X4.35940 Y12.63063
G01 X4.23060 Y12.73632
G01 X4.17634 Y12.79060
G01 X4.04774 Y12.95027
G01 X3.94945 Y13.13015
G01 X3.92008 Y13.20107
G01 X3.86237 Y13.39779
G01 X3.84040 Y13.60162
G01 X3.83852 Y14.93998
G01 X3.86237 Y15.18219
G01 X3.92008 Y15.37891
G01 X3.94945 Y15.44980
G01 X4.04774 Y15.62971
G01 X4.17634 Y15.78938
G01 X4.23060 Y15.84363
G01 X4.35940 Y15.94935
G01 X4.42321 Y15.99199
G01 X4.60489 Y16.08696
G01 X4.80052 Y16.14828
G01 X4.87578 Y16.16324
G01 X5.08000 Y16.18145
G01 X5.28419 Y16.16324
G01 X5.35945 Y16.14828
G01 X5.51891 Y16.09989
G01 X5.58980 Y16.07053
G01 X5.73677 Y15.99199
G01 X5.80057 Y15.94935
G01 X5.95785 Y15.81785
G01 X6.08935 Y15.66057
G01 X6.13199 Y15.59677
G01 X6.21053 Y15.44980
G01 X6.23989 Y15.37891
G01 X6.28828 Y15.21945
G01 X6.29722 Y15.17439
G01 X6.29722 Y15.51137
G01 X6.22501 Y15.64648
G01 X6.17088 Y15.72748
G01 X6.03242 Y15.89242
G01 X5.86748 Y16.03088
G01 X5.78648 Y16.08501
G01 X5.63954 Y16.16357
G01 X5.54952 Y16.20083
G01 X5.39008 Y16.24922
G01 X5.29453 Y16.26822
G01 X5.08000 Y16.28694
G01 X4.86545 Y16.26822
G01 X4.76989 Y16.24922
G01 X4.56453 Y16.18442
G01 X4.33167 Y16.05994
G01 X4.16367 Y15.92519
G01 X4.09478 Y15.85631
G01 X3.98910 Y15.72748
G01 X3.93497 Y15.64648
G01 X3.83555 Y15.45544
G01 X3.75892 Y15.20276
G01 X3.73304 Y14.93998
G01 X3.73304 Y13.63998
G01 X3.75892 Y13.37721
G01 X3.81912 Y13.17046
G01 X3.85641 Y13.08044
G01 X3.93497 Y12.93348
G01 X3.98910 Y12.85248
G01 X4.09478 Y12.72367
G01 X4.16367 Y12.65479
G01 X4.29250 Y12.54907
G01 X4.37350 Y12.49497
G01 X4.56453 Y12.39556
G01 X4.76989 Y12.33076
G01 X4.86545 Y12.31176
G01 X5.08000 Y12.29304
G01 X5.29453 Y12.31176
G01 X5.39008 Y12.33076
G01 X5.54952 Y12.37912
G01 X5.63954 Y12.41641
G01 X5.78648 Y12.49497
G01 X5.86748 Y12.54907
G01 X5.99630 Y12.65479
G01 X6.06519 Y12.72367
G01 X6.19994 Y12.89167
G01 X6.29722 Y13.06858
G01 X6.29722 Y15.17439
G01 X6.07022 Y18.86948
G01 X6.07022 Y20.19577
G01 X6.12442 Y20.27692
G01 X6.18747 Y20.35000
G01 X6.29973 Y20.44212
G01 X6.42777 Y20.51055
G01 X6.51942 Y20.54085
G01 X6.61497 Y20.55988
G01 X6.71124 Y20.56694
G01 X7.24746 Y20.56455
G01 X7.34324 Y20.55271
G01 X7.48220 Y20.51055
G01 X7.56841 Y20.46719
G01 X7.64941 Y20.41307
G01 X7.72249 Y20.35000
G01 X7.78556 Y20.27692
G01 X7.83968 Y20.19592
G01 X7.86221 Y20.15378
G01 X7.87773 Y20.12094
G01 X7.86986 Y20.10715
G01 X7.87773 Y20.12094
G01 X8.93869 Y20.11855
G01 X8.98825 Y20.11365
G01 X9.08380 Y20.09465
G01 X9.13145 Y20.08020
G01 X9.22144 Y20.04291
G01 X9.30720 Y19.99437
G01 X9.42099 Y19.90098
G01 X10.69099 Y18.63098
G01 X10.74336 Y18.57202
G01 X10.81004 Y18.47494
G01 X10.84544 Y18.40547
G01 X10.88479 Y18.29448
G01 X10.90628 Y18.17870
G01 X10.91095 Y18.09996
G01 X10.91095 Y17.31627
G01 X10.90816 Y17.31561
G01 X10.91095 Y17.31627
G01 X10.93086 Y17.28648
G01 X10.96782 Y17.21731
G01 X11.00511 Y17.12732
G01 X11.02787 Y17.05229
G01 X11.04687 Y16.95674
G01 X11.05695 Y16.82999
G01 X11.03970 Y16.65501
G01 X11.00511 Y16.53266
G01 X10.96782 Y16.44264
G01 X10.93086 Y16.37350
G01 X10.87674 Y16.29250
G01 X10.82698 Y16.23187
G01 X10.79424 Y16.19575
G01 X10.69749 Y16.11325
G01 X10.61649 Y16.05912
G01 X10.50323 Y16.00131
G01 X10.38228 Y15.96212
G01 X10.28675 Y15.94310
G01 X10.20869 Y15.93543
G01 X10.11128 Y15.93543
G01 X10.03323 Y15.94310
G01 X9.93770 Y15.96212
G01 X9.86264 Y15.98488
G01 X9.81674 Y16.00131
G01 X9.70349 Y16.05912
G01 X9.62249 Y16.11325
G01 X9.56188 Y16.16299
G01 X9.49300 Y16.23187
G01 X9.44324 Y16.29250
G01 X9.38911 Y16.37350
G01 X9.35215 Y16.44264
G01 X9.31487 Y16.53266
G01 X9.28027 Y16.65501
G01 X9.26302 Y16.82999
G01 X9.28027 Y17.00497
G01 X9.31487 Y17.12732
G01 X9.35215 Y17.21731
G01 X9.38911 Y17.28648
G01 X9.40902 Y17.31970
G01 X9.41240 Y17.31881
G01 X9.40902 Y17.31970
G01 X9.40902 Y17.78892
G01 X9.41705 Y17.79224
G01 X9.40902 Y17.78892
G01 X8.57893 Y18.61901
G01 X8.58225 Y18.62704
G01 X8.57893 Y18.61901
G01 X7.87773 Y18.61901
G01 X7.87057 Y18.63207
G01 X7.87773 Y18.61901
G01 X7.86221 Y18.58620
G01 X7.83968 Y18.54406
G01 X7.78556 Y18.46306
G01 X7.72249 Y18.38998
G01 X7.61025 Y18.29786
G01 X7.48220 Y18.22940
G01 X7.39056 Y18.19910
G01 X7.29501 Y18.18010
G01 X7.19874 Y18.17304
G01 X6.66252 Y18.17543
G01 X6.56674 Y18.18726
G01 X6.47370 Y18.21299
G01 X6.42777 Y18.22940
G01 X6.34154 Y18.27279
G01 X6.26054 Y18.32691
G01 X6.22361 Y18.35721
G01 X6.18747 Y18.38998
G01 X6.12442 Y18.46306
G01 X6.07022 Y18.54421
G01 X6.07022 Y18.86948
G01 X6.07601 Y18.91373
G01 X6.08823 Y18.78980
G01 X6.12437 Y18.67065
G01 X6.16331 Y18.59379
G01 X6.20596 Y18.52996
G01 X6.26207 Y18.46458
G01 X6.32747 Y18.40845
G01 X6.39127 Y18.36583
G01 X6.46816 Y18.32686
G01 X6.58731 Y18.29072
G01 X6.67286 Y18.28041
G01 X7.23712 Y18.28041
G01 X7.32267 Y18.29072
G01 X7.44182 Y18.32686
G01 X7.55165 Y18.38556
G01 X7.61944 Y18.43877
G01 X7.67370 Y18.49303
G01 X7.70402 Y18.52996
G01 X7.74664 Y18.59379
G01 X7.76917 Y18.63593
G01 X7.78561 Y18.67065
G01 X7.80392 Y18.72450
G01 X7.79267 Y18.74169
G01 X7.80392 Y18.72450
G01 X8.62261 Y18.72450
G01 X8.62594 Y18.73253
G01 X8.62261 Y18.72450
G01 X9.51451 Y17.83260
G01 X9.52254 Y17.83593
G01 X9.51451 Y17.83260
G01 X9.51451 Y17.28671
G01 X9.51753 Y17.28597
G01 X9.51451 Y17.28671
G01 X9.50191 Y17.26971
G01 X9.48215 Y17.23674
G01 X9.44519 Y17.16761
G01 X9.41583 Y17.09669
G01 X9.38373 Y16.98440
G01 X9.36851 Y16.82999
G01 X9.38373 Y16.67558
G01 X9.41583 Y16.56329
G01 X9.44519 Y16.49237
G01 X9.48215 Y16.42323
G01 X9.52480 Y16.35940
G01 X9.60034 Y16.27033
G01 X9.68941 Y16.19479
G01 X9.75322 Y16.15216
G01 X9.85710 Y16.09877
G01 X9.96831 Y16.06306
G01 X10.04359 Y16.04810
G01 X10.12162 Y16.04040
G01 X10.19835 Y16.04040
G01 X10.27638 Y16.04810
G01 X10.35167 Y16.06306
G01 X10.46287 Y16.09877
G01 X10.56676 Y16.15216
G01 X10.63056 Y16.19479
G01 X10.71964 Y16.27033
G01 X10.79518 Y16.35940
G01 X10.83782 Y16.42323
G01 X10.87478 Y16.49237
G01 X10.90414 Y16.56329
G01 X10.92690 Y16.63832
G01 X10.94189 Y16.71358
G01 X10.95146 Y16.82999
G01 X10.94189 Y16.94640
G01 X10.92690 Y17.02166
G01 X10.90414 Y17.09669
G01 X10.87478 Y17.16761
G01 X10.83782 Y17.23674
G01 X10.80546 Y17.28518
G01 X10.80204 Y17.28429
G01 X10.80546 Y17.28518
G01 X10.80546 Y18.09996
G01 X10.80112 Y18.17042
G01 X10.79152 Y18.23110
G01 X10.76322 Y18.32828
G01 X10.74798 Y18.36509
G01 X10.69927 Y18.45381
G01 X10.66315 Y18.50352
G01 X10.61641 Y18.55640
G01 X9.34641 Y19.82640
G01 X9.24860 Y19.90667
G01 X9.17174 Y19.94990
G01 X9.10082 Y19.97926
G01 X9.05317 Y19.99371
G01 X8.97791 Y20.00867
G01 X8.89000 Y20.01545
G01 X7.80392 Y20.01545
G01 X7.79455 Y20.00019
G01 X7.80392 Y20.01545
G01 X7.78561 Y20.06933
G01 X7.76917 Y20.10405
G01 X7.74664 Y20.14619
G01 X7.70402 Y20.20999
G01 X7.64791 Y20.27540
G01 X7.58251 Y20.33151
G01 X7.51870 Y20.37415
G01 X7.44182 Y20.41309
G01 X7.40565 Y20.42604
G01 X7.32267 Y20.44926
G01 X7.19874 Y20.46145
G01 X6.67286 Y20.45957
G01 X6.62531 Y20.45490
G01 X6.55005 Y20.43991
G01 X6.50433 Y20.42604
G01 X6.43341 Y20.39668
G01 X6.35833 Y20.35439
G01 X6.26207 Y20.27540
G01 X6.20596 Y20.20999
G01 X6.16331 Y20.14619
G01 X6.12437 Y20.06933
G01 X6.09755 Y19.98744
G01 X6.08259 Y19.91215
G01 X6.07601 Y19.82625
G01 X6.07601 Y18.91373
G01 X6.18150 Y18.91373
G01 X6.18757 Y18.83816
G01 X6.19851 Y18.78317
G01 X6.22183 Y18.71101
G01 X6.25635 Y18.64350
G01 X6.28749 Y18.59689
G01 X6.33666 Y18.53916
G01 X6.35747 Y18.52031
G01 X6.44101 Y18.45887
G01 X6.50852 Y18.42432
G01 X6.60789 Y18.39420
G01 X6.71124 Y18.38401
G01 X7.22676 Y18.38538
G01 X7.30209 Y18.39420
G01 X7.40146 Y18.42432
G01 X7.46897 Y18.45887
G01 X7.51558 Y18.49001
G01 X7.57331 Y18.53916
G01 X7.62246 Y18.59689
G01 X7.65363 Y18.64350
G01 X7.68815 Y18.71101
G01 X7.69760 Y18.73745
G01 X7.72079 Y18.82999
G01 X7.70560 Y18.85058
G01 X7.72079 Y18.82999
G01 X8.66633 Y18.82999
G01 X8.66965 Y18.83804
G01 X8.66633 Y18.82999
G01 X9.62000 Y17.87632
G01 X9.62805 Y17.87964
G01 X9.62000 Y17.87632
G01 X9.62000 Y17.25031
G01 X9.62342 Y17.24942
G01 X9.62000 Y17.25031
G01 X9.60633 Y17.23365
G01 X9.57519 Y17.18704
G01 X9.53823 Y17.11787
G01 X9.51677 Y17.06608
G01 X9.49401 Y16.99105
G01 X9.48306 Y16.93606
G01 X9.47400 Y16.82999
G01 X9.48306 Y16.72392
G01 X9.49401 Y16.66893
G01 X9.51677 Y16.59390
G01 X9.53823 Y16.54211
G01 X9.57519 Y16.47294
G01 X9.60633 Y16.42633
G01 X9.65609 Y16.36573
G01 X9.69571 Y16.32608
G01 X9.77887 Y16.25961
G01 X9.87212 Y16.20822
G01 X9.92391 Y16.18676
G01 X9.99894 Y16.16400
G01 X10.05393 Y16.15308
G01 X10.13196 Y16.14538
G01 X10.18802 Y16.14538
G01 X10.26605 Y16.15308
G01 X10.32104 Y16.16400
G01 X10.42251 Y16.19623
G01 X10.51702 Y16.24518
G01 X10.56363 Y16.27635
G01 X10.64504 Y16.34493
G01 X10.71364 Y16.42633
G01 X10.74478 Y16.47294
G01 X10.78174 Y16.54211
G01 X10.80320 Y16.59390
G01 X10.82596 Y16.66893
G01 X10.83691 Y16.72392
G01 X10.84598 Y16.82999
G01 X10.83691 Y16.93606
G01 X10.82596 Y16.99105
G01 X10.80320 Y17.06608
G01 X10.78174 Y17.11787
G01 X10.74478 Y17.18704
G01 X10.71364 Y17.23365
G01 X10.69998 Y17.25031
G01 X10.69655 Y17.24942
G01 X10.69998 Y17.25031
G01 X10.69998 Y18.09996
G01 X10.68893 Y18.20647
G01 X10.66576 Y18.28790
G01 X10.65052 Y18.32473
G01 X10.60933 Y18.39869
G01 X10.54181 Y18.48180
G01 X9.27181 Y19.75180
G01 X9.18997 Y19.81896
G01 X9.12200 Y19.85686
G01 X9.07021 Y19.87829
G01 X9.02256 Y19.89277
G01 X8.96757 Y19.90369
G01 X8.89000 Y19.90997
G01 X7.72079 Y19.90997
G01 X7.70562 Y19.88942
G01 X7.72079 Y19.90997
G01 X7.69760 Y20.00253
G01 X7.68815 Y20.02897
G01 X7.65363 Y20.09645
G01 X7.62246 Y20.14309
G01 X7.57331 Y20.20082
G01 X7.51558 Y20.24997
G01 X7.46897 Y20.28111
G01 X7.40146 Y20.31563
G01 X7.30209 Y20.34578
G01 X7.19874 Y20.35597
G01 X6.71124 Y20.35597
G01 X6.63562 Y20.34990
G01 X6.58066 Y20.33897
G01 X6.50852 Y20.31563
G01 X6.44101 Y20.28111
G01 X6.39440 Y20.24997
G01 X6.33666 Y20.20082
G01 X6.28749 Y20.14309
G01 X6.25635 Y20.09645
G01 X6.22183 Y20.02897
G01 X6.19851 Y19.95681
G01 X6.18757 Y19.90181
G01 X6.18150 Y19.82625
G01 X6.18150 Y18.91373
G01 X6.28701 Y18.91373
G01 X6.29255 Y18.84850
G01 X6.31332 Y18.76806
G01 X6.32686 Y18.73537
G01 X6.36902 Y18.66382
G01 X6.41126 Y18.61375
G01 X6.46133 Y18.57154
G01 X6.49074 Y18.55188
G01 X6.54888 Y18.52178
G01 X6.62846 Y18.49765
G01 X6.69353 Y18.49036
G01 X7.19874 Y18.48950
G01 X7.28149 Y18.49765
G01 X7.36110 Y18.52178
G01 X7.43443 Y18.56100
G01 X7.48558 Y18.60187
G01 X7.51060 Y18.62689
G01 X7.54093 Y18.66382
G01 X7.58312 Y18.73537
G01 X7.61053 Y18.81378
G01 X7.61743 Y18.84850
G01 X7.62297 Y18.93550
G01 X7.59844 Y18.96267
G01 X7.62297 Y18.93550
G01 X8.71002 Y18.93550
G01 X8.71334 Y18.94352
G01 X8.71002 Y18.93550
G01 X9.72551 Y17.92000
G01 X9.73353 Y17.92333
G01 X9.72551 Y17.92000
G01 X9.72551 Y17.21256
G01 X9.72942 Y17.21145
G01 X9.72551 Y17.21256
G01 X9.67732 Y17.15249
G01 X9.63125 Y17.06814
G01 X9.61771 Y17.03545
G01 X9.59066 Y16.94325
G01 X9.57951 Y16.82999
G01 X9.58804 Y16.73426
G01 X9.59495 Y16.69956
G01 X9.63125 Y16.59184
G01 X9.67732 Y16.50749
G01 X9.74951 Y16.41953
G01 X9.82325 Y16.35788
G01 X9.92182 Y16.30126
G01 X9.95451 Y16.28772
G01 X10.06427 Y16.25806
G01 X10.14230 Y16.25036
G01 X10.25571 Y16.25806
G01 X10.36546 Y16.28772
G01 X10.39815 Y16.30126
G01 X10.49673 Y16.35788
G01 X10.58235 Y16.43263
G01 X10.64265 Y16.50749
G01 X10.68873 Y16.59184
G01 X10.70226 Y16.62453
G01 X10.73193 Y16.73426
G01 X10.74047 Y16.82999
G01 X10.73193 Y16.92572
G01 X10.72502 Y16.96042
G01 X10.69630 Y17.05214
G01 X10.65174 Y17.13730
G01 X10.59447 Y17.21256
G01 X10.59028 Y17.21134
G01 X10.59447 Y17.21256
G01 X10.59447 Y18.09996
G01 X10.58636 Y18.18185
G01 X10.56830 Y18.24754
G01 X10.55306 Y18.28437
G01 X10.51936 Y18.34358
G01 X10.46721 Y18.40720
G01 X9.19721 Y19.67720
G01 X9.13138 Y19.73125
G01 X9.07227 Y19.76382
G01 X8.99193 Y19.79181
G01 X8.95723 Y19.79872
G01 X8.89000 Y19.80446
G01 X7.62297 Y19.80446
G01 X7.59844 Y19.77730
G01 X7.62297 Y19.80446
G01 X7.61743 Y19.89148
G01 X7.61053 Y19.92617
G01 X7.59069 Y19.98858
G01 X7.56059 Y20.04675
G01 X7.54093 Y20.07616
G01 X7.48558 Y20.13811
G01 X7.41924 Y20.18810
G01 X7.36110 Y20.21817
G01 X7.28149 Y20.24233
G01 X7.19874 Y20.25048
G01 X6.71124 Y20.25048
G01 X6.64599 Y20.24492
G01 X6.61129 Y20.23801
G01 X6.54888 Y20.21817
G01 X6.49074 Y20.18810
G01 X6.46133 Y20.16844
G01 X6.41126 Y20.12622
G01 X6.36902 Y20.07616
G01 X6.34939 Y20.04675
G01 X6.31929 Y19.98858
G01 X6.29945 Y19.92617
G01 X6.29255 Y19.89148
G01 X6.28701 Y19.82625
G01 X6.28701 Y18.91373
G01 X6.39247 Y18.91373
G01 X6.39862 Y18.85155
G01 X6.41424 Y18.79869
G01 X6.45058 Y18.73075
G01 X6.48584 Y18.68835
G01 X6.52823 Y18.65310
G01 X6.59615 Y18.61678
G01 X6.64906 Y18.60111
G01 X6.71124 Y18.59498
G01 X7.20608 Y18.59534
G01 X7.26092 Y18.60111
G01 X7.32737 Y18.62239
G01 X7.37583 Y18.64871
G01 X7.41868 Y18.68340
G01 X7.45940 Y18.73075
G01 X7.49323 Y18.79176
G01 X7.51136 Y18.85155
G01 X7.51749 Y18.91373
G01 X7.51749 Y19.04098
G01 X8.75370 Y19.04098
G01 X9.83099 Y17.96369
G01 X9.83099 Y17.17197
G01 X9.76503 Y17.09390
G01 X9.72429 Y17.01841
G01 X9.69411 Y16.92265
G01 X9.68535 Y16.83733
G01 X9.69589 Y16.73017
G01 X9.72429 Y16.64155
G01 X9.76125 Y16.57241
G01 X9.82411 Y16.49410
G01 X9.89018 Y16.43941
G01 X9.98515 Y16.38866
G01 X10.07461 Y16.36304
G01 X10.16734 Y16.35534
G01 X10.25980 Y16.36591
G01 X10.34176 Y16.39115
G01 X10.42980 Y16.43941
G01 X10.49586 Y16.49410
G01 X10.55055 Y16.56019
G01 X10.60130 Y16.65514
G01 X10.62586 Y16.73733
G01 X10.63462 Y16.82265
G01 X10.62693 Y16.91538
G01 X10.59884 Y17.01175
G01 X10.55055 Y17.09979
G01 X10.48898 Y17.17197
G01 X10.48898 Y18.09996
G01 X10.48380 Y18.15722
G01 X10.47085 Y18.20718
G01 X10.45561 Y18.24398
G01 X10.42942 Y18.28846
G01 X10.39261 Y18.33260
G01 X9.12261 Y19.60260
G01 X9.07278 Y19.64352
G01 X9.02254 Y19.67078
G01 X8.96132 Y19.69087
G01 X8.89000 Y19.69897
G01 X7.51749 Y19.69897
G01 X7.51713 Y19.83359
G01 X7.51136 Y19.88843
G01 X7.49323 Y19.94822
G01 X7.45940 Y20.00923
G01 X7.42412 Y20.05162
G01 X7.38175 Y20.08688
G01 X7.32737 Y20.11759
G01 X7.26092 Y20.13887
G01 X7.19874 Y20.14499
G01 X6.71124 Y20.14499
G01 X6.64190 Y20.13707
G01 X6.58924 Y20.12071
G01 X6.54045 Y20.09506
G01 X6.48584 Y20.05162
G01 X6.45058 Y20.00923
G01 X6.41988 Y19.95487
G01 X6.39862 Y19.88843
G01 X6.39247 Y19.82625
G01 X6.39247 Y18.91373
G04 P0 ( dwell for no time -- G64 should not smooth over this point )
G00 Z0.63500 ( retract )

G00 X6.69498 Y13.63998 ( rapid move to begin. )
G01 F30.00000
( Mill infeed pass 1/1 )
G01 Z-0.14000
G04 P0 ( dwell for no time -- G64 should not smooth over this point )
G01 F200.00000
G01 X6.69498 Y13.63998
G01 X6.69534 Y14.94734
G01 X6.71454 Y15.12758
G01 X6.76539 Y15.29397
G01 X6.84710 Y15.44757
G01 X6.96592 Y15.59405
G01 X7.10016 Y15.70472
G01 X7.27293 Y15.79705
G01 X7.44680 Y15.84830
G01 X7.62000 Y15.86499
G01 X7.79318 Y15.84830
G01 X7.96704 Y15.79705
G01 X8.13389 Y15.70909
G01 X8.27900 Y15.58861
G01 X8.38472 Y15.45981
G01 X8.47143 Y15.30063
G01 X8.52721 Y15.12044
G01 X8.54499 Y14.93998
G01 X8.54464 Y13.63264
G01 X8.52543 Y13.45240
G01 X8.47458 Y13.28598
G01 X8.39287 Y13.13241
G01 X8.26861 Y12.98097
G01 X8.12757 Y12.86711
G01 X7.97397 Y12.78539
G01 X7.79318 Y12.73167
G01 X7.62734 Y12.71534
G01 X7.44680 Y12.73167
G01 X7.25935 Y12.78854
G01 X7.10016 Y12.87526
G01 X6.96097 Y12.99136
G01 X6.85089 Y13.12608
G01 X6.76539 Y13.28598
G01 X6.71167 Y13.46680
G01 X6.69498 Y13.63998
G01 X6.58950 Y13.63998
G01 X6.60931 Y13.43894
G01 X6.66196 Y13.26231
G01 X6.67550 Y13.22959
G01 X6.75406 Y13.08268
G01 X6.77372 Y13.05326
G01 X6.87944 Y12.92441
G01 X6.90446 Y12.89942
G01 X7.03326 Y12.79373
G01 X7.06267 Y12.77407
G01 X7.20961 Y12.69550
G01 X7.24230 Y12.68197
G01 X7.40176 Y12.63360
G01 X7.43646 Y12.62670
G01 X7.62000 Y12.60950
G01 X7.80351 Y12.62670
G01 X7.83821 Y12.63360
G01 X8.01433 Y12.68793
G01 X8.17730 Y12.77407
G01 X8.20671 Y12.79373
G01 X8.33552 Y12.89942
G01 X8.36054 Y12.92441
G01 X8.46625 Y13.05326
G01 X8.48591 Y13.08268
G01 X8.56447 Y13.22959
G01 X8.57801 Y13.26231
G01 X8.63067 Y13.43894
G01 X8.64961 Y13.62230
G01 X8.65048 Y14.93998
G01 X8.63067 Y15.14102
G01 X8.57801 Y15.31767
G01 X8.56447 Y15.35036
G01 X8.48591 Y15.49730
G01 X8.46625 Y15.52672
G01 X8.36054 Y15.65552
G01 X8.33552 Y15.68054
G01 X8.19249 Y15.79682
G01 X8.03036 Y15.88447
G01 X7.99767 Y15.89801
G01 X7.82102 Y15.95067
G01 X7.62000 Y15.97048
G01 X7.43646 Y15.95328
G01 X7.40176 Y15.94637
G01 X7.24230 Y15.89801
G01 X7.20961 Y15.88447
G01 X7.06267 Y15.80591
G01 X7.03326 Y15.78625
G01 X6.90446 Y15.68054
G01 X6.87944 Y15.65552
G01 X6.77372 Y15.52672
G01 X6.75406 Y15.49730
G01 X6.66793 Y15.33434
G01 X6.61360 Y15.15821
G01 X6.60669 Y15.12352
G01 X6.58950 Y14.93998
G01 X6.58950 Y13.63998
G01 X6.48401 Y13.63998
G01 X6.50171 Y13.44613
G01 X6.51266 Y13.39113
G01 X6.57047 Y13.20526
G01 X6.66102 Y13.03294
G01 X6.69216 Y12.98633
G01 X6.79788 Y12.85753
G01 X6.83753 Y12.81788
G01 X6.96633 Y12.71217
G01 X7.01294 Y12.68103
G01 X7.15990 Y12.60249
G01 X7.21169 Y12.58103
G01 X7.37116 Y12.53266
G01 X7.42612 Y12.52172
G01 X7.62000 Y12.50401
G01 X7.81385 Y12.52172
G01 X7.86882 Y12.53266
G01 X8.05470 Y12.59048
G01 X8.22703 Y12.68103
G01 X8.27364 Y12.71217
G01 X8.40245 Y12.81788
G01 X8.44210 Y12.85753
G01 X8.54781 Y12.98633
G01 X8.57895 Y13.03294
G01 X8.65749 Y13.17988
G01 X8.67895 Y13.23170
G01 X8.72731 Y13.39113
G01 X8.73826 Y13.44613
G01 X8.75459 Y13.61196
G01 X8.75596 Y14.93998
G01 X8.73415 Y15.16162
G01 X8.67895 Y15.34828
G01 X8.65749 Y15.40007
G01 X8.57895 Y15.54704
G01 X8.54781 Y15.59364
G01 X8.42325 Y15.74325
G01 X8.27364 Y15.86781
G01 X8.22703 Y15.89895
G01 X8.08007 Y15.97749
G01 X8.02828 Y15.99895
G01 X7.84162 Y16.05415
G01 X7.62000 Y16.07596
G01 X7.42612 Y16.05826
G01 X7.37116 Y16.04731
G01 X7.21169 Y15.99895
G01 X7.15990 Y15.97749
G01 X7.01294 Y15.89895
G01 X6.96633 Y15.86781
G01 X6.83753 Y15.76210
G01 X6.79788 Y15.72245
G01 X6.69216 Y15.59364
G01 X6.66102 Y15.54704
G01 X6.57047 Y15.37470
G01 X6.51266 Y15.18882
G01 X6.50171 Y15.13385
G01 X6.48401 Y14.93998
G01 X6.48401 Y13.63998
G01 X6.40273 Y13.40571
G01 X6.40273 Y13.06863
G01 X6.50004 Y12.89167
G01 X6.63478 Y12.72367
G01 X6.70367 Y12.65479
G01 X6.83250 Y12.54907
G01 X6.91350 Y12.49497
G01 X7.10453 Y12.39556
G01 X7.30989 Y12.33076
G01 X7.40545 Y12.31176
G01 X7.57128 Y12.29543
G01 X7.66869 Y12.29543
G01 X7.83453 Y12.31176
G01 X7.93008 Y12.33076
G01 X8.08952 Y12.37912
G01 X8.17954 Y12.41641
G01 X8.32648 Y12.49497
G01 X8.40748 Y12.54907
G01 X8.53631 Y12.65479
G01 X8.60519 Y12.72367
G01 X8.73994 Y12.89167
G01 X8.84357 Y13.08044
G01 X8.88086 Y13.17046
G01 X8.92922 Y13.32989
G01 X8.94822 Y13.42545
G01 X8.96694 Y13.63998
G01 X8.96694 Y14.93998
G01 X8.94105 Y15.20276
G01 X8.86442 Y15.45544
G01 X8.76501 Y15.64648
G01 X8.71088 Y15.72748
G01 X8.57242 Y15.89242
G01 X8.40748 Y16.03088
G01 X8.32648 Y16.08501
G01 X8.17954 Y16.16357
G01 X8.08952 Y16.20083
G01 X7.93008 Y16.24922
G01 X7.83453 Y16.26822
G01 X7.62000 Y16.28694
G01 X7.40545 Y16.26822
G01 X7.30989 Y16.24922
G01 X7.10453 Y16.18442
G01 X6.91350 Y16.08501
G01 X6.83250 Y16.03088
G01 X6.70367 Y15.92519
G01 X6.63478 Y15.85631
G01 X6.52907 Y15.72748
G01 X6.47494 Y15.64648
G01 X6.40273 Y15.51132
G01 X6.40273 Y13.40571
G01 X6.41170 Y13.36053
G01 X6.46008 Y13.20107
G01 X6.48945 Y13.13015
G01 X6.56796 Y12.98321
G01 X6.61063 Y12.91941
G01 X6.71634 Y12.79060
G01 X6.77060 Y12.73632
G01 X6.89940 Y12.63063
G01 X6.96321 Y12.58799
G01 X7.11017 Y12.50945
G01 X7.18106 Y12.48009
G01 X7.34052 Y12.43170
G01 X7.41578 Y12.41674
G01 X7.58162 Y12.40041
G01 X7.65835 Y12.40041
G01 X7.82419 Y12.41674
G01 X7.89945 Y12.43170
G01 X8.09508 Y12.49302
G01 X8.27677 Y12.58799
G01 X8.34057 Y12.63063
G01 X8.46938 Y12.73632
G01 X8.52363 Y12.79060
G01 X8.62935 Y12.91941
G01 X8.67199 Y12.98321
G01 X8.75053 Y13.13015
G01 X8.77989 Y13.20107
G01 X8.82828 Y13.36053
G01 X8.84324 Y13.43579
G01 X8.86145 Y13.63998
G01 X8.85957 Y14.97835
G01 X8.83760 Y15.18219
G01 X8.77989 Y15.37891
G01 X8.75053 Y15.44980
G01 X8.67199 Y15.59677
G01 X8.62935 Y15.66057
G01 X8.49785 Y15.81785
G01 X8.34057 Y15.94935
G01 X8.27677 Y15.99199
G01 X8.12980 Y16.07053
G01 X8.05891 Y16.09989
G01 X7.89945 Y16.14828
G01 X7.82419 Y16.16324
G01 X7.65835 Y16.17957
G01 X7.58162 Y16.17957
G01 X7.41578 Y16.16324
G01 X7.34052 Y16.14828
G01 X7.14489 Y16.08696
G01 X6.96321 Y15.99199
G01 X6.89940 Y15.94935
G01 X6.77060 Y15.84363
G01 X6.71634 Y15.78938
G01 X6.61063 Y15.66057
G01 X6.56796 Y15.59677
G01 X6.47301 Y15.41508
G01 X6.41170 Y15.21945
G01 X6.40273 Y15.17426
G01 X6.29722 Y15.17439
G01 X5.08401 Y16.07576
G01 X5.30161 Y16.05415
G01 X5.48828 Y15.99895
G01 X5.54007 Y15.97749
G01 X5.68703 Y15.89895
G01 X5.73364 Y15.86781
G01 X5.88325 Y15.74325
G01 X6.00781 Y15.59364
G01 X6.03895 Y15.54704
G01 X6.12950 Y15.37470
G01 X6.18731 Y15.18882
G01 X6.19826 Y15.13385
G01 X6.21596 Y14.93998
G01 X6.21596 Y13.63998
G01 X6.19826 Y13.44613
G01 X6.18731 Y13.39113
G01 X6.13895 Y13.23170
G01 X6.11749 Y13.17988
G01 X6.02452 Y13.00884
G01 X5.88325 Y12.83673
G01 X5.73364 Y12.71217
G01 X5.68703 Y12.68103
G01 X5.54007 Y12.60249
G01 X5.48828 Y12.58103
G01 X5.32882 Y12.53266
G01 X5.27385 Y12.52172
G01 X5.10802 Y12.50539
G01 X5.05196 Y12.50539
G01 X4.88612 Y12.52172
G01 X4.83116 Y12.53266
G01 X4.64528 Y12.59048
G01 X4.47294 Y12.68103
G01 X4.42633 Y12.71217
G01 X4.27672 Y12.83673
G01 X4.15216 Y12.98633
G01 X4.12102 Y13.03294
G01 X4.04249 Y13.17988
G01 X4.02102 Y13.23170
G01 X3.96583 Y13.41836
G01 X3.94401 Y13.63998
G01 X4.15498 Y13.63998
G01 X4.15498 Y14.93998
G01 X4.17276 Y15.12044
G01 X4.22854 Y15.30063
G01 X4.31089 Y15.45389
G01 X4.42097 Y15.58861
G01 X4.56608 Y15.70909
G01 X4.72600 Y15.79458
G01 X4.89240 Y15.84543
G01 X5.08000 Y15.86499
G01 X5.26758 Y15.84543
G01 X5.44063 Y15.79143
G01 X5.59389 Y15.70909
G01 X5.73405 Y15.59405
G01 X5.84472 Y15.45981
G01 X5.93705 Y15.28704
G01 X5.98830 Y15.11318
G01 X6.00499 Y14.93998
G01 X6.00464 Y13.63264
G01 X5.98721 Y13.45954
G01 X5.93143 Y13.27932
G01 X5.84909 Y13.12608
G01 X5.72861 Y12.98097
G01 X5.59981 Y12.87526
G01 X5.44063 Y12.78854
G01 X5.25318 Y12.73167
G01 X5.08000 Y12.71499
G01 X4.90680 Y12.73167
G01 X4.72600 Y12.78539
G01 X4.56016 Y12.87526
G01 X4.43136 Y12.98097
G01 X4.31526 Y13.12014
G01 X4.22293 Y13.29294
G01 X4.17276 Y13.45954
G01 X4.15498 Y13.63998
G01 X4.04950 Y13.63998
G01 X4.06931 Y13.43894
G01 X4.12196 Y13.26231
G01 X4.13550 Y13.22959
G01 X4.22316 Y13.06749
G01 X4.35132 Y12.91133
G01 X4.49326 Y12.79373
G01 X4.52267 Y12.77407
G01 X4.68564 Y12.68793
G01 X4.86176 Y12.63360
G01 X4.89646 Y12.62670
G01 X5.08000 Y12.60950
G01 X5.26351 Y12.62670
G01 X5.29821 Y12.63360
G01 X5.45767 Y12.68197
G01 X5.49036 Y12.69550
G01 X5.63730 Y12.77407
G01 X5.66671 Y12.79373
G01 X5.80865 Y12.91133
G01 X5.92625 Y13.05326
G01 X5.94591 Y13.08268
G01 X6.02447 Y13.22959
G01 X6.03801 Y13.26231
G01 X6.09067 Y13.43894
G01 X6.11048 Y13.63998
G01 X6.11048 Y14.93998
G01 X6.09067 Y15.14102
G01 X6.03204 Y15.33434
G01 X5.94591 Y15.49730
G01 X5.92625 Y15.52672
G01 X5.80865 Y15.66865
G01 X5.66671 Y15.78625
G01 X5.63730 Y15.80591
G01 X5.49036 Y15.88447
G01 X5.45767 Y15.89801
G01 X5.29821 Y15.94637
G01 X5.26351 Y15.95328
G01 X5.08000 Y15.97048
G01 X4.89646 Y15.95328
G01 X4.86176 Y15.94637
G01 X4.68564 Y15.89204
G01 X4.50748 Y15.79682
G01 X4.36446 Y15.68054
G01 X4.33944 Y15.65552
G01 X4.23372 Y15.52672
G01 X4.21406 Y15.49730
G01 X4.12793 Y15.33434
G01 X4.06931 Y15.14102
G01 X4.04950 Y14.93998
G01 X4.04950 Y13.63998
G01 X3.73304 Y13.63998
G01 X3.94401 Y13.63998
G01 X3.94538 Y14.96802
G01 X3.96583 Y15.16162
G01 X4.02102 Y15.34828
G01 X4.04249 Y15.40007
G01 X4.12102 Y15.54704
G01 X4.15216 Y15.59364
G01 X4.25788 Y15.72245
G01 X4.29753 Y15.76210
G01 X4.42633 Y15.86781
G01 X4.47294 Y15.89895
G01 X4.64528 Y15.98950
G01 X4.83116 Y16.04731
G01 X4.88612 Y16.05826
G01 X5.08401 Y16.07576
G01 X1.94942 Y18.40474
G01 X2.00020 Y18.38371
G01 X2.04340 Y18.36059
G01 X2.10723 Y18.31797
G01 X2.14511 Y18.28688
G01 X2.19936 Y18.23260
G01 X2.23048 Y18.19473
G01 X2.27310 Y18.13093
G01 X2.29621 Y18.08770
G01 X2.32557 Y18.01680
G01 X2.34912 Y17.93263
G01 X2.36146 Y17.80748
G01 X2.35956 Y17.24411
G01 X2.34912 Y17.15734
G01 X2.31262 Y17.03700
G01 X2.27310 Y16.95905
G01 X2.23048 Y16.89524
G01 X2.19936 Y16.85737
G01 X2.14511 Y16.80309
G01 X2.07637 Y16.74912
G01 X2.00020 Y16.70627
G01 X1.91546 Y16.67271
G01 X1.89837 Y16.68381
G01 X1.91546 Y16.67271
G01 X1.91546 Y14.74518
G01 X1.91201 Y14.74429
G01 X1.91546 Y14.74518
G01 X1.94782 Y14.69674
G01 X2.00122 Y14.59286
G01 X2.04625 Y14.44440
G01 X2.05956 Y14.32837
G01 X2.05956 Y14.25161
G01 X2.05189 Y14.17358
G01 X2.03690 Y14.09832
G01 X2.01414 Y14.02329
G01 X1.98478 Y13.95237
G01 X1.94782 Y13.88323
G01 X1.90518 Y13.81940
G01 X1.82964 Y13.73033
G01 X1.74056 Y13.65479
G01 X1.67676 Y13.61216
G01 X1.57287 Y13.55877
G01 X1.46167 Y13.52306
G01 X1.38638 Y13.50810
G01 X1.30835 Y13.50040
G01 X1.23162 Y13.50040
G01 X1.15359 Y13.50810
G01 X1.07831 Y13.52306
G01 X0.96710 Y13.55877
G01 X0.86322 Y13.61216
G01 X0.79941 Y13.65479
G01 X0.71034 Y13.73033
G01 X0.61191 Y13.85026
G01 X0.55519 Y13.95237
G01 X0.52583 Y14.02329
G01 X0.49373 Y14.13558
G01 X0.48042 Y14.25161
G01 X0.48042 Y14.32837
G01 X0.48809 Y14.40640
G01 X0.50307 Y14.48166
G01 X0.52583 Y14.55669
G01 X0.55519 Y14.62761
G01 X0.61191 Y14.72971
G01 X0.62451 Y14.74671
G01 X0.62817 Y14.74572
G01 X0.62451 Y14.74671
G01 X0.62451 Y16.67271
G01 X0.64160 Y16.68381
G01 X0.62451 Y16.67271
G01 X0.53978 Y16.70627
G01 X0.46360 Y16.74912
G01 X0.39487 Y16.80309
G01 X0.34061 Y16.85737
G01 X0.30950 Y16.89524
G01 X0.26688 Y16.95905
G01 X0.24376 Y17.00228
G01 X0.21440 Y17.07317
G01 X0.19086 Y17.15734
G01 X0.17851 Y17.28249
G01 X0.17851 Y17.80748
G01 X0.19086 Y17.93263
G01 X0.21440 Y18.01680
G01 X0.22736 Y18.05297
G01 X0.26688 Y18.13093
G01 X0.30950 Y18.19473
G01 X0.34061 Y18.23260
G01 X0.39487 Y18.28688
G01 X0.46360 Y18.34086
G01 X0.53978 Y18.38371
G01 X0.59055 Y18.40474
G01 X2.16710 Y18.40474
G01 X2.21204 Y18.36842
G01 X2.28092 Y18.29953
G01 X2.31201 Y18.26163
G01 X2.36614 Y18.18063
G01 X2.38923 Y18.13743
G01 X2.41008 Y18.09333
G01 X2.44074 Y18.00052
G01 X2.45974 Y17.90497
G01 X2.46695 Y17.80748
G01 X2.46695 Y17.28249
G01 X2.45260 Y17.13677
G01 X2.42651 Y17.04256
G01 X2.41008 Y16.99664
G01 X2.36614 Y16.90934
G01 X2.31201 Y16.82834
G01 X2.28092 Y16.79044
G01 X2.21204 Y16.72156
G01 X2.13497 Y16.66141
G01 X2.04993 Y16.61325
G01 X2.02095 Y16.60124
G01 X2.00579 Y16.61038
G01 X2.02095 Y16.60124
G01 X2.02095 Y14.77627
G01 X2.01770 Y14.77546
G01 X2.02095 Y14.77627
G01 X2.04086 Y14.74648
G01 X2.07782 Y14.67731
G01 X2.11511 Y14.58732
G01 X2.14970 Y14.46497
G01 X2.16695 Y14.28999
G01 X2.14970 Y14.11501
G01 X2.11511 Y13.99266
G01 X2.07782 Y13.90264
G01 X2.01577 Y13.79167
G01 X1.90424 Y13.65575
G01 X1.80749 Y13.57325
G01 X1.72649 Y13.51912
G01 X1.61323 Y13.46131
G01 X1.56733 Y13.44488
G01 X1.49228 Y13.42212
G01 X1.39675 Y13.40310
G01 X1.31869 Y13.39543
G01 X1.22128 Y13.39543
G01 X1.14323 Y13.40310
G01 X1.04770 Y13.42212
G01 X0.97264 Y13.44488
G01 X0.88265 Y13.48217
G01 X0.81349 Y13.51912
G01 X0.73249 Y13.57325
G01 X0.63574 Y13.65575
G01 X0.52421 Y13.79167
G01 X0.46215 Y13.90264
G01 X0.42487 Y13.99266
G01 X0.40211 Y14.06769
G01 X0.38311 Y14.16324
G01 X0.37302 Y14.28999
G01 X0.39027 Y14.46497
G01 X0.42487 Y14.58732
G01 X0.46215 Y14.67731
G01 X0.49911 Y14.74648
G01 X0.51902 Y14.77970
G01 X0.52174 Y14.77907
G01 X0.51902 Y14.77970
G01 X0.51902 Y16.60124
G01 X0.53218 Y16.60850
G01 X0.51902 Y16.60124
G01 X0.49004 Y16.61325
G01 X0.40500 Y16.66141
G01 X0.32794 Y16.72156
G01 X0.25905 Y16.79044
G01 X0.22797 Y16.82834
G01 X0.17384 Y16.90934
G01 X0.12990 Y16.99664
G01 X0.11346 Y17.04256
G01 X0.09924 Y17.08945
G01 X0.08024 Y17.18501
G01 X0.07302 Y17.28249
G01 X0.49500 Y17.28249
G01 X0.49500 Y17.80748
G01 X0.50302 Y17.87802
G01 X0.51973 Y17.93187
G01 X0.54597 Y17.98173
G01 X0.58524 Y18.03184
G01 X0.63942 Y18.07771
G01 X0.70254 Y18.11023
G01 X0.75659 Y18.12625
G01 X0.81999 Y18.13248
G01 X1.71999 Y18.13248
G01 X1.77612 Y18.12732
G01 X1.85102 Y18.10461
G01 X1.90055 Y18.07771
G01 X1.94434 Y18.04223
G01 X1.98582 Y17.99397
G01 X2.02273 Y17.92493
G01 X2.03982 Y17.86362
G01 X2.04498 Y17.80748
G01 X2.04498 Y17.28249
G01 X2.03982 Y17.22636
G01 X2.02024 Y17.15811
G01 X1.99400 Y17.10825
G01 X1.95473 Y17.05813
G01 X1.90055 Y17.01226
G01 X1.85102 Y16.98536
G01 X1.77612 Y16.96265
G01 X1.71999 Y16.95750
G01 X1.59893 Y16.95750
G01 X1.59893 Y14.63197
G01 X1.66055 Y14.55979
G01 X1.71130 Y14.46484
G01 X1.73408 Y14.38979
G01 X1.74462 Y14.29733
G01 X1.73586 Y14.19733
G01 X1.70569 Y14.10155
G01 X1.66055 Y14.02019
G01 X1.60586 Y13.95410
G01 X1.52758 Y13.89126
G01 X1.45176 Y13.85115
G01 X1.36980 Y13.82591
G01 X1.27734 Y13.81534
G01 X1.18461 Y13.82304
G01 X1.08821 Y13.85115
G01 X1.00609 Y13.89504
G01 X0.93411 Y13.95410
G01 X0.87942 Y14.02019
G01 X0.83429 Y14.10155
G01 X0.80589 Y14.19017
G01 X0.79535 Y14.29733
G01 X0.80411 Y14.38265
G01 X0.82867 Y14.46484
G01 X0.87942 Y14.55979
G01 X0.94099 Y14.63197
G01 X0.94099 Y16.95750
G01 X0.81999 Y16.95750
G01 X0.75659 Y16.96372
G01 X0.70254 Y16.97975
G01 X0.64574 Y17.00848
G01 X0.59563 Y17.04774
G01 X0.54597 Y17.10825
G01 X0.51973 Y17.15811
G01 X0.50302 Y17.21195
G01 X0.49500 Y17.28249
G01 X0.38951 Y17.28249
G01 X0.39776 Y17.19849
G01 X0.42228 Y17.11775
G01 X0.45293 Y17.05851
G01 X0.47259 Y17.02910
G01 X0.52870 Y16.96618
G01 X0.59601 Y16.91543
G01 X0.67193 Y16.87881
G01 X0.71882 Y16.86458
G01 X0.75352 Y16.85768
G01 X0.83551 Y16.85199
G01 X0.86251 Y16.87624
G01 X0.83551 Y16.85199
G01 X0.83551 Y14.67256
G01 X0.83942 Y14.67145
G01 X0.83551 Y14.67256
G01 X0.77823 Y14.59730
G01 X0.74125 Y14.52814
G01 X0.70495 Y14.42042
G01 X0.69037 Y14.30767
G01 X0.69037 Y14.27229
G01 X0.70066 Y14.17673
G01 X0.72771 Y14.08453
G01 X0.77823 Y13.98267
G01 X0.84762 Y13.89263
G01 X0.87264 Y13.86761
G01 X0.96269 Y13.79822
G01 X1.04785 Y13.75369
G01 X1.13955 Y13.72497
G01 X1.25230 Y13.71036
G01 X1.36571 Y13.71806
G01 X1.47546 Y13.74772
G01 X1.57729 Y13.79822
G01 X1.60670 Y13.81788
G01 X1.68046 Y13.87953
G01 X1.75265 Y13.96749
G01 X1.79873 Y14.05184
G01 X1.83502 Y14.15956
G01 X1.84960 Y14.27229
G01 X1.84193 Y14.38572
G01 X1.83502 Y14.42042
G01 X1.80630 Y14.51214
G01 X1.76174 Y14.59730
G01 X1.70447 Y14.67256
G01 X1.70028 Y14.67134
G01 X1.70447 Y14.67256
G01 X1.70447 Y16.85199
G01 X1.67937 Y16.87332
G01 X1.70447 Y16.85199
G01 X1.78646 Y16.85768
G01 X1.82115 Y16.86458
G01 X1.86804 Y16.87881
G01 X1.94396 Y16.91543
G01 X2.01127 Y16.96618
G01 X2.06738 Y17.02910
G01 X2.08704 Y17.05851
G01 X2.11770 Y17.11775
G01 X2.14221 Y17.19849
G01 X2.15047 Y17.28249
G01 X2.15047 Y17.80748
G01 X2.14221 Y17.89148
G01 X2.12367 Y17.95554
G01 X2.08704 Y18.03146
G01 X2.03629 Y18.09877
G01 X2.01127 Y18.12379
G01 X1.95915 Y18.16542
G01 X1.90073 Y18.19763
G01 X1.86804 Y18.21117
G01 X1.80398 Y18.22971
G01 X1.71999 Y18.23799
G01 X0.81999 Y18.23799
G01 X0.73599 Y18.22971
G01 X0.67193 Y18.21117
G01 X0.63924 Y18.19763
G01 X0.56660 Y18.15488
G01 X0.50368 Y18.09877
G01 X0.45293 Y18.03146
G01 X0.42984 Y17.98823
G01 X0.41631 Y17.95554
G01 X0.39776 Y17.89148
G01 X0.39037 Y17.82519
G01 X0.38951 Y17.28249
G01 X0.28400 Y17.28249
G01 X0.29019 Y17.20568
G01 X0.30112 Y17.15069
G01 X0.32482 Y17.07739
G01 X0.35992 Y17.00878
G01 X0.39106 Y16.96217
G01 X0.42215 Y16.92430
G01 X0.46180 Y16.88465
G01 X0.52222 Y16.83685
G01 X0.54628 Y16.82242
G01 X0.58951 Y16.79931
G01 X0.64130 Y16.77784
G01 X0.73002 Y16.75465
G01 X0.75034 Y16.76951
G01 X0.73002 Y16.75465
G01 X0.73000 Y14.71031
G01 X0.73401 Y14.70917
G01 X0.73000 Y14.71031
G01 X0.69962 Y14.67109
G01 X0.64823 Y14.57787
G01 X0.62677 Y14.52608
G01 X0.59718 Y14.42382
G01 X0.58400 Y14.28999
G01 X0.59718 Y14.15616
G01 X0.62677 Y14.05390
G01 X0.64823 Y14.00211
G01 X0.68519 Y13.93294
G01 X0.71633 Y13.88633
G01 X0.78494 Y13.80493
G01 X0.86634 Y13.73635
G01 X0.91295 Y13.70518
G01 X0.98212 Y13.66822
G01 X1.03391 Y13.64676
G01 X1.10894 Y13.62400
G01 X1.16393 Y13.61308
G01 X1.24196 Y13.60538
G01 X1.29802 Y13.60538
G01 X1.37604 Y13.61308
G01 X1.43104 Y13.62400
G01 X1.53251 Y13.65623
G01 X1.62702 Y13.70518
G01 X1.67363 Y13.73635
G01 X1.75504 Y13.80493
G01 X1.84036 Y13.90889
G01 X1.89174 Y14.00211
G01 X1.91320 Y14.05390
G01 X1.93596 Y14.12893
G01 X1.94691 Y14.18392
G01 X1.95598 Y14.28999
G01 X1.94691 Y14.39606
G01 X1.93596 Y14.45105
G01 X1.91320 Y14.52608
G01 X1.89174 Y14.57787
G01 X1.85478 Y14.64704
G01 X1.82364 Y14.69365
G01 X1.80998 Y14.71031
G01 X1.80655 Y14.70939
G01 X1.80998 Y14.71031
G01 X1.80995 Y16.75465
G01 X1.79103 Y16.76786
G01 X1.80995 Y16.75465
G01 X1.89868 Y16.77784
G01 X1.95047 Y16.79931
G01 X2.01775 Y16.83685
G01 X2.07818 Y16.88465
G01 X2.11783 Y16.92430
G01 X2.14892 Y16.96217
G01 X2.18006 Y17.00878
G01 X2.21516 Y17.07739
G01 X2.24566 Y17.17792
G01 X2.25458 Y17.25445
G01 X2.25598 Y17.80748
G01 X2.24566 Y17.91205
G01 X2.22463 Y17.98617
G01 X2.20317 Y18.03796
G01 X2.18006 Y18.08119
G01 X2.14892 Y18.12780
G01 X2.11783 Y18.16570
G01 X2.07818 Y18.20532
G01 X2.01775 Y18.25313
G01 X1.95047 Y18.29067
G01 X1.89868 Y18.31213
G01 X1.82456 Y18.33316
G01 X1.71999 Y18.34347
G01 X0.81999 Y18.34347
G01 X0.71542 Y18.33316
G01 X0.64130 Y18.31213
G01 X0.58951 Y18.29067
G01 X0.52222 Y18.25313
G01 X0.49967 Y18.23641
G01 X0.46180 Y18.20532
G01 X0.42215 Y18.16570
G01 X0.39106 Y18.12780
G01 X0.35992 Y18.08119
G01 X0.32482 Y18.01259
G01 X0.30112 Y17.93928
G01 X0.29019 Y17.88429
G01 X0.28539 Y17.83552
G01 X0.28400 Y17.28249
G01 X0.07302 Y17.28249
G01 X0.07302 Y17.80748
G01 X0.08024 Y17.90497
G01 X0.09924 Y18.00052
G01 X0.12990 Y18.09333
G01 X0.17384 Y18.18063
G01 X0.22797 Y18.26163
G01 X0.25905 Y18.29953
G01 X0.32794 Y18.36842
G01 X0.37287 Y18.40474
G01 X1.94942 Y18.40474
G01 X1.95255 Y18.51022
G01 X2.04340 Y18.55437
G01 X2.10723 Y18.59702
G01 X2.17358 Y18.65391
G01 X2.19936 Y18.68236
G01 X2.23332 Y18.72450
G01 X2.22992 Y18.73265
G01 X2.23332 Y18.72450
G01 X4.23106 Y18.72450
G01 X4.24231 Y18.74169
G01 X4.23106 Y18.72450
G01 X4.24937 Y18.67065
G01 X4.26580 Y18.63593
G01 X4.28833 Y18.59379
G01 X4.33095 Y18.52996
G01 X4.36128 Y18.49303
G01 X4.41554 Y18.43877
G01 X4.48333 Y18.38556
G01 X4.55841 Y18.34330
G01 X4.62933 Y18.31393
G01 X4.67505 Y18.30007
G01 X4.75031 Y18.28508
G01 X4.83624 Y18.27853
G01 X5.32374 Y18.27853
G01 X5.40967 Y18.28508
G01 X5.48493 Y18.30007
G01 X5.56682 Y18.32686
G01 X5.64370 Y18.36583
G01 X5.70751 Y18.40845
G01 X5.77291 Y18.46458
G01 X5.82902 Y18.52996
G01 X5.87164 Y18.59379
G01 X5.91061 Y18.67065
G01 X5.92353 Y18.70682
G01 X5.94675 Y18.78980
G01 X5.95897 Y18.91373
G01 X5.95897 Y19.82625
G01 X5.94675 Y19.95015
G01 X5.91061 Y20.06933
G01 X5.87164 Y20.14619
G01 X5.82902 Y20.20999
G01 X5.77291 Y20.27540
G01 X5.67665 Y20.35439
G01 X5.56682 Y20.41309
G01 X5.48493 Y20.43991
G01 X5.40967 Y20.45490
G01 X5.32374 Y20.46145
G01 X4.79786 Y20.45957
G01 X4.75031 Y20.45490
G01 X4.67505 Y20.43991
G01 X4.59316 Y20.41309
G01 X4.48333 Y20.35439
G01 X4.41554 Y20.30120
G01 X4.36128 Y20.24695
G01 X4.33095 Y20.20999
G01 X4.28833 Y20.14619
G01 X4.26580 Y20.10405
G01 X4.24937 Y20.06933
G01 X4.23106 Y20.01545
G01 X4.24231 Y19.99826
G01 X4.23106 Y20.01545
G01 X2.23332 Y20.01545
G01 X2.22938 Y20.00649
G01 X2.23332 Y20.01545
G01 X2.23048 Y20.01972
G01 X2.17358 Y20.08607
G01 X2.14511 Y20.11187
G01 X2.10723 Y20.14296
G01 X2.04340 Y20.18561
G01 X2.00020 Y20.20870
G01 X1.92931 Y20.23806
G01 X1.84513 Y20.26163
G01 X1.71999 Y20.27395
G01 X0.81999 Y20.27395
G01 X0.69484 Y20.26163
G01 X0.57450 Y20.22513
G01 X0.49657 Y20.18561
G01 X0.43274 Y20.14296
G01 X0.36639 Y20.08607
G01 X0.34061 Y20.05762
G01 X0.30950 Y20.01972
G01 X0.26688 Y19.95592
G01 X0.22736 Y19.87796
G01 X0.20018 Y19.79491
G01 X0.18522 Y19.71962
G01 X0.17851 Y19.63250
G01 X0.17851 Y19.10748
G01 X0.19086 Y18.98233
G01 X0.22736 Y18.86201
G01 X0.26688 Y18.78406
G01 X0.30950 Y18.72026
G01 X0.36639 Y18.65391
G01 X0.43274 Y18.59702
G01 X0.49657 Y18.55437
G01 X0.57450 Y18.51485
G01 X0.58743 Y18.51022
G01 X2.16632 Y18.51022
G01 X2.24815 Y18.57931
G01 X2.28384 Y18.61901
G01 X2.28100 Y18.62628
G01 X2.28384 Y18.61901
G01 X4.15724 Y18.61901
G01 X4.16514 Y18.63288
G01 X4.15724 Y18.61901
G01 X4.19529 Y18.54406
G01 X4.24942 Y18.46306
G01 X4.31249 Y18.38998
G01 X4.38554 Y18.32691
G01 X4.46656 Y18.27279
G01 X4.55277 Y18.22940
G01 X4.64442 Y18.19910
G01 X4.73997 Y18.18010
G01 X4.78752 Y18.17543
G01 X5.37246 Y18.17543
G01 X5.42000 Y18.18010
G01 X5.51556 Y18.19910
G01 X5.60720 Y18.22940
G01 X5.69341 Y18.27279
G01 X5.77444 Y18.32691
G01 X5.84749 Y18.38998
G01 X5.91055 Y18.46306
G01 X5.96468 Y18.54406
G01 X5.96468 Y20.19592
G01 X5.91055 Y20.27692
G01 X5.88025 Y20.31385
G01 X5.84749 Y20.35000
G01 X5.77444 Y20.41307
G01 X5.69341 Y20.46719
G01 X5.60720 Y20.51055
G01 X5.51556 Y20.54085
G01 X5.42000 Y20.55988
G01 X5.32374 Y20.56694
G01 X4.83624 Y20.56694
G01 X4.73997 Y20.55988
G01 X4.64442 Y20.54085
G01 X4.55277 Y20.51055
G01 X4.46656 Y20.46719
G01 X4.38554 Y20.41307
G01 X4.31249 Y20.35000
G01 X4.24942 Y20.27692
G01 X4.19529 Y20.19592
G01 X4.17276 Y20.15378
G01 X4.15722 Y20.12094
G01 X4.16441 Y20.10788
G01 X4.15722 Y20.12094
G01 X2.28387 Y20.12094
G01 X2.28089 Y20.11347
G01 X2.28387 Y20.12094
G01 X2.28092 Y20.12452
G01 X2.21204 Y20.19341
G01 X2.17414 Y20.22450
G01 X2.09314 Y20.27862
G01 X2.00584 Y20.32259
G01 X1.86571 Y20.36509
G01 X1.71999 Y20.37944
G01 X0.81999 Y20.37944
G01 X0.72250 Y20.37225
G01 X0.62695 Y20.35325
G01 X0.53414 Y20.32259
G01 X0.49004 Y20.30174
G01 X0.44684 Y20.27862
G01 X0.36584 Y20.22450
G01 X0.29182 Y20.16067
G01 X0.22797 Y20.08665
G01 X0.17384 Y20.00565
G01 X0.15075 Y19.96242
G01 X0.11346 Y19.87243
G01 X0.09924 Y19.82551
G01 X0.08024 Y19.72996
G01 X0.07302 Y19.63250
G01 X0.07302 Y19.10748
G01 X0.49500 Y19.10748
G01 X0.49500 Y19.63250
G01 X0.50015 Y19.68861
G01 X0.51725 Y19.74992
G01 X0.54597 Y19.80674
G01 X0.59563 Y19.86724
G01 X0.63353 Y19.89833
G01 X0.68895 Y19.92960
G01 X0.75659 Y19.95124
G01 X0.81999 Y19.95749
G01 X1.71999 Y19.95749
G01 X1.78338 Y19.95124
G01 X1.85102 Y19.92960
G01 X1.90645 Y19.89833
G01 X1.94981 Y19.86229
G01 X1.99400 Y19.80674
G01 X2.02024 Y19.75686
G01 X2.03794 Y19.69897
G01 X4.51749 Y19.69897
G01 X4.51785 Y19.83359
G01 X4.52361 Y19.88843
G01 X4.54175 Y19.94822
G01 X4.57558 Y20.00923
G01 X4.61084 Y20.05162
G01 X4.65323 Y20.08688
G01 X4.70761 Y20.11759
G01 X4.76692 Y20.13707
G01 X4.83624 Y20.14499
G01 X5.32374 Y20.14499
G01 X5.39306 Y20.13707
G01 X5.44571 Y20.12071
G01 X5.50675 Y20.08688
G01 X5.54914 Y20.05162
G01 X5.58439 Y20.00923
G01 X5.62072 Y19.94129
G01 X5.63636 Y19.88843
G01 X5.64248 Y19.82625
G01 X5.64248 Y18.91373
G01 X5.63636 Y18.85155
G01 X5.61508 Y18.78510
G01 X5.58439 Y18.73075
G01 X5.54914 Y18.68835
G01 X5.49450 Y18.64492
G01 X5.44571 Y18.61924
G01 X5.39306 Y18.60291
G01 X5.32374 Y18.59498
G01 X4.83624 Y18.59498
G01 X4.76692 Y18.60291
G01 X4.70761 Y18.62239
G01 X4.65323 Y18.65310
G01 X4.61084 Y18.68835
G01 X4.57558 Y18.73075
G01 X4.54175 Y18.79176
G01 X4.52361 Y18.85155
G01 X4.51785 Y18.90639
G01 X4.51749 Y19.04098
G01 X2.03794 Y19.04098
G01 X2.02024 Y18.98312
G01 X1.99400 Y18.93324
G01 X1.94981 Y18.87769
G01 X1.89423 Y18.83347
G01 X1.84437 Y18.80723
G01 X1.78338 Y18.78874
G01 X1.71999 Y18.78249
G01 X0.81999 Y18.78249
G01 X0.75659 Y18.78874
G01 X0.70254 Y18.80474
G01 X0.63353 Y18.84164
G01 X0.58524 Y18.88312
G01 X0.54597 Y18.93324
G01 X0.52288 Y18.97647
G01 X0.50302 Y19.03694
G01 X0.49500 Y19.10748
G01 X0.38951 Y19.10748
G01 X0.39776 Y19.02351
G01 X0.42228 Y18.94274
G01 X0.45293 Y18.88350
G01 X0.50368 Y18.81622
G01 X0.56660 Y18.76011
G01 X0.63924 Y18.71734
G01 X0.67193 Y18.70380
G01 X0.75352 Y18.68267
G01 X0.81999 Y18.67700
G01 X1.71999 Y18.67700
G01 X1.80398 Y18.68528
G01 X1.86804 Y18.70380
G01 X1.90073 Y18.71734
G01 X1.94396 Y18.74045
G01 X2.01127 Y18.79120
G01 X2.06738 Y18.85409
G01 X2.08704 Y18.88350
G01 X2.11427 Y18.93550
G01 X2.10741 Y18.94820
G01 X2.11427 Y18.93550
G01 X4.41201 Y18.93550
G01 X4.43276 Y18.96019
G01 X4.41201 Y18.93550
G01 X4.41287 Y18.89605
G01 X4.42016 Y18.83098
G01 X4.43832 Y18.76806
G01 X4.45186 Y18.73537
G01 X4.49405 Y18.66382
G01 X4.54937 Y18.60187
G01 X4.61574 Y18.55188
G01 X4.65788 Y18.52938
G01 X4.73629 Y18.50194
G01 X4.81856 Y18.49036
G01 X5.34142 Y18.49036
G01 X5.42369 Y18.50194
G01 X5.48610 Y18.52178
G01 X5.54424 Y18.55188
G01 X5.57365 Y18.57154
G01 X5.63562 Y18.62689
G01 X5.68559 Y18.69323
G01 X5.71569 Y18.75140
G01 X5.73982 Y18.83098
G01 X5.74797 Y18.91373
G01 X5.74797 Y19.82625
G01 X5.73982 Y19.90900
G01 X5.72165 Y19.97192
G01 X5.70812 Y20.00461
G01 X5.68559 Y20.04675
G01 X5.63562 Y20.11309
G01 X5.61061 Y20.13811
G01 X5.54424 Y20.18810
G01 X5.48610 Y20.21817
G01 X5.42369 Y20.23801
G01 X5.38899 Y20.24492
G01 X5.32374 Y20.25048
G01 X4.83624 Y20.25048
G01 X4.77098 Y20.24492
G01 X4.73629 Y20.23801
G01 X4.67388 Y20.21817
G01 X4.61574 Y20.18810
G01 X4.54937 Y20.13811
G01 X4.52435 Y20.11309
G01 X4.47439 Y20.04675
G01 X4.44429 Y19.98858
G01 X4.42445 Y19.92617
G01 X4.41754 Y19.89148
G01 X4.41201 Y19.80446
G01 X4.43654 Y19.77728
G01 X4.41201 Y19.80446
G01 X2.11430 Y19.80446
G01 X2.10609 Y19.79031
G01 X2.11430 Y19.80446
G01 X2.08704 Y19.85645
G01 X2.06738 Y19.88589
G01 X2.01127 Y19.94878
G01 X1.94396 Y19.99953
G01 X1.90073 Y20.02264
G01 X1.86804 Y20.03618
G01 X1.80398 Y20.05470
G01 X1.71999 Y20.06298
G01 X0.81999 Y20.06298
G01 X0.73599 Y20.05470
G01 X0.67193 Y20.03618
G01 X0.63924 Y20.02264
G01 X0.59601 Y19.99953
G01 X0.52870 Y19.94878
G01 X0.47259 Y19.88589
G01 X0.45293 Y19.85645
G01 X0.42228 Y19.79722
G01 X0.39776 Y19.71647
G01 X0.38951 Y19.63250
G01 X0.38951 Y19.10748
G01 X0.28400 Y19.10748
G01 X0.28539 Y19.07946
G01 X0.29019 Y19.03070
G01 X0.30112 Y18.97571
G01 X0.32482 Y18.90238
G01 X0.35992 Y18.83380
G01 X0.39106 Y18.78716
G01 X0.44099 Y18.72849
G01 X0.49967 Y18.67855
G01 X0.54628 Y18.64741
G01 X0.58951 Y18.62430
G01 X0.61488 Y18.61231
G01 X0.68819 Y18.58863
G01 X0.74318 Y18.57769
G01 X0.81999 Y18.57151
G01 X1.71999 Y18.57151
G01 X1.82456 Y18.58180
G01 X1.92509 Y18.61231
G01 X1.99370 Y18.64741
G01 X2.04031 Y18.67855
G01 X2.09898 Y18.72849
G01 X2.11783 Y18.74929
G01 X2.17754 Y18.83001
G01 X2.17353 Y18.83905
G01 X2.17754 Y18.83001
G01 X4.31378 Y18.82999
G01 X4.32719 Y18.84911
G01 X4.31378 Y18.82999
G01 X4.33738 Y18.73745
G01 X4.34683 Y18.71101
G01 X4.38135 Y18.64350
G01 X4.41251 Y18.59689
G01 X4.46166 Y18.53916
G01 X4.51940 Y18.49001
G01 X4.60814 Y18.43634
G01 X4.65993 Y18.41487
G01 X4.76065 Y18.39006
G01 X4.83624 Y18.38401
G01 X5.32374 Y18.38401
G01 X5.39933 Y18.39006
G01 X5.45429 Y18.40100
G01 X5.52646 Y18.42432
G01 X5.59397 Y18.45887
G01 X5.64058 Y18.49001
G01 X5.69831 Y18.53916
G01 X5.71716 Y18.55996
G01 X5.77863 Y18.64350
G01 X5.80113 Y18.68564
G01 X5.82259 Y18.73745
G01 X5.84330 Y18.81040
G01 X5.85346 Y18.91373
G01 X5.85346 Y19.82625
G01 X5.84741 Y19.90181
G01 X5.84330 Y19.92958
G01 X5.82259 Y20.00253
G01 X5.81315 Y20.02897
G01 X5.77863 Y20.09645
G01 X5.71716 Y20.18002
G01 X5.67751 Y20.21967
G01 X5.59397 Y20.28111
G01 X5.52646 Y20.31563
G01 X5.45429 Y20.33897
G01 X5.39933 Y20.34990
G01 X5.32374 Y20.35597
G01 X4.80819 Y20.35459
G01 X4.70568 Y20.33897
G01 X4.63352 Y20.31563
G01 X4.56601 Y20.28111
G01 X4.51940 Y20.24997
G01 X4.46166 Y20.20082
G01 X4.41251 Y20.14309
G01 X4.38135 Y20.09645
G01 X4.34683 Y20.02897
G01 X4.33738 Y20.00253
G01 X4.31378 Y19.90997
G01 X4.32887 Y19.88944
G01 X4.31378 Y19.90997
G01 X2.17754 Y19.90997
G01 X2.17226 Y19.89917
G01 X2.17754 Y19.90997
G01 X2.14892 Y19.95279
G01 X2.09898 Y20.01149
G01 X2.04031 Y20.06143
G01 X1.99370 Y20.09257
G01 X1.92509 Y20.12767
G01 X1.85179 Y20.15134
G01 X1.79680 Y20.16229
G01 X1.71999 Y20.16846
G01 X0.81999 Y20.16846
G01 X0.71542 Y20.15818
G01 X0.61488 Y20.12767
G01 X0.54628 Y20.09257
G01 X0.49967 Y20.06143
G01 X0.44099 Y20.01149
G01 X0.39106 Y19.95279
G01 X0.35992 Y19.90618
G01 X0.32482 Y19.83760
G01 X0.31534 Y19.81116
G01 X0.30112 Y19.76427
G01 X0.29019 Y19.70928
G01 X0.28400 Y19.63250
G01 X0.28400 Y19.10748
G01 X0.07302 Y19.10748
G01 X0.08024 Y19.00999
G01 X0.09924 Y18.91447
G01 X0.12990 Y18.82163
G01 X0.17384 Y18.73433
G01 X0.22797 Y18.65333
G01 X0.25905 Y18.61543
G01 X0.29182 Y18.57931
G01 X0.37368 Y18.51022
G01 X0.58743 Y18.51022

G04 P0 ( dwell for no time -- G64 should not smooth over this point )
G00 Z7.620000 ( retract )

M5 ( Spindle off. )
G04 P1.000000
M9 ( Coolant off. )
M2 ( Program end. )

