( pcb2gcode 2.5.0 )
( Software-independent Gcode )

G94 ( Millimeters per minute feed rate. )
G21 ( Units == Millimeters. )

G90 ( Absolute coordinates. )
G00 S10000 ( RPM spindle speed. )
G64 P0.01016 ( set maximum deviation from commanded toolpath )
G01 F500.00000 ( Feedrate. )


G00 Z17.83500 (Retract to tool change height)
T1
M5      (Spindle stop.)
G04 P1.00000 (Wait for spindle to stop)
(MSG, Change tool bit to mill diameter 0.80000mm)
M6      (Tool change.)
M0      (Temporary machine stop.)
M3 ( Spindle on clockwise. )
G04 P1.00000 (Wait for spindle to get up to speed)
G04 P0 ( dwell for no time -- G64 should not smooth over this point )
G00 Z0.63500 ( retract )

G00 X10.23191 Y-3.77078 ( rapid move to begin. )
G01 F30.00000
( Mill infeed pass 1/1 )
G01 Z-0.14000
G04 P0 ( dwell for no time -- G64 should not smooth over this point )
G01 F500.00000
G01 X10.23191 Y-3.77078
G01 X10.25505 Y-3.56794
G01 X10.30811 Y-3.38772
G01 X10.33810 Y-3.31528
G01 X10.43419 Y-3.14066
G01 X10.58146 Y-2.96146
G01 X10.73178 Y-2.83561
G01 X10.79698 Y-2.79204
G01 X10.95794 Y-2.70739
G01 X11.00772 Y-2.68811
G01 X11.15781 Y-2.64259
G01 X11.23470 Y-2.62727
G01 X11.43000 Y-2.60998
G01 X11.62528 Y-2.62727
G01 X11.70216 Y-2.64259
G01 X11.85225 Y-2.68811
G01 X11.90221 Y-2.70749
G01 X12.06299 Y-2.79204
G01 X12.12820 Y-2.83561
G01 X12.27851 Y-2.96146
G01 X12.40437 Y-3.11178
G01 X12.43216 Y-3.15064
G01 X12.52187 Y-3.31528
G01 X12.55187 Y-3.38772
G01 X12.60749 Y-3.57972
G01 X12.62807 Y-3.77078
G01 X12.62807 Y-3.84919
G01 X12.60470 Y-4.05303
G01 X12.55187 Y-4.23225
G01 X12.52187 Y-4.30469
G01 X12.42545 Y-4.47977
G01 X12.27851 Y-4.65851
G01 X12.12820 Y-4.78437
G01 X12.06299 Y-4.82793
G01 X11.92469 Y-4.90187
G01 X11.85225 Y-4.93187
G01 X11.66409 Y-4.98693
G01 X11.43000 Y-5.01000
G01 X11.19589 Y-4.98693
G01 X11.00772 Y-4.93187
G01 X10.93528 Y-4.90187
G01 X10.79698 Y-4.82793
G01 X10.73178 Y-4.78437
G01 X10.58146 Y-4.65851
G01 X10.43429 Y-4.47947
G01 X10.33810 Y-4.30469
G01 X10.30811 Y-4.23225
G01 X10.25251 Y-4.04053
G01 X10.23191 Y-3.84919
G01 X10.23191 Y-3.77078
G04 P0 ( dwell for no time -- G64 should not smooth over this point )
G00 Z0.63500 ( retract )

G00 X9.08914 Y-7.25000 ( rapid move to begin. )
G01 F30.00000
( Mill infeed pass 1/1 )
G01 Z-0.14000
G04 P0 ( dwell for no time -- G64 should not smooth over this point )
G01 F500.00000
G01 X9.08914 Y-7.25000
G01 X9.40420 Y-7.24807
G01 X9.45297 Y-7.24327
G01 X9.52988 Y-7.22795
G01 X9.57677 Y-7.21373
G01 X9.64921 Y-7.18373
G01 X9.72612 Y-7.14045
G01 X9.79551 Y-7.08596
G01 X9.87275 Y-7.00400
G01 X10.42462 Y-7.00397
G01 X10.45561 Y-7.04820
G01 X10.55510 Y-7.16943
G01 X10.61055 Y-7.22488
G01 X10.76330 Y-7.34776
G01 X10.93528 Y-7.44187
G01 X11.00772 Y-7.47187
G01 X11.19589 Y-7.52693
G01 X11.43000 Y-7.55000
G01 X11.66409 Y-7.52693
G01 X11.88921 Y-7.45863
G01 X12.06299 Y-7.36793
G01 X12.12820 Y-7.32437
G01 X12.24943 Y-7.22488
G01 X12.30488 Y-7.16943
G01 X12.42545 Y-7.01977
G01 X12.52187 Y-6.84469
G01 X12.54366 Y-6.79519
G01 X12.59738 Y-6.62214
G01 X12.61270 Y-6.54525
G01 X12.62807 Y-6.38919
G01 X12.62807 Y-6.31078
G01 X12.61270 Y-6.15470
G01 X12.59738 Y-6.07781
G01 X12.55187 Y-5.92772
G01 X12.52187 Y-5.85528
G01 X12.42555 Y-5.68035
G01 X12.30488 Y-5.53055
G01 X12.24943 Y-5.47510
G01 X12.09667 Y-5.35221
G01 X11.88921 Y-5.24134
G01 X11.66409 Y-5.17304
G01 X11.46919 Y-5.15191
G01 X11.39078 Y-5.15191
G01 X11.19589 Y-5.17304
G01 X11.00772 Y-5.22811
G01 X10.93528 Y-5.25810
G01 X10.79698 Y-5.33204
G01 X10.73178 Y-5.37561
G01 X10.58146 Y-5.50146
G01 X10.45561 Y-5.65178
G01 X10.42462 Y-5.69600
G01 X9.87275 Y-5.69600
G01 X9.79551 Y-5.61401
G01 X9.72612 Y-5.55953
G01 X9.69244 Y-5.53936
G01 X9.64921 Y-5.51624
G01 X9.57677 Y-5.48625
G01 X9.49180 Y-5.46247
G01 X9.45297 Y-5.45671
G01 X9.36498 Y-5.44998
G01 X8.41499 Y-5.44998
G01 X8.32701 Y-5.45671
G01 X8.25010 Y-5.47202
G01 X8.20321 Y-5.48625
G01 X8.13077 Y-5.51624
G01 X8.05386 Y-5.55953
G01 X7.98446 Y-5.61401
G01 X7.92902 Y-5.66946
G01 X7.87453 Y-5.73888
G01 X7.83125 Y-5.81576
G01 X7.81446 Y-5.85125
G01 X7.78700 Y-5.93509
G01 X7.77171 Y-6.01200
G01 X7.76498 Y-6.09999
G01 X7.76498 Y-6.59999
G01 X7.77171 Y-6.68797
G01 X7.78700 Y-6.76488
G01 X7.81446 Y-6.84873
G01 X7.83125 Y-6.88421
G01 X7.85434 Y-6.92744
G01 X7.89793 Y-6.99265
G01 X7.92902 Y-7.03052
G01 X7.98446 Y-7.08596
G01 X8.02234 Y-7.11705
G01 X8.05386 Y-7.14045
G01 X8.13077 Y-7.18373
G01 X8.16625 Y-7.20052
G01 X8.25010 Y-7.22795
G01 X8.32701 Y-7.24327
G01 X8.37578 Y-7.24807
G01 X9.08914 Y-7.25000
G01 X9.43051 Y-7.39140
G01 X9.66838 Y-7.36879
G01 X9.87008 Y-7.32686
G01 X10.01624 Y-7.28416
G01 X10.06478 Y-7.27365
G01 X10.06422 Y-7.26902
G01 X10.06478 Y-7.27365
G01 X10.11436 Y-7.27011
G01 X10.66566 Y-7.27011
G04 P0 ( dwell for no time -- G64 should not smooth over this point )
G00 Z0.63500 ( retract )

G00 X8.75876 Y-9.52873 ( rapid move to begin. )
G01 F30.00000
( Mill infeed pass 1/1 )
G01 Z-0.14000
G04 P0 ( dwell for no time -- G64 should not smooth over this point )
G01 F500.00000
G01 X8.75876 Y-9.52873
G01 X8.80123 Y-9.53719
G01 X8.88997 Y-9.54400
G01 X10.42462 Y-9.54400
G01 X10.45561 Y-9.58820
G01 X10.55510 Y-9.70943
G01 X10.61055 Y-9.76488
G01 X10.76330 Y-9.88776
G01 X10.93528 Y-9.98187
G01 X11.00772 Y-10.01187
G01 X11.15781 Y-10.05738
G01 X11.23470 Y-10.07270
G01 X11.43000 Y-10.09000
G01 X11.66409 Y-10.06693
G01 X11.88921 Y-9.99863
G01 X12.09667 Y-9.88776
G01 X12.24943 Y-9.76488
G01 X12.30488 Y-9.70943
G01 X12.42545 Y-9.55977
G01 X12.52187 Y-9.38469
G01 X12.54366 Y-9.33521
G01 X12.60752 Y-9.12017
G01 X12.63000 Y-8.89000
G01 X12.61270 Y-8.69470
G01 X12.60472 Y-8.64710
G01 X12.54359 Y-8.44459
G01 X12.52187 Y-8.39528
G01 X12.44793 Y-8.25698
G01 X12.40437 Y-8.19178
G01 X12.30488 Y-8.07055
G01 X12.24943 Y-8.01510
G01 X12.09667 Y-7.89221
G01 X11.92469 Y-7.79810
G01 X11.85225 Y-7.76811
G01 X11.70216 Y-7.72259
G01 X11.62528 Y-7.70727
G01 X11.43000 Y-7.68998
G01 X11.23470 Y-7.70727
G01 X11.15781 Y-7.72259
G01 X11.00772 Y-7.76811
G01 X10.93528 Y-7.79810
G01 X10.76330 Y-7.89221
G01 X10.66569 Y-7.96983
G01 X10.16442 Y-7.96983
G01 X9.99769 Y-8.01621
G01 X9.77989 Y-8.06158
G01 X9.53653 Y-8.08655
G01 X9.37372 Y-8.09272
G01 X9.37341 Y-8.09892
G01 X9.37372 Y-8.09272
G01 X9.32513 Y-8.09053
G01 X9.27732 Y-8.08164
G01 X9.23120 Y-8.06620
G01 X9.23011 Y-8.06986
G01 X9.23120 Y-8.06620
G01 X8.82132 Y-7.89643
G01 X9.23120 Y-8.06620
G01 X9.27732 Y-8.08164
G01 X9.32513 Y-8.09053
G01 X9.37372 Y-8.09272
G01 X9.53653 Y-8.08655
G01 X9.77958 Y-8.05967
G01 X9.99769 Y-8.01621
G01 X10.16442 Y-7.96983
G01 X10.66569 Y-7.96983
G01 X10.61055 Y-8.01510
G01 X10.55510 Y-8.07055
G01 X10.45561 Y-8.19178
G01 X10.42462 Y-8.23598
G01 X9.16089 Y-8.23598
G01 X8.72241 Y-7.79752
G01 X8.65485 Y-7.73956
G01 X8.62330 Y-7.71619
G01 X8.54573 Y-7.67253
G01 X8.47329 Y-7.64253
G01 X8.42564 Y-7.62808
G01 X8.34873 Y-7.61276
G01 X8.25995 Y-7.60595
G01 X3.52273 Y-7.60598
G01 X3.47462 Y-7.55038
G01 X3.44551 Y-7.52401
G01 X3.40764 Y-7.49292
G01 X3.34244 Y-7.44936
G01 X3.26372 Y-7.40946
G01 X3.22677 Y-7.39625
G01 X3.17988 Y-7.38203
G01 X3.10297 Y-7.36671
G01 X3.01498 Y-7.35998
G01 X2.06499 Y-7.35998
G01 X1.97701 Y-7.36671
G01 X1.90010 Y-7.38203
G01 X1.81625 Y-7.40946
G01 X1.73754 Y-7.44936
G01 X1.67234 Y-7.49292
G01 X1.63446 Y-7.52401
G01 X1.60531 Y-7.55038
G01 X1.54793 Y-7.61733
G01 X1.50434 Y-7.68253
G01 X1.46446 Y-7.76125
G01 X1.43700 Y-7.84509
G01 X1.42171 Y-7.92201
G01 X1.41498 Y-8.00999
G01 X1.41691 Y-8.54918
G01 X1.42171 Y-8.59798
G01 X1.43700 Y-8.67486
G01 X1.46446 Y-8.75873
G01 X1.50434 Y-8.83745
G01 X1.54793 Y-8.90265
G01 X1.60531 Y-8.96960
G01 X1.67234 Y-9.02706
G01 X1.73754 Y-9.07062
G01 X1.81625 Y-9.11050
G01 X1.90010 Y-9.13795
G01 X1.97701 Y-9.15325
G01 X2.06499 Y-9.15998
G01 X3.05420 Y-9.15807
G01 X3.10297 Y-9.15325
G01 X3.17988 Y-9.13795
G01 X3.26372 Y-9.11050
G01 X3.29921 Y-9.09373
G01 X3.34244 Y-9.07062
G01 X3.40764 Y-9.02706
G01 X3.47462 Y-8.96960
G01 X3.52275 Y-8.91398
G01 X5.63984 Y-8.91395
G01 X5.45612 Y-8.93402
G01 X5.25859 Y-8.99190
G01 X5.18615 Y-9.02193
G01 X5.03918 Y-9.10046
G01 X4.97401 Y-9.14403
G01 X4.84518 Y-9.24974
G01 X4.78975 Y-9.30519
G01 X4.68404 Y-9.43399
G01 X4.63685 Y-9.50600
G01 X3.52275 Y-9.50598
G01 X3.47462 Y-9.45037
G01 X3.40764 Y-9.39292
G01 X3.34244 Y-9.34936
G01 X3.29921 Y-9.32624
G01 X3.26372 Y-9.30946
G01 X3.17988 Y-9.28202
G01 X3.10297 Y-9.26671
G01 X3.01498 Y-9.25998
G01 X2.06499 Y-9.25998
G01 X1.97701 Y-9.26671
G01 X1.90010 Y-9.28202
G01 X1.81625 Y-9.30946
G01 X1.73754 Y-9.34936
G01 X1.67234 Y-9.39292
G01 X1.63446 Y-9.42401
G01 X1.60531 Y-9.45037
G01 X1.54793 Y-9.51733
G01 X1.50434 Y-9.58253
G01 X1.46446 Y-9.66125
G01 X1.45123 Y-9.69820
G01 X1.43700 Y-9.74509
G01 X1.42171 Y-9.82200
G01 X1.41498 Y-9.90999
G01 X1.41498 Y-10.40999
G01 X1.42171 Y-10.49797
G01 X1.43700 Y-10.57488
G01 X1.46446 Y-10.65873
G01 X1.50434 Y-10.73744
G01 X1.54793 Y-10.80265
G01 X1.57902 Y-10.84052
G01 X1.60531 Y-10.86960
G01 X1.67234 Y-10.92705
G01 X1.73754 Y-10.97062
G01 X1.81625 Y-11.01052
G01 X1.88598 Y-11.03368
G01 X1.88598 Y-11.26637
G01 X1.84125 Y-11.28197
G01 X1.76253 Y-11.32185
G01 X1.69733 Y-11.36541
G01 X1.63032 Y-11.42286
G01 X1.57292 Y-11.48984
G01 X1.52936 Y-11.55504
G01 X1.48946 Y-11.63373
G01 X1.46202 Y-11.71760
G01 X1.44671 Y-11.79452
G01 X1.43998 Y-11.88248
G01 X1.43998 Y-12.40749
G01 X1.44671 Y-12.49548
G01 X1.46202 Y-12.57236
G01 X1.48946 Y-12.65624
G01 X1.52936 Y-12.73495
G01 X1.57292 Y-12.80013
G01 X1.63032 Y-12.86711
G01 X1.69733 Y-12.92456
G01 X1.76253 Y-12.96812
G01 X1.84125 Y-13.00798
G01 X1.92509 Y-13.03543
G01 X2.00200 Y-13.05072
G01 X2.08999 Y-13.05748
G01 X2.98999 Y-13.05748
G01 X3.07797 Y-13.05072
G01 X3.15488 Y-13.03543
G01 X3.23873 Y-13.00798
G01 X3.31744 Y-12.96812
G01 X3.38264 Y-12.92456
G01 X3.42052 Y-12.89347
G01 X3.47596 Y-12.83802
G01 X3.50705 Y-12.80013
G01 X3.55062 Y-12.73495
G01 X3.59052 Y-12.65624
G01 X3.60373 Y-12.61928
G01 X3.61795 Y-12.57236
G01 X3.63327 Y-12.49548
G01 X3.63807 Y-12.44669
G01 X3.64000 Y-12.19380
G01 X3.74670 Y-12.09497
G01 X3.78676 Y-11.88679
G01 X3.89367 Y-11.40569
G01 X3.91254 Y-11.34356
G01 X3.90677 Y-11.34146
G01 X3.91254 Y-11.34356
G01 X3.94259 Y-11.28598
G01 X3.93700 Y-11.28199
G01 X3.94259 Y-11.28598
G01 X3.98275 Y-11.23495
G01 X4.03167 Y-11.19223
G01 X4.02483 Y-11.18288
G01 X4.03167 Y-11.19223
G01 X4.08762 Y-11.15929
G01 X4.18544 Y-11.11331
G01 X4.23324 Y-11.09500
G01 X4.23085 Y-11.08725
G01 X4.23324 Y-11.09500
G01 X4.28318 Y-11.08385
G01 X4.33408 Y-11.07824
G01 X4.85722 Y-11.08011
G01 X4.33423 Y-11.08011
G01 X4.28318 Y-11.08385
G01 X4.23324 Y-11.09500
G01 X4.18544 Y-11.11331
G01 X4.08762 Y-11.15929
G01 X4.03167 Y-11.19223
G01 X3.98275 Y-11.23495
G01 X3.94259 Y-11.28598
G01 X3.91254 Y-11.34356
G01 X3.89367 Y-11.40569
G01 X3.78676 Y-11.88679
G01 X3.74670 Y-12.09497
G01 X3.64000 Y-12.19380
G01 X3.64000 Y-11.88248
G01 X3.63327 Y-11.79452
G01 X3.61795 Y-11.71760
G01 X3.60373 Y-11.67069
G01 X3.57373 Y-11.59825
G01 X3.55062 Y-11.55504
G01 X3.50705 Y-11.48984
G01 X3.44960 Y-11.42286
G01 X3.42052 Y-11.39650
G01 X3.38264 Y-11.36541
G01 X3.31744 Y-11.32185
G01 X3.23873 Y-11.28197
G01 X3.19400 Y-11.26637
G01 X3.19400 Y-11.03368
G01 X3.26372 Y-11.01052
G01 X3.29921 Y-10.99373
G01 X3.34244 Y-10.97062
G01 X3.40764 Y-10.92705
G01 X3.47462 Y-10.86960
G01 X3.52275 Y-10.81397
G01 X4.63685 Y-10.81397
G01 X4.68404 Y-10.88598
G01 X4.81609 Y-11.04387
G01 X4.97401 Y-11.17595
G01 X5.03918 Y-11.21951
G01 X5.18615 Y-11.29805
G01 X5.25859 Y-11.32807
G01 X5.45612 Y-11.38596
G01 X5.69999 Y-11.40998
G01 X7.03920 Y-11.40805
G01 X7.24385 Y-11.38596
G01 X7.44139 Y-11.32807
G01 X7.51383 Y-11.29805
G01 X7.69445 Y-11.19932
G01 X7.84273 Y-11.08011
G01 X8.21002 Y-11.08011
G01 X8.35233 Y-10.90945
G01 X8.44243 Y-10.78801
G01 X8.55386 Y-10.62104
G01 X8.65594 Y-10.44611
G01 X8.49406 Y-10.28027
G01 X8.23552 Y-9.99340
G01 X8.25000 Y-10.16000
G01 X8.23173 Y-10.36503
G01 X8.21644 Y-10.44194
G01 X8.16806 Y-10.60138
G01 X8.13806 Y-10.67382
G01 X8.03933 Y-10.85446
G01 X7.91022 Y-11.01479
G01 X7.84273 Y-11.08011
G01 X7.91022 Y-11.01479
G01 X8.03933 Y-10.85446
G01 X8.13806 Y-10.67382
G01 X8.16806 Y-10.60138
G01 X8.21644 Y-10.44194
G01 X8.23173 Y-10.36503
G01 X8.25000 Y-10.16000
G01 X8.23173 Y-9.95495
G01 X8.21644 Y-9.87803
G01 X8.16806 Y-9.71860
G01 X8.13806 Y-9.64616
G01 X8.03933 Y-9.46551
G01 X7.91022 Y-9.30519
G01 X7.85480 Y-9.24974
G01 X7.69445 Y-9.12066
G01 X7.51383 Y-9.02193
G01 X7.44139 Y-8.99190
G01 X7.24385 Y-8.93402
G01 X7.05993 Y-8.91395
G01 X6.99999 Y-8.91197
G01 X5.63984 Y-8.91395
G01 X7.98906 Y-8.91398
G01 X8.42754 Y-9.35243
G01 X8.49511 Y-9.41040
G01 X8.52665 Y-9.43376
G01 X8.60422 Y-9.47743
G01 X8.67667 Y-9.50742
G01 X8.75876 Y-9.52873
G01 X9.00361 Y-9.80069
G01 X9.17697 Y-9.97875
G01 X9.46384 Y-9.89376
G01 X9.77382 Y-9.83564
G01 X9.97608 Y-9.81672
G01 X10.12002 Y-9.80981
G01 X10.66566 Y-9.81011
G04 P0 ( dwell for no time -- G64 should not smooth over this point )
G00 Z0.63500 ( retract )

G00 X10.66569 Y-13.04983 ( rapid move to begin. )
G01 F30.00000
( Mill infeed pass 1/1 )
G01 Z-0.14000
G04 P0 ( dwell for no time -- G64 should not smooth over this point )
G01 F500.00000
G01 X10.66569 Y-13.04983
G01 X10.76330 Y-12.97221
G01 X10.93528 Y-12.87810
G01 X11.00772 Y-12.84811
G01 X11.15781 Y-12.80259
G01 X11.23470 Y-12.78727
G01 X11.43000 Y-12.76995
G01 X11.62528 Y-12.78727
G01 X11.70216 Y-12.80259
G01 X11.88921 Y-12.86134
G01 X12.06299 Y-12.95204
G01 X12.12820 Y-12.99561
G01 X12.24943 Y-13.09510
G01 X12.30488 Y-13.15055
G01 X12.40437 Y-13.27175
G01 X12.43536 Y-13.31598
G01 X13.09629 Y-13.31598
G01 X13.11946 Y-13.24625
G01 X13.15936 Y-13.16751
G01 X13.20292 Y-13.10231
G01 X13.26037 Y-13.03533
G01 X13.35888 Y-12.95451
G01 X13.43576 Y-12.91125
G01 X13.50820 Y-12.88123
G01 X13.59319 Y-12.85748
G01 X13.71999 Y-12.84498
G01 X14.25920 Y-12.84691
G01 X14.34678 Y-12.85748
G01 X14.43177 Y-12.88123
G01 X14.50421 Y-12.91125
G01 X14.58110 Y-12.95451
G01 X14.65052 Y-13.00902
G01 X14.70596 Y-13.06444
G01 X14.73705 Y-13.10231
G01 X14.78062 Y-13.16751
G01 X14.80373 Y-13.21077
G01 X14.83373 Y-13.28321
G01 X14.85750 Y-13.36817
G01 X14.87000 Y-13.49499
G01 X14.87000 Y-14.44498
G01 X14.85750 Y-14.57180
G01 X14.82052 Y-14.69372
G01 X14.78062 Y-14.77244
G01 X14.73705 Y-14.83764
G01 X14.67960 Y-14.90462
G01 X14.61265 Y-14.96205
G01 X14.54744 Y-15.00563
G01 X14.50421 Y-15.02872
G01 X14.43177 Y-15.05875
G01 X14.34678 Y-15.08249
G01 X14.30797 Y-15.08826
G01 X14.21999 Y-15.09499
G01 X13.71999 Y-15.09499
G01 X13.59319 Y-15.08249
G01 X13.50820 Y-15.05875
G01 X13.43576 Y-15.02872
G01 X13.35888 Y-14.98544
G01 X13.26037 Y-14.90462
G01 X13.20292 Y-14.83764
G01 X13.15936 Y-14.77244
G01 X13.11946 Y-14.69372
G01 X13.09629 Y-14.62400
G01 X12.43536 Y-14.62400
G01 X12.40437 Y-14.66820
G01 X12.30488 Y-14.78943
G01 X12.24943 Y-14.84488
G01 X12.09667 Y-14.96776
G01 X11.92469 Y-15.06187
G01 X11.85225 Y-15.09187
G01 X11.70216 Y-15.13738
G01 X11.62528 Y-15.15270
G01 X11.46919 Y-15.16807
G01 X11.39078 Y-15.16807
G01 X11.23470 Y-15.15270
G01 X11.15781 Y-15.13738
G01 X10.97077 Y-15.07863
G01 X10.79698 Y-14.98793
G01 X10.73178 Y-14.94437
G01 X10.61055 Y-14.84488
G01 X10.55510 Y-14.78943
G01 X10.43221 Y-14.63667
G01 X10.33810 Y-14.46469
G01 X10.30811 Y-14.39225
G01 X10.25304 Y-14.20409
G01 X10.23191 Y-14.00919
G01 X10.23191 Y-13.93078
G01 X10.25850 Y-13.63411
G01 X10.27923 Y-13.49431
G01 X10.31697 Y-13.31481
G01 X10.38842 Y-13.22771
G01 X10.48230 Y-13.12413
G01 X10.55660 Y-13.04983
G01 X10.66569 Y-13.04983
G01 X10.61055 Y-13.09510
G01 X10.55510 Y-13.15055
G01 X10.45561 Y-13.27175
G01 X10.41204 Y-13.33698
G01 X10.33810 Y-13.47528
G01 X10.30811 Y-13.54772
G01 X10.25304 Y-13.73589
G01 X10.23191 Y-13.93078
G01 X10.23191 Y-14.00919
G01 X10.25850 Y-14.30581
G01 X10.27976 Y-14.44904
G01 X10.31817 Y-14.64602
G01 X10.35812 Y-14.89011
G01 X10.66566 Y-14.89011
G01 X8.91362 Y-16.88960
G01 X9.27966 Y-16.90418
G01 X9.30125 Y-16.97934
G01 X10.07204 Y-17.15783
G01 X10.00481 Y-16.89255
G01 X9.90811 Y-16.56423
G01 X9.96353 Y-16.39199
G01 X10.03531 Y-16.14228
G01 X10.14669 Y-15.69888
G01 X10.23125 Y-15.58983
G01 X10.66569 Y-15.58983
G01 X10.23125 Y-15.58983
G01 X10.15698 Y-15.68531
G01 X10.14669 Y-15.69888
G01 X10.03252 Y-16.15222
G01 X9.96353 Y-16.39199
G01 X9.90811 Y-16.56423
G01 X10.00481 Y-16.89255
G01 X10.07923 Y-17.18612
G01 X10.31756 Y-17.22077
G01 X10.49457 Y-17.25567
G01 X10.43221 Y-17.17667
G01 X10.41204 Y-17.14299
G01 X10.33810 Y-17.00469
G01 X10.30811 Y-16.93225
G01 X10.25304 Y-16.74409
G01 X10.22998 Y-16.51000
G01 X9.94903 Y-16.43979
G01 X10.22998 Y-16.51000
G01 X10.25304 Y-16.27589
G01 X10.30811 Y-16.08772
G01 X10.33810 Y-16.01528
G01 X10.43221 Y-15.84330
G01 X10.55510 Y-15.69055
G01 X10.61055 Y-15.63510
G01 X10.73178 Y-15.53561
G01 X10.79698 Y-15.49204
G01 X10.93528 Y-15.41810
G01 X11.00772 Y-15.38811
G01 X11.15781 Y-15.34259
G01 X11.23470 Y-15.32727
G01 X11.43000 Y-15.30998
G01 X11.62528 Y-15.32727
G01 X11.70216 Y-15.34259
G01 X11.85225 Y-15.38811
G01 X11.92469 Y-15.41810
G01 X12.06299 Y-15.49204
G01 X12.12820 Y-15.53561
G01 X12.24943 Y-15.63510
G01 X12.30488 Y-15.69055
G01 X12.42776 Y-15.84330
G01 X12.52187 Y-16.01528
G01 X12.55187 Y-16.08772
G01 X12.60749 Y-16.27972
G01 X12.62807 Y-16.47078
G01 X12.62807 Y-16.54919
G01 X12.60752 Y-16.74017
G01 X12.55187 Y-16.93225
G01 X12.52187 Y-17.00469
G01 X12.42776 Y-17.17667
G01 X12.30488 Y-17.32943
G01 X12.24943 Y-17.38488
G01 X12.12820 Y-17.48437
G01 X12.06299 Y-17.52793
G01 X11.88921 Y-17.61863
G01 X11.70216 Y-17.67738
G01 X11.62528 Y-17.69270
G01 X11.43000 Y-17.71000
G01 X11.23470 Y-17.69270
G01 X11.15781 Y-17.67738
G01 X11.00772 Y-17.63187
G01 X10.93528 Y-17.60187
G01 X10.79698 Y-17.52793
G01 X10.73178 Y-17.48437
G01 X10.61055 Y-17.38488
G01 X10.55510 Y-17.32943
G01 X10.49457 Y-17.25567
G01 X8.91362 Y-16.88960
G01 X9.30125 Y-16.97934
G01 X9.36305 Y-17.20141
G01 X9.43767 Y-17.50289
G01 X9.35987 Y-17.77235
G01 X9.34799 Y-17.83352
G01 X9.34524 Y-17.83304
G01 X9.34799 Y-17.83352
G01 X9.31080 Y-18.19410
G01 X9.30496 Y-18.34858
G01 X9.28759 Y-18.52460
G01 X9.24613 Y-18.74058
G01 X9.19114 Y-18.93748
G01 X9.01649 Y-19.35787
G01 X8.65622 Y-20.18609
G01 X8.40128 Y-20.80158
G01 X8.19457 Y-20.84288
G01 X7.92124 Y-20.91599
G01 X7.86003 Y-20.93968
G01 X7.85686 Y-20.93290
G01 X7.86003 Y-20.93968
G01 X7.80433 Y-20.97441
G01 X7.68599 Y-21.06320
G01 X7.50456 Y-21.17507
G01 X7.50230 Y-21.19803
G01 X7.47954 Y-21.27306
G01 X7.44258 Y-21.34222
G01 X7.39282 Y-21.40283
G01 X7.33222 Y-21.45259
G01 X7.26305 Y-21.48954
G01 X7.18802 Y-21.51230
G01 X7.10999 Y-21.52000
G01 X6.44896 Y-21.52000
G01 X6.44896 Y-21.54301
G01 X6.47131 Y-21.52000
G01 X6.44896 Y-21.54301
G01 X6.44896 Y-21.89206
G01 X6.48802 Y-21.92401
G01 X6.54345 Y-21.97946
G01 X6.57456 Y-22.01733
G01 X6.61812 Y-22.08253
G01 X6.65800 Y-22.16125
G01 X6.67123 Y-22.19820
G01 X6.69501 Y-22.28317
G01 X6.70075 Y-22.32200
G01 X6.70745 Y-22.40956
G01 X6.70745 Y-23.31042
G01 X6.69501 Y-23.43681
G01 X6.65800 Y-23.55873
G01 X6.61812 Y-23.63744
G01 X6.57456 Y-23.70264
G01 X6.54345 Y-23.74052
G01 X6.48802 Y-23.79596
G01 X6.41861 Y-23.85045
G01 X6.38495 Y-23.87062
G01 X6.34172 Y-23.89373
G01 X6.26928 Y-23.92373
G01 X6.18429 Y-23.94750
G01 X6.05749 Y-23.96000
G01 X5.53248 Y-23.96000
G01 X5.40568 Y-23.94750
G01 X5.32069 Y-23.92373
G01 X5.24825 Y-23.89373
G01 X5.20504 Y-23.87062
G01 X5.17136 Y-23.85045
G01 X5.10195 Y-23.79596
G01 X5.04650 Y-23.74052
G01 X5.01541 Y-23.70264
G01 X4.97185 Y-23.63744
G01 X4.93197 Y-23.55873
G01 X4.89499 Y-23.43681
G01 X4.88442 Y-23.34920
G01 X4.88249 Y-22.40999
G01 X4.89499 Y-22.28317
G01 X4.93197 Y-22.16125
G01 X4.97185 Y-22.08253
G01 X5.01541 Y-22.01733
G01 X5.04650 Y-21.97946
G01 X5.10195 Y-21.92401
G01 X5.14096 Y-21.89208
G01 X5.14096 Y-21.27407
G01 X5.11876 Y-21.20163
G01 X5.11000 Y-21.12000
G01 X5.11000 Y-19.51998
G01 X5.11767 Y-19.44195
G01 X5.14157 Y-19.36481
G01 X5.18163 Y-19.29262
G01 X5.21058 Y-19.25731
G01 X5.18163 Y-19.29262
G01 X5.21058 Y-19.25731
G01 X5.30207 Y-19.17974
G01 X5.35691 Y-19.15043
G01 X5.43194 Y-19.12767
G01 X5.51000 Y-19.11998
G01 X7.10999 Y-19.11998
G01 X7.18802 Y-19.12767
G01 X7.26305 Y-19.15043
G01 X7.33222 Y-19.18739
G01 X7.39282 Y-19.23715
G01 X7.42668 Y-19.27837
G01 X7.52097 Y-19.18409
G01 X7.52097 Y-19.10451
G01 X7.46780 Y-19.15470
G01 X7.41411 Y-19.18772
G01 X7.35881 Y-19.20921
G01 X7.41411 Y-19.18772
G01 X7.41779 Y-19.19420
G01 X7.41411 Y-19.18772
G01 X7.46780 Y-19.15470
G01 X7.52097 Y-19.10451
G01 X7.52097 Y-18.74789
G01 X7.48195 Y-18.71596
G01 X7.42650 Y-18.66052
G01 X7.39541 Y-18.62264
G01 X7.35185 Y-18.55744
G01 X7.32874 Y-18.51421
G01 X7.31197 Y-18.47873
G01 X7.28452 Y-18.39488
G01 X7.26923 Y-18.31797
G01 X7.26247 Y-18.23009
G01 X7.25576 Y-18.31797
G01 X7.24045 Y-18.39488
G01 X7.21302 Y-18.47873
G01 X7.17311 Y-18.55744
G01 X7.12955 Y-18.62264
G01 X7.09846 Y-18.66052
G01 X7.04301 Y-18.71596
G01 X7.00514 Y-18.74705
G01 X6.97360 Y-18.77045
G01 X6.89671 Y-18.81373
G01 X6.82427 Y-18.84373
G01 X6.73931 Y-18.86750
G01 X6.70047 Y-18.87327
G01 X6.61248 Y-18.88000
G01 X6.08749 Y-18.88000
G01 X5.96067 Y-18.86750
G01 X5.87571 Y-18.84373
G01 X5.80326 Y-18.81373
G01 X5.76003 Y-18.79062
G01 X5.72638 Y-18.77045
G01 X5.65696 Y-18.71596
G01 X5.60151 Y-18.66052
G01 X5.57042 Y-18.62264
G01 X5.52686 Y-18.55744
G01 X5.48696 Y-18.47873
G01 X5.44998 Y-18.35681
G01 X5.43748 Y-18.22999
G01 X5.43941 Y-17.29077
G01 X5.44998 Y-17.20317
G01 X5.47375 Y-17.11820
G01 X5.48696 Y-17.08125
G01 X5.52686 Y-17.00253
G01 X5.57042 Y-16.93733
G01 X5.60151 Y-16.89946
G01 X5.65696 Y-16.84401
G01 X5.69600 Y-16.81206
G01 X5.69600 Y-16.22275
G01 X5.61401 Y-16.14551
G01 X5.58292 Y-16.10764
G01 X5.53936 Y-16.04244
G01 X5.49946 Y-15.96372
G01 X5.46247 Y-15.84180
G01 X5.44998 Y-15.71498
G01 X5.44998 Y-14.76499
G01 X5.46247 Y-14.63817
G01 X5.48625 Y-14.55321
G01 X5.51624 Y-14.48077
G01 X5.53936 Y-14.43754
G01 X5.58292 Y-14.37234
G01 X5.61401 Y-14.33446
G01 X5.69600 Y-14.25722
G01 X5.69600 Y-13.94978
G01 X5.49496 Y-13.93172
G01 X5.41805 Y-13.91643
G01 X5.25859 Y-13.86807
G01 X5.18615 Y-13.83805
G01 X5.03918 Y-13.75951
G01 X4.97401 Y-13.71595
G01 X4.84518 Y-13.61023
G01 X4.78975 Y-13.55479
G01 X4.68404 Y-13.42598
G01 X4.64048 Y-13.36078
G01 X4.56192 Y-13.21382
G01 X4.53192 Y-13.14138
G01 X4.48353 Y-12.98194
G01 X4.46824 Y-12.90500
G01 X4.45191 Y-12.73917
G01 X4.45191 Y-12.66078
G01 X4.46824 Y-12.49495
G01 X4.48353 Y-12.41803
G01 X4.51490 Y-12.31463
G01 X4.43906 Y-12.19637
G01 X4.47131 Y-12.03198
G01 X4.52897 Y-11.77983
G01 X4.85724 Y-11.77983
G01 X4.78975 Y-11.84519
G01 X4.66065 Y-12.00551
G01 X4.56192 Y-12.18616
G01 X4.53192 Y-12.25860
G01 X4.51490 Y-12.31463
G01 X4.53192 Y-12.25860
G01 X4.56192 Y-12.18616
G01 X4.66065 Y-12.00551
G01 X4.78975 Y-11.84519
G01 X4.84518 Y-11.78974
G01 X5.00553 Y-11.66066
G01 X5.18615 Y-11.56193
G01 X5.25859 Y-11.53190
G01 X5.45612 Y-11.47402
G01 X5.69999 Y-11.44999
G01 X6.99999 Y-11.44999
G01 X7.20501 Y-11.46825
G01 X7.28193 Y-11.48354
G01 X7.44139 Y-11.53190
G01 X7.51383 Y-11.56193
G01 X7.66079 Y-11.64046
G01 X7.72597 Y-11.68403
G01 X7.85480 Y-11.78974
G01 X7.91022 Y-11.84519
G01 X7.97489 Y-11.92398
G01 X7.91022 Y-11.84519
G01 X7.84271 Y-11.77983
G01 X7.99264 Y-11.77983
G01 X7.97489 Y-11.92398
G01 X8.03933 Y-12.00551
G01 X8.13806 Y-12.18616
G01 X8.16806 Y-12.25860
G01 X8.21644 Y-12.41803
G01 X8.23173 Y-12.49495
G01 X8.24316 Y-12.61100
G01 X8.23598 Y-12.86144
G01 X8.23598 Y-14.11498
G01 X8.20346 Y-14.11498
G01 X8.23598 Y-14.08158
G01 X8.20346 Y-14.11498
G01 X7.99998 Y-14.11498
G01 X7.91200 Y-14.12171
G01 X7.87319 Y-14.12748
G01 X7.78820 Y-14.15123
G01 X7.71576 Y-14.18125
G01 X7.63887 Y-14.22453
G01 X7.60733 Y-14.24793
G01 X7.56945 Y-14.27902
G01 X7.51401 Y-14.33446
G01 X7.48292 Y-14.37234
G01 X7.43936 Y-14.43754
G01 X7.41624 Y-14.48077
G01 X7.39948 Y-14.51625
G01 X7.37202 Y-14.60010
G01 X7.35673 Y-14.67701
G01 X7.35000 Y-14.76499
G01 X7.35000 Y-15.71498
G01 X7.35673 Y-15.80297
G01 X7.37202 Y-15.87988
G01 X7.39948 Y-15.96372
G01 X7.43936 Y-16.04244
G01 X7.48292 Y-16.10764
G01 X7.51401 Y-16.14551
G01 X7.56945 Y-16.20096
G01 X7.60733 Y-16.23205
G01 X7.63887 Y-16.25544
G01 X7.71576 Y-16.29872
G01 X7.78820 Y-16.32875
G01 X7.83511 Y-16.34297
G01 X7.87319 Y-16.35249
G01 X7.96079 Y-16.36306
G01 X8.53920 Y-16.36306
G01 X8.62681 Y-16.35249
G01 X8.71177 Y-16.32875
G01 X8.78421 Y-16.29872
G01 X8.86112 Y-16.25544
G01 X8.93051 Y-16.20096
G01 X8.98596 Y-16.14551
G01 X9.01705 Y-16.10764
G01 X9.06061 Y-16.04244
G01 X9.10052 Y-15.96372
G01 X9.11372 Y-15.92677
G01 X9.12795 Y-15.87988
G01 X9.14326 Y-15.80297
G01 X9.14999 Y-15.71498
G01 X9.14999 Y-15.26487
G01 X9.35243 Y-15.06243
G01 X9.39963 Y-15.00906
G01 X9.45736 Y-14.92430
G01 X9.48586 Y-14.86837
G01 X9.52050 Y-14.77185
G01 X9.53963 Y-14.67109
G01 X9.54400 Y-14.59997
G01 X9.54400 Y-12.97089
G01 X10.42698 Y-12.08791
G01 X10.45561 Y-12.12820
G01 X10.55510 Y-12.24943
G01 X10.61055 Y-12.30488
G01 X10.66566 Y-12.35012
G01 X10.41880 Y-12.35012
G01 X10.35477 Y-12.35603
G01 X10.29289 Y-12.37356
G01 X10.23529 Y-12.40211
G01 X10.18385 Y-12.44074
G01 X10.09543 Y-12.52146
G01 X9.98146 Y-12.63541
G01 X9.86417 Y-12.76421
G01 X9.71459 Y-12.94955
G01 X9.68980 Y-12.98801
G01 X9.67021 Y-13.02939
G01 X9.62284 Y-13.20797
G01 X9.58835 Y-13.38308
G01 X9.56300 Y-13.55687
G01 X9.54400 Y-13.78504
G01 X9.54400 Y-14.15489
G01 X9.56244 Y-14.38316
G01 X9.59005 Y-14.56713
G01 X9.64880 Y-14.88143
G01 X9.68982 Y-15.14551
G01 X9.54603 Y-15.33296
G01 X9.52022 Y-15.37218
G01 X9.49993 Y-15.41447
G01 X9.48987 Y-15.40977
G01 X9.49993 Y-15.41447
G01 X9.48548 Y-15.45913
G01 X9.36015 Y-15.95844
G01 X9.28919 Y-16.20408
G01 X8.94108 Y-16.19042
G01 X8.98596 Y-16.14551
G01 X9.01705 Y-16.10764
G01 X9.06061 Y-16.04244
G01 X9.10052 Y-15.96372
G01 X9.12795 Y-15.87988
G01 X9.14326 Y-15.80297
G01 X9.14999 Y-15.71498
G01 X9.14999 Y-15.26487
G01 X9.35243 Y-15.06243
G01 X9.39963 Y-15.00906
G01 X9.43653 Y-14.95829
G01 X9.48586 Y-14.86837
G01 X9.52050 Y-14.77185
G01 X9.52980 Y-14.73309
G01 X9.53963 Y-14.67109
G01 X9.54400 Y-14.59997
G01 X9.54400 Y-13.78504
G01 X9.56445 Y-13.53985
G01 X9.58835 Y-13.38308
G01 X9.62218 Y-13.20782
G01 X9.67021 Y-13.02939
G01 X9.66521 Y-13.02736
G01 X9.67021 Y-13.02939
G01 X9.68980 Y-12.98801
G01 X9.71459 Y-12.94955
G01 X9.71243 Y-12.94811
G01 X9.71459 Y-12.94955
G01 X9.86371 Y-12.76378
G01 X9.98146 Y-12.63541
G01 X10.10719 Y-12.50889
G01 X10.18385 Y-12.44074
G01 X10.23529 Y-12.40211
G01 X10.23028 Y-12.39370
G01 X10.23529 Y-12.40211
G01 X10.29289 Y-12.37356
G01 X10.35477 Y-12.35603
G01 X10.35268 Y-12.34542
G01 X10.35477 Y-12.35603
G01 X10.41880 Y-12.35012
G01 X10.66566 Y-12.35012
G01 X10.73178 Y-12.40437
G01 X10.79698 Y-12.44793
G01 X10.93528 Y-12.52187
G01 X11.00772 Y-12.55187
G01 X11.19589 Y-12.60693
G01 X11.43000 Y-12.63000
G01 X11.66409 Y-12.60693
G01 X11.85225 Y-12.55187
G01 X11.92469 Y-12.52187
G01 X12.09667 Y-12.42776
G01 X12.24943 Y-12.30488
G01 X12.30488 Y-12.24943
G01 X12.40437 Y-12.12820
G01 X12.44793 Y-12.06299
G01 X12.52187 Y-11.92469
G01 X12.55187 Y-11.85225
G01 X12.60752 Y-11.66017
G01 X12.63000 Y-11.43000
G01 X12.60749 Y-11.19972
G01 X12.55187 Y-11.00772
G01 X12.52187 Y-10.93528
G01 X12.43213 Y-10.77062
G01 X12.30488 Y-10.61055
G01 X12.24943 Y-10.55510
G01 X12.09667 Y-10.43221
G01 X11.92469 Y-10.33810
G01 X11.85225 Y-10.30811
G01 X11.70216 Y-10.26259
G01 X11.62528 Y-10.24727
G01 X11.43000 Y-10.22998
G01 X11.23470 Y-10.24727
G01 X11.15781 Y-10.26259
G01 X11.00772 Y-10.30811
G01 X10.93528 Y-10.33810
G01 X10.76330 Y-10.43221
G01 X10.61055 Y-10.55510
G01 X10.55510 Y-10.61055
G01 X10.45561 Y-10.73178
G01 X10.42462 Y-10.77600
G01 X10.12078 Y-10.77791
G01 X10.07123 Y-10.78278
G01 X9.99432 Y-10.79810
G01 X9.90971 Y-10.82576
G01 X9.87422 Y-10.84255
G01 X9.83031 Y-10.86602
G01 X9.76511 Y-10.90958
G01 X9.69754 Y-10.96754
G01 X8.67204 Y-11.99304
G01 X9.69754 Y-10.96754
G01 X9.76511 Y-10.90958
G01 X9.83031 Y-10.86602
G01 X9.87422 Y-10.84255
G01 X9.90971 Y-10.82576
G01 X9.99432 Y-10.79810
G01 X10.07123 Y-10.78278
G01 X10.12078 Y-10.77791
G01 X10.42462 Y-10.77600
G01 X10.45561 Y-10.73178
G01 X10.55510 Y-10.61055
G01 X10.61055 Y-10.55510
G01 X10.66569 Y-10.50983
G01 X10.13803 Y-10.50983
G01 X10.03623 Y-10.51390
G01 X9.85121 Y-10.53216
G01 X9.59269 Y-10.58372
G01 X9.38685 Y-10.64628
G01 X9.33138 Y-10.66663
G01 X9.24657 Y-10.82558
G01 X9.15005 Y-10.98832
G01 X9.02012 Y-11.18410
G01 X8.89876 Y-11.34661
G01 X8.76950 Y-11.50419
G01 X8.70829 Y-11.57224
G01 X8.70024 Y-11.73185
G01 X8.67204 Y-11.99304
G01 X8.40623 Y-12.26061
G01 X8.34344 Y-12.34168
G01 X8.29412 Y-12.43160
G01 X8.25947 Y-12.52812
G01 X8.24316 Y-12.61100
G01 X8.23595 Y-12.86205
G01 X8.23173 Y-12.90500
G01 X8.21644 Y-12.98194
G01 X8.15485 Y-13.17831
G01 X8.05950 Y-13.36078
G01 X8.01594 Y-13.42598
G01 X7.91022 Y-13.55479
G01 X7.85480 Y-13.61023
G01 X7.69445 Y-13.73932
G01 X7.51383 Y-13.83805
G01 X7.44139 Y-13.86807
G01 X7.24385 Y-13.92596
G01 X7.00400 Y-13.94978
G01 X7.00400 Y-13.99746
G01 X7.04162 Y-13.94783
G01 X7.20501 Y-13.93172
G01 X7.04162 Y-13.94783
G01 X7.00400 Y-13.99746
G01 X7.00400 Y-14.25722
G01 X7.08596 Y-14.33446
G01 X7.11705 Y-14.37234
G01 X7.16062 Y-14.43754
G01 X7.18373 Y-14.48077
G01 X7.20052 Y-14.51625
G01 X7.22795 Y-14.60010
G01 X7.24327 Y-14.67701
G01 X7.25000 Y-14.76499
G01 X7.25000 Y-15.71498
G01 X7.24327 Y-15.80297
G01 X7.22795 Y-15.87988
G01 X7.21373 Y-15.92677
G01 X7.20052 Y-15.96372
G01 X7.16062 Y-16.04244
G01 X7.11705 Y-16.10764
G01 X7.08596 Y-16.14551
G01 X7.00400 Y-16.22275
G01 X7.00400 Y-16.81206
G01 X7.04301 Y-16.84401
G01 X7.09846 Y-16.89946
G01 X7.12955 Y-16.93733
G01 X7.17311 Y-17.00253
G01 X7.21302 Y-17.08125
G01 X7.22622 Y-17.11820
G01 X7.24045 Y-17.16509
G01 X7.25576 Y-17.24200
G01 X7.26247 Y-17.32989
G01 X7.26247 Y-18.23009
G01 X7.26247 Y-17.32989
G01 X7.26923 Y-17.24200
G01 X7.28452 Y-17.16509
G01 X7.31197 Y-17.08125
G01 X7.32874 Y-17.04576
G01 X7.35185 Y-17.00253
G01 X7.39541 Y-16.93733
G01 X7.42650 Y-16.89946
G01 X7.48195 Y-16.84401
G01 X7.55137 Y-16.78953
G01 X7.62826 Y-16.74625
G01 X7.70070 Y-16.71625
G01 X7.78568 Y-16.69247
G01 X7.91248 Y-16.67998
G01 X8.43750 Y-16.67998
G01 X8.56430 Y-16.69247
G01 X8.64928 Y-16.71625
G01 X8.72172 Y-16.74625
G01 X8.79861 Y-16.78953
G01 X8.86803 Y-16.84401
G01 X8.92348 Y-16.89946
G01 X8.95457 Y-16.93733
G01 X8.99813 Y-17.00253
G01 X9.03801 Y-17.08125
G01 X9.06546 Y-17.16509
G01 X9.08075 Y-17.24200
G01 X9.08555 Y-17.29077
G01 X9.08748 Y-18.22999
G01 X9.08075 Y-18.31797
G01 X9.06546 Y-18.39488
G01 X9.05124 Y-18.44177
G01 X9.03801 Y-18.47873
G01 X8.99813 Y-18.55744
G01 X8.95457 Y-18.62264
G01 X8.92348 Y-18.66052
G01 X8.86803 Y-18.71596
G01 X8.82899 Y-18.74792
G01 X8.82899 Y-19.45498
G01 X8.82218 Y-19.54373
G01 X8.80687 Y-19.62064
G01 X8.79241 Y-19.66829
G01 X8.76242 Y-19.74073
G01 X8.73895 Y-19.78464
G01 X8.69539 Y-19.84982
G01 X8.63742 Y-19.91741
G01 X7.77243 Y-20.78243
G01 X7.71906 Y-20.82963
G01 X7.63430 Y-20.88736
G01 X7.57837 Y-20.91586
G01 X7.50999 Y-20.94136
G01 X7.50999 Y-21.12000
G01 X7.50456 Y-21.17507
G04 P0 ( dwell for no time -- G64 should not smooth over this point )
G00 Z0.63500 ( retract )

G00 X13.68483 Y-27.08008 ( rapid move to begin. )
G01 F30.00000
( Mill infeed pass 1/1 )
G01 Z-0.14000
G04 P0 ( dwell for no time -- G64 should not smooth over this point )
G01 F500.00000
G01 X13.68483 Y-27.08008
G01 X13.68483 Y-26.21768
G01 X13.74630 Y-26.18483
G01 X13.81996 Y-26.15430
G01 X13.97892 Y-26.18585
G01 X14.41793 Y-26.26263
G01 X14.78247 Y-26.30378
G01 X14.96885 Y-26.30973
G01 X15.26281 Y-26.31168
G01 X15.35326 Y-26.29789
G01 X15.35488 Y-26.30399
G01 X15.35326 Y-26.29789
G01 X15.39659 Y-26.28321
G01 X15.63637 Y-26.18389
G01 X15.79753 Y-26.11265
G01 X15.99758 Y-26.00419
G01 X16.10606 Y-25.93757
G01 X16.14752 Y-25.90719
G01 X16.15730 Y-25.91808
G01 X16.14752 Y-25.90719
G01 X16.18409 Y-25.87104
G01 X16.28239 Y-25.72776
G01 X16.41097 Y-25.49187
G01 X16.41097 Y-25.09789
G01 X16.37195 Y-25.06596
G01 X16.31650 Y-25.01052
G01 X16.26202 Y-24.94110
G01 X16.21874 Y-24.86421
G01 X16.18874 Y-24.79177
G01 X16.16497 Y-24.70681
G01 X16.15249 Y-24.57999
G01 X16.14000 Y-24.70681
G01 X16.10302 Y-24.82873
G01 X16.06311 Y-24.90744
G01 X16.01955 Y-24.97264
G01 X15.96210 Y-25.03960
G01 X15.86360 Y-25.12045
G01 X15.78671 Y-25.16373
G01 X15.71427 Y-25.19373
G01 X15.62931 Y-25.21750
G01 X15.50248 Y-25.23000
G01 X14.97749 Y-25.23000
G01 X14.88951 Y-25.22327
G01 X14.81259 Y-25.20795
G01 X14.76571 Y-25.19373
G01 X14.69326 Y-25.16373
G01 X14.65003 Y-25.14062
G01 X14.58483 Y-25.09705
G01 X14.51788 Y-25.03960
G01 X14.46042 Y-24.97264
G01 X14.41686 Y-24.90744
G01 X14.37696 Y-24.82873
G01 X14.36139 Y-24.78400
G01 X13.96997 Y-24.78400
G01 X13.88123 Y-24.77719
G01 X13.80432 Y-24.76188
G01 X13.75667 Y-24.74742
G01 X13.71971 Y-24.73422
G01 X13.64031 Y-24.69396
G01 X13.57511 Y-24.65040
G01 X13.50754 Y-24.59243
G01 X12.56119 Y-23.64608
G01 X12.50584 Y-23.63508
G01 X12.39383 Y-23.59909
G01 X12.28921 Y-23.54534
G01 X12.22400 Y-23.50178
G01 X12.13429 Y-23.42568
G01 X12.03480 Y-23.30445
G01 X11.97767 Y-23.20163
G01 X11.94765 Y-23.12916
G01 X11.92489 Y-23.05413
G01 X11.90960 Y-22.97722
G01 X11.89998 Y-22.86000
G01 X11.90960 Y-22.74275
G01 X11.92489 Y-22.66584
G01 X11.94765 Y-22.59081
G01 X11.97767 Y-22.51834
G01 X12.01463 Y-22.44921
G01 X12.05819 Y-22.38400
G01 X12.13429 Y-22.29429
G01 X12.22400 Y-22.21819
G01 X12.28921 Y-22.17463
G01 X12.35834 Y-22.13767
G01 X12.43081 Y-22.10765
G01 X12.50584 Y-22.08489
G01 X12.58275 Y-22.06960
G01 X12.66078 Y-22.06191
G01 X12.73917 Y-22.06191
G01 X12.81722 Y-22.06960
G01 X12.89411 Y-22.08489
G01 X13.00615 Y-22.12089
G01 X13.11074 Y-22.17463
G01 X13.17595 Y-22.21819
G01 X13.26568 Y-22.29429
G01 X13.34178 Y-22.38400
G01 X13.38534 Y-22.44921
G01 X13.42230 Y-22.51834
G01 X13.45232 Y-22.59081
G01 X13.47508 Y-22.66584
G01 X13.48737 Y-22.72248
G01 X14.24089 Y-23.47598
G01 X14.36139 Y-23.47598
G01 X14.37696 Y-23.43125
G01 X14.41686 Y-23.35253
G01 X14.46042 Y-23.28733
G01 X14.51788 Y-23.22038
G01 X14.61638 Y-23.13953
G01 X14.69326 Y-23.09625
G01 X14.76571 Y-23.06625
G01 X14.85067 Y-23.04247
G01 X14.93827 Y-23.03191
G01 X15.50248 Y-23.02998
G01 X15.62931 Y-23.04247
G01 X15.71427 Y-23.06625
G01 X15.78671 Y-23.09625
G01 X15.86360 Y-23.13953
G01 X15.89514 Y-23.16292
G01 X15.96210 Y-23.22038
G01 X16.01955 Y-23.28733
G01 X16.06311 Y-23.35253
G01 X16.08623 Y-23.39576
G01 X16.10302 Y-23.43125
G01 X16.13045 Y-23.51509
G01 X16.14576 Y-23.59200
G01 X16.15249 Y-23.67989
G01 X16.15249 Y-24.57999
G01 X16.14000 Y-24.70681
G01 X16.10302 Y-24.82873
G01 X16.06311 Y-24.90744
G01 X16.01955 Y-24.97264
G01 X15.96210 Y-25.03960
G01 X15.93301 Y-25.06596
G01 X15.86360 Y-25.12045
G01 X15.79402 Y-25.15982
G01 X15.71165 Y-25.31626
G01 X15.66878 Y-25.38550
G01 X15.45445 Y-25.49926
G01 X15.19311 Y-25.61011
G01 X14.98178 Y-25.61011
G01 X14.84277 Y-25.60579
G01 X14.52568 Y-25.57084
G01 X14.10371 Y-25.49736
G01 X13.90701 Y-25.45738
G01 X13.90724 Y-25.45451
G01 X13.90701 Y-25.45738
G01 X13.85070 Y-25.45004
G01 X13.73688 Y-25.45847
G01 X13.60119 Y-25.43147
G01 X13.55354 Y-25.41702
G01 X13.45194 Y-25.38067
G01 X13.35438 Y-25.33452
G01 X13.31046 Y-25.31105
G01 X13.13122 Y-25.19129
G01 X13.01275 Y-25.08722
G01 X12.19619 Y-24.27064
G01 X12.20412 Y-24.25852
G01 X12.19619 Y-24.27064
G01 X12.12606 Y-24.24554
G01 X12.09004 Y-24.22850
G01 X11.95962 Y-23.94862
G01 X11.87033 Y-23.73366
G01 X11.84806 Y-23.67145
G01 X11.78918 Y-23.47793
G01 X11.73808 Y-23.23739
G01 X11.71212 Y-23.00536
G01 X11.70912 Y-22.94418
G01 X11.89998 Y-22.86000
G01 X11.70912 Y-22.94418
G01 X11.71212 Y-22.71461
G01 X11.72898 Y-22.54395
G01 X11.77374 Y-22.30374
G01 X11.84806 Y-22.04847
G01 X11.87031 Y-21.98629
G01 X11.95936 Y-21.77194
G01 X12.06109 Y-21.57476
G01 X12.21534 Y-21.54400
G01 X12.62637 Y-21.48136
G01 X12.99413 Y-21.41365
G01 X13.20495 Y-21.47837
G01 X13.76190 Y-22.58667
G01 X13.75593 Y-22.59084
G01 X13.76190 Y-22.58667
G01 X13.78946 Y-22.62304
G01 X13.90767 Y-22.75662
G01 X14.01760 Y-22.86986
G01 X14.06568 Y-22.91103
G01 X14.05809 Y-22.92149
G01 X14.06568 Y-22.91103
G01 X14.12039 Y-22.94285
G01 X14.17996 Y-22.96432
G01 X14.17803 Y-22.97054
G01 X14.17996 Y-22.96432
G01 X14.24236 Y-22.97511
G01 X14.60820 Y-23.00668
G01 X14.89161 Y-23.03648
G01 X14.97749 Y-23.02998
G01 X15.50248 Y-23.02998
G01 X15.62931 Y-23.04247
G01 X15.71427 Y-23.06625
G01 X15.78671 Y-23.09625
G01 X15.86360 Y-23.13953
G01 X15.96210 Y-23.22038
G01 X16.01955 Y-23.28733
G01 X16.06311 Y-23.35253
G01 X16.08623 Y-23.39576
G01 X16.11622 Y-23.46820
G01 X16.14000 Y-23.55317
G01 X16.15249 Y-23.67989
G01 X16.16497 Y-23.55317
G01 X16.18874 Y-23.46820
G01 X16.21874 Y-23.39576
G01 X16.26202 Y-23.31888
G01 X16.31650 Y-23.24946
G01 X16.37195 Y-23.19401
G01 X16.41097 Y-23.16208
G01 X16.41097 Y-23.05088
G01 X15.64079 Y-22.28068
G01 X15.54615 Y-22.32909
G01 X15.51457 Y-22.34039
G01 X15.58252 Y-22.33821
G01 X15.64729 Y-22.34860
G01 X15.75064 Y-22.39053
G01 X15.70896 Y-22.37090
G01 X15.71000 Y-22.36798
G01 X15.70896 Y-22.37090
G01 X15.64729 Y-22.34860
G01 X15.58252 Y-22.33821
G01 X15.58331 Y-22.33125
G01 X15.58252 Y-22.33821
G01 X15.51689 Y-22.33955
G01 X15.39606 Y-22.37461
G01 X15.27919 Y-22.38807
G01 X15.20078 Y-22.38807
G01 X15.12275 Y-22.38037
G01 X15.04584 Y-22.36508
G01 X14.93383 Y-22.32909
G01 X14.82921 Y-22.27534
G01 X14.76400 Y-22.23178
G01 X14.67429 Y-22.15568
G01 X14.59819 Y-22.06597
G01 X14.55463 Y-22.00077
G01 X14.50089 Y-21.89615
G01 X14.46489 Y-21.78413
G01 X14.44960 Y-21.70722
G01 X14.44191 Y-21.62919
G01 X14.44191 Y-21.55078
G01 X14.45537 Y-21.43392
G01 X14.50089 Y-21.28383
G01 X14.55463 Y-21.17921
G01 X14.59819 Y-21.11400
G01 X14.64462 Y-21.05744
G01 X14.59819 Y-21.11400
G01 X14.55463 Y-21.17921
G01 X14.51767 Y-21.24834
G01 X14.48765 Y-21.32081
G01 X14.45537 Y-21.43392
G01 X14.44191 Y-21.55078
G01 X14.44191 Y-21.62919
G01 X14.44960 Y-21.70722
G01 X14.46489 Y-21.78413
G01 X14.50089 Y-21.89615
G01 X14.55463 Y-22.00077
G01 X14.59819 Y-22.06597
G01 X14.64795 Y-22.12657
G01 X14.67429 Y-22.15568
G01 X14.76400 Y-22.23178
G01 X14.82921 Y-22.27534
G01 X14.89834 Y-22.31230
G01 X14.96639 Y-22.34075
G01 X14.42728 Y-22.28756
G01 X14.34831 Y-22.19947
G01 X13.90147 Y-21.30400
G01 X14.12527 Y-21.16193
G01 X14.31237 Y-21.06163
G01 X14.40630 Y-21.01680
G01 X14.64462 Y-21.05744
G01 X14.67429 Y-21.02429
G01 X14.76400 Y-20.94819
G01 X14.82921 Y-20.90463
G01 X14.89834 Y-20.86767
G01 X14.93383 Y-20.85089
G01 X15.04584 Y-20.81489
G01 X15.12275 Y-20.79960
G01 X15.20078 Y-20.79191
G01 X15.27919 Y-20.79191
G01 X15.35722 Y-20.79960
G01 X15.43413 Y-20.81489
G01 X15.55509 Y-20.85513
G01 X15.65077 Y-20.90463
G01 X15.69771 Y-20.93600
G01 X15.91419 Y-20.93791
G01 X15.96375 Y-20.94278
G01 X16.04066 Y-20.95810
G01 X16.08831 Y-20.97255
G01 X16.16075 Y-21.00255
G01 X16.20467 Y-21.02602
G01 X16.26987 Y-21.06958
G01 X16.30835 Y-21.10118
G01 X17.52742 Y-22.31753
G01 X17.58539 Y-22.38510
G01 X17.62895 Y-22.45030
G01 X17.65242 Y-22.49421
G01 X17.68241 Y-22.56666
G01 X17.69687 Y-22.61431
G01 X17.71218 Y-22.69122
G01 X17.71899 Y-22.77999
G01 X17.71896 Y-23.16206
G01 X17.75803 Y-23.19401
G01 X17.81348 Y-23.24946
G01 X17.86793 Y-23.31888
G01 X17.91122 Y-23.39576
G01 X17.94124 Y-23.46820
G01 X17.96499 Y-23.55317
G01 X17.97749 Y-23.67999
G01 X17.97749 Y-24.57999
G01 X17.97075 Y-24.66797
G01 X17.96499 Y-24.70681
G01 X17.94124 Y-24.79177
G01 X17.91122 Y-24.86421
G01 X17.88813 Y-24.90744
G01 X17.86793 Y-24.94110
G01 X17.81348 Y-25.01052
G01 X17.75803 Y-25.06596
G01 X17.71896 Y-25.09792
G01 X17.71899 Y-25.84409
G01 X18.62628 Y-26.75412
G01 X18.65787 Y-26.79263
G01 X18.70144 Y-26.85781
G01 X18.73974 Y-26.93759
G01 X18.79265 Y-26.97292
G01 X18.85960 Y-27.03038
G01 X18.94045 Y-27.12888
G01 X19.00052 Y-27.24125
G01 X19.02795 Y-27.32509
G01 X19.04327 Y-27.40200
G01 X19.04997 Y-27.48973
G01 X19.04997 Y-28.39024
G01 X19.04327 Y-28.47797
G01 X19.02795 Y-28.55488
G01 X19.01373 Y-28.60177
G01 X19.00052 Y-28.63873
G01 X18.96062 Y-28.71744
G01 X18.94045 Y-28.75110
G01 X18.88597 Y-28.82052
G01 X18.85960 Y-28.84960
G01 X18.79265 Y-28.90705
G01 X18.72745 Y-28.95062
G01 X18.68421 Y-28.97373
G01 X18.61177 Y-29.00373
G01 X18.52679 Y-29.02750
G01 X18.48797 Y-29.03327
G01 X18.39999 Y-29.04000
G01 X17.87500 Y-29.04000
G01 X17.74817 Y-29.02750
G01 X17.66321 Y-29.00373
G01 X17.59077 Y-28.97373
G01 X17.54754 Y-28.95062
G01 X17.48234 Y-28.90705
G01 X17.44444 Y-28.87596
G01 X17.38902 Y-28.82052
G01 X17.33453 Y-28.75110
G01 X17.29125 Y-28.67421
G01 X17.25887 Y-28.59400
G01 X16.95313 Y-28.59400
G01 X16.90594 Y-28.66598
G01 X16.80022 Y-28.79479
G01 X16.73273 Y-28.86012
G01 X17.08061 Y-28.86012
G01 X17.08092 Y-28.85709
G01 X17.08061 Y-28.86012
G01 X17.14530 Y-28.86613
G01 X17.20774 Y-28.88402
G01 X17.26583 Y-28.91315
G01 X17.31749 Y-28.95249
G01 X17.38191 Y-29.01216
G01 X17.45425 Y-29.03172
G01 X17.63309 Y-29.06575
G01 X17.77355 Y-29.07962
G01 X17.87931 Y-29.08313
G01 X18.39565 Y-29.08313
G01 X18.50141 Y-29.07962
G01 X18.64172 Y-29.06575
G01 X18.70012 Y-29.05575
G01 X18.70012 Y-28.96522
G01 X18.70012 Y-29.05575
G01 X18.64172 Y-29.06575
G01 X18.50141 Y-29.07962
G01 X18.39565 Y-29.08313
G01 X17.87931 Y-29.08313
G01 X17.77355 Y-29.07962
G01 X17.63309 Y-29.06575
G01 X17.45425 Y-29.03172
G01 X17.38191 Y-29.01216
G01 X17.31749 Y-28.95249
G01 X17.26583 Y-28.91315
G01 X17.26865 Y-28.90888
G01 X17.26583 Y-28.91315
G01 X17.20774 Y-28.88402
G01 X17.20995 Y-28.87754
G01 X17.20774 Y-28.88402
G01 X17.14530 Y-28.86613
G01 X17.08061 Y-28.86012
G01 X16.73273 Y-28.86012
G01 X16.58445 Y-28.97932
G01 X16.40383 Y-29.07805
G01 X16.33139 Y-29.10807
G01 X16.13385 Y-29.16596
G01 X15.88999 Y-29.18998
G01 X14.58999 Y-29.18998
G01 X14.34612 Y-29.16596
G01 X14.14859 Y-29.10807
G01 X14.07615 Y-29.07805
G01 X13.92918 Y-28.99951
G01 X13.86401 Y-28.95595
G01 X13.73518 Y-28.85023
G01 X13.68483 Y-28.80040
G01 X13.74724 Y-28.86012
G01 X13.68483 Y-28.86012
G01 X13.68483 Y-28.80040
G01 X13.57404 Y-28.66598
G01 X13.53048 Y-28.60078
G01 X13.45192 Y-28.45382
G01 X13.42192 Y-28.38138
G01 X13.37353 Y-28.22194
G01 X13.35824 Y-28.14503
G01 X13.34191 Y-27.97919
G01 X13.34191 Y-27.90078
G01 X13.35824 Y-27.73495
G01 X13.37353 Y-27.65803
G01 X13.43513 Y-27.46164
G01 X13.53048 Y-27.27919
G01 X13.57404 Y-27.21399
G01 X13.67975 Y-27.08519
G01 X13.73518 Y-27.02974
G01 X13.89553 Y-26.90066
G01 X14.07615 Y-26.80193
G01 X14.14859 Y-26.77190
G01 X14.30805 Y-26.72354
G01 X14.38496 Y-26.70825
G01 X14.58999 Y-26.68999
G01 X15.56509 Y-26.68999
G01 X16.41097 Y-25.84404
G01 X16.41097 Y-25.49187
G04 P0 ( dwell for no time -- G64 should not smooth over this point )
G00 Z0.63500 ( retract )

G00 X16.89915 Y-27.20571 ( rapid move to begin. )
G01 F30.00000
( Mill infeed pass 1/1 )
G01 Z-0.14000
G04 P0 ( dwell for no time -- G64 should not smooth over this point )
G01 F500.00000
G01 X16.89915 Y-27.20571
G01 X16.95313 Y-27.28598
G01 X17.25887 Y-27.28598
G01 X17.27233 Y-27.24724
G01 X17.06496 Y-27.03987
G01 X16.89915 Y-27.20571
G04 P0 ( dwell for no time -- G64 should not smooth over this point )
G00 Z0.63500 ( retract )

G00 X23.60653 Y-25.11461 ( rapid move to begin. )
G01 F30.00000
( Mill infeed pass 1/1 )
G01 Z-0.14000
G04 P0 ( dwell for no time -- G64 should not smooth over this point )
G01 F500.00000
G01 X23.60653 Y-25.11461
G01 X23.79033 Y-24.86193
G01 X23.78011 Y-24.77633
G01 X23.78011 Y-23.37069
G01 X23.78314 Y-23.32487
G01 X23.77321 Y-23.32322
G01 X23.78314 Y-23.32487
G01 X23.79213 Y-23.27981
G01 X23.80696 Y-23.23635
G01 X23.88370 Y-23.05187
G01 X23.95172 Y-22.82817
G01 X23.98575 Y-22.64933
G01 X23.99962 Y-22.50892
G01 X24.00313 Y-22.40318
G01 X24.00140 Y-21.81713
G01 X23.98575 Y-21.64062
G01 X23.97577 Y-21.58233
G01 X23.88522 Y-21.58233
G01 X23.85045 Y-21.52137
G01 X23.76960 Y-21.42287
G01 X23.70264 Y-21.36541
G01 X23.63744 Y-21.32185
G01 X23.55873 Y-21.28197
G01 X23.47488 Y-21.25452
G01 X23.39797 Y-21.23923
G01 X23.30999 Y-21.23250
G01 X22.40989 Y-21.23247
G01 X22.28317 Y-21.24497
G01 X22.16125 Y-21.28197
G01 X22.08253 Y-21.32185
G01 X22.01733 Y-21.36541
G01 X21.95038 Y-21.42287
G01 X21.86953 Y-21.52137
G01 X21.82625 Y-21.59825
G01 X21.79625 Y-21.67070
G01 X21.77247 Y-21.75568
G01 X21.75998 Y-21.88248
G01 X21.76168 Y-22.44227
G01 X21.75998 Y-21.99112
G01 X21.71682 Y-22.09328
G01 X21.71682 Y-22.24890
G01 X21.75764 Y-22.43943
G01 X21.76168 Y-22.44227
G01 X21.77247 Y-22.53430
G01 X21.79625 Y-22.61928
G01 X21.82625 Y-22.69172
G01 X21.86953 Y-22.76861
G01 X21.89292 Y-22.80013
G01 X21.95038 Y-22.86711
G01 X21.97946 Y-22.89348
G01 X22.01733 Y-22.92457
G01 X22.08253 Y-22.96813
G01 X22.16125 Y-23.00801
G01 X22.20598 Y-23.02360
G01 X22.20598 Y-24.94227
G01 X22.17463 Y-24.98921
G01 X22.12089 Y-25.09383
G01 X22.08489 Y-25.20584
G01 X22.06960 Y-25.28275
G01 X22.06191 Y-25.36078
G01 X22.06191 Y-25.43919
G01 X22.06960 Y-25.51722
G01 X22.08489 Y-25.59413
G01 X22.10765 Y-25.66916
G01 X22.12089 Y-25.70615
G01 X22.17463 Y-25.81077
G01 X22.21819 Y-25.87597
G01 X22.26795 Y-25.93658
G01 X22.32340 Y-25.99202
G01 X22.40968 Y-26.06083
G01 X22.54463 Y-26.13472
G01 X22.66584 Y-26.17508
G01 X22.74275 Y-26.19037
G01 X22.82078 Y-26.19807
G01 X22.89919 Y-26.19807
G01 X23.00003 Y-26.18697
G01 X23.05413 Y-26.17508
G01 X23.15045 Y-26.14470
G01 X23.20163 Y-26.12230
G01 X23.27077 Y-26.08534
G01 X23.33597 Y-26.04176
G01 X23.39657 Y-25.99202
G01 X23.45202 Y-25.93658
G01 X23.50178 Y-25.87597
G01 X23.54534 Y-25.81077
G01 X23.59909 Y-25.70615
G01 X23.63508 Y-25.59413
G01 X23.65037 Y-25.51722
G01 X23.65807 Y-25.43919
G01 X23.65807 Y-25.36078
G01 X23.64461 Y-25.24392
G01 X23.59909 Y-25.09383
G01 X23.54534 Y-24.98921
G01 X23.51400 Y-24.94227
G01 X23.51400 Y-23.02360
G01 X23.59421 Y-22.99122
G01 X23.63744 Y-22.96813
G01 X23.70264 Y-22.92457
G01 X23.76960 Y-22.86711
G01 X23.85045 Y-22.76861
G01 X23.89373 Y-22.69172
G01 X23.92373 Y-22.61928
G01 X23.94750 Y-22.53430
G01 X23.96000 Y-22.40750
G01 X23.96000 Y-21.88248
G01 X23.94750 Y-21.75568
G01 X23.92373 Y-21.67070
G01 X23.88522 Y-21.58233
G01 X23.85045 Y-21.52137
G01 X23.76960 Y-21.42287
G01 X23.70264 Y-21.36541
G01 X23.63744 Y-21.32185
G01 X23.59421 Y-21.29874
G01 X23.55873 Y-21.28197
G01 X23.47488 Y-21.25452
G01 X23.39797 Y-21.23923
G01 X23.30999 Y-21.23250
G01 X22.40989 Y-21.23247
G01 X22.28317 Y-21.22000
G01 X22.19820 Y-21.19622
G01 X22.12576 Y-21.16623
G01 X22.08253 Y-21.14311
G01 X22.04888 Y-21.12294
G01 X21.97946 Y-21.06846
G01 X21.92401 Y-21.01301
G01 X21.89206 Y-20.97397
G01 X21.86089 Y-20.97397
G01 X20.97400 Y-21.86089
G01 X20.97397 Y-22.40227
G01 X21.00534 Y-22.44921
G01 X21.04230 Y-22.51834
G01 X21.06653 Y-22.57463
G01 X21.07011 Y-22.56980
G01 X21.01974 Y-22.33486
G01 X21.01710 Y-22.02368
G01 X21.02383 Y-21.95540
G01 X21.04375 Y-21.88980
G01 X21.11469 Y-21.72018
G01 X21.04375 Y-21.88980
G01 X21.04039 Y-21.88875
G01 X21.04375 Y-21.88980
G01 X21.02383 Y-21.95540
G01 X21.01710 Y-22.02368
G01 X21.01345 Y-22.02332
G01 X21.01710 Y-22.02368
G01 X21.01974 Y-22.33486
G01 X21.01560 Y-22.33534
G01 X21.01974 Y-22.33486
G01 X21.05215 Y-22.48085
G01 X21.07011 Y-22.56980
G01 X21.06653 Y-22.57463
G01 X21.10461 Y-22.70392
G01 X21.11807 Y-22.82078
G01 X21.11807 Y-22.89919
G01 X21.11037 Y-22.97722
G01 X21.09508 Y-23.05413
G01 X21.05909 Y-23.16615
G01 X21.00534 Y-23.27077
G01 X20.96178 Y-23.33597
G01 X20.88845 Y-23.42261
G01 X20.79597 Y-23.50178
G01 X20.73077 Y-23.54534
G01 X20.66163 Y-23.58230
G01 X20.58916 Y-23.61232
G01 X20.48848 Y-23.64151
G01 X20.35919 Y-23.65807
G01 X20.28078 Y-23.65807
G01 X20.20275 Y-23.65037
G01 X20.12584 Y-23.63508
G01 X20.00476 Y-23.59480
G01 X19.90921 Y-23.54534
G01 X19.84400 Y-23.50178
G01 X19.75218 Y-23.42335
G01 X19.67819 Y-23.33597
G01 X19.63463 Y-23.27077
G01 X19.58089 Y-23.16615
G01 X19.53537 Y-23.01606
G01 X19.52191 Y-22.89919
G01 X19.52191 Y-22.82078
G01 X19.53537 Y-22.70392
G01 X19.56765 Y-22.59081
G01 X19.59767 Y-22.51834
G01 X19.63463 Y-22.44921
G01 X19.66598 Y-22.40227
G01 X19.66791 Y-21.55078
G01 X19.67278 Y-21.50123
G01 X19.68810 Y-21.42432
G01 X19.70255 Y-21.37667
G01 X19.71576 Y-21.33971
G01 X19.75602 Y-21.26031
G01 X19.79958 Y-21.19511
G01 X19.85754 Y-21.12754
G01 X21.12754 Y-19.85754
G01 X21.19511 Y-19.79958
G01 X21.26031 Y-19.75602
G01 X21.30422 Y-19.73255
G01 X21.37667 Y-19.70255
G01 X21.42432 Y-19.68810
G01 X21.50123 Y-19.67278
G01 X21.59000 Y-19.66598
G01 X21.89206 Y-19.66600
G01 X21.92401 Y-19.62696
G01 X21.97946 Y-19.57151
G01 X22.04888 Y-19.51703
G01 X22.08253 Y-19.49686
G01 X22.12576 Y-19.47375
G01 X22.19820 Y-19.44375
G01 X22.28317 Y-19.41998
G01 X22.32200 Y-19.41421
G01 X22.40999 Y-19.40748
G01 X23.30999 Y-19.40748
G01 X23.43681 Y-19.41998
G01 X23.52177 Y-19.44375
G01 X23.59421 Y-19.47375
G01 X23.67110 Y-19.51703
G01 X23.70264 Y-19.54042
G01 X23.74052 Y-19.57151
G01 X23.79596 Y-19.62696
G01 X23.82705 Y-19.66483
G01 X23.85045 Y-19.69638
G01 X23.89373 Y-19.77326
G01 X23.92373 Y-19.84571
G01 X23.93795 Y-19.89259
G01 X23.95327 Y-19.96951
G01 X23.96000 Y-20.05749
G01 X23.96000 Y-20.58248
G01 X23.94750 Y-20.70931
G01 X23.92373 Y-20.79427
G01 X23.89373 Y-20.86671
G01 X23.85045 Y-20.94360
G01 X23.79596 Y-21.01301
G01 X23.74052 Y-21.06846
G01 X23.70264 Y-21.09955
G01 X23.67110 Y-21.12294
G01 X23.59421 Y-21.16623
G01 X23.52177 Y-21.19622
G01 X23.43681 Y-21.22000
G01 X23.30999 Y-21.23250
G01 X23.43681 Y-21.22000
G01 X23.52177 Y-21.19622
G01 X23.59421 Y-21.16623
G01 X23.67110 Y-21.12294
G01 X23.74052 Y-21.06846
G01 X23.79596 Y-21.01301
G01 X23.82705 Y-20.97514
G01 X23.85045 Y-20.94360
G01 X23.88522 Y-20.88261
G01 X23.97575 Y-20.88261
G01 X23.98575 Y-20.82422
G01 X23.99962 Y-20.68393
G01 X24.00313 Y-20.57817
G01 X24.00313 Y-20.06178
G01 X23.99962 Y-19.95602
G01 X23.98575 Y-19.81573
G01 X23.95169 Y-19.63656
G01 X23.89548 Y-19.44609
G01 X23.80277 Y-19.22069
G01 X23.31029 Y-19.30634
G01 X23.21494 Y-19.32005
G01 X23.07377 Y-19.33400
G01 X22.97615 Y-19.40748
G01 X23.02058 Y-18.56349
G01 X23.08271 Y-18.62999
G01 X23.25022 Y-18.60718
G01 X23.73277 Y-18.52290
G01 X23.78624 Y-18.33621
G01 X23.82187 Y-18.15739
G01 X23.83099 Y-18.09603
G01 X23.85085 Y-17.86418
G01 X23.84783 Y-17.63461
G01 X23.83099 Y-17.46395
G01 X23.78265 Y-17.20962
G01 X23.67963 Y-17.08963
G01 X23.50491 Y-16.91917
G01 X23.36010 Y-16.80037
G01 X23.16216 Y-16.66303
G01 X23.10991 Y-16.62201
G01 X22.29813 Y-15.80789
G01 X22.19884 Y-15.71465
G01 X22.01690 Y-15.56756
G01 X21.84016 Y-15.44958
G01 X21.63923 Y-15.33853
G01 X21.43288 Y-15.23479
G01 X21.28873 Y-15.15626
G01 X21.23757 Y-15.15626
G01 X21.15571 Y-15.21046
G01 X20.99889 Y-15.30447
G01 X20.75180 Y-15.43817
G01 X20.49208 Y-15.56108
G01 X20.39704 Y-15.58638
G01 X20.39800 Y-15.59301
G01 X20.39704 Y-15.58638
G01 X20.34797 Y-15.58983
G01 X19.81429 Y-15.58983
G01 X19.74820 Y-15.53561
G01 X19.68299 Y-15.49204
G01 X19.54469 Y-15.41810
G01 X19.47225 Y-15.38811
G01 X19.32216 Y-15.34259
G01 X19.24528 Y-15.32727
G01 X19.08919 Y-15.31191
G01 X19.01078 Y-15.31191
G01 X18.85470 Y-15.32727
G01 X18.77781 Y-15.34259
G01 X18.62772 Y-15.38811
G01 X18.55528 Y-15.41810
G01 X18.41698 Y-15.49204
G01 X18.35178 Y-15.53561
G01 X18.20146 Y-15.66146
G01 X18.07561 Y-15.81178
G01 X18.03204 Y-15.87698
G01 X17.95810 Y-16.01528
G01 X17.92811 Y-16.08772
G01 X17.88259 Y-16.23781
G01 X17.86727 Y-16.31470
G01 X17.84998 Y-16.51000
G01 X17.86727 Y-16.70528
G01 X17.88259 Y-16.78216
G01 X17.92811 Y-16.93225
G01 X17.95810 Y-17.00469
G01 X18.05429 Y-17.17947
G01 X18.17510 Y-17.32943
G01 X18.23055 Y-17.38488
G01 X18.35178 Y-17.48437
G01 X18.41698 Y-17.52793
G01 X18.55528 Y-17.60187
G01 X18.62772 Y-17.63187
G01 X18.77781 Y-17.67738
G01 X18.85470 Y-17.69270
G01 X19.01078 Y-17.70807
G01 X19.08919 Y-17.70807
G01 X19.24528 Y-17.69270
G01 X19.32216 Y-17.67738
G01 X19.47225 Y-17.63187
G01 X19.54469 Y-17.60187
G01 X19.68299 Y-17.52793
G01 X19.74820 Y-17.48437
G01 X19.89851 Y-17.35851
G01 X20.02437 Y-17.20820
G01 X20.05391 Y-17.16397
G01 X21.31908 Y-17.16400
G01 X22.07260 Y-17.91749
G01 X22.08489 Y-17.97413
G01 X22.10765 Y-18.04916
G01 X22.13767 Y-18.12163
G01 X22.17463 Y-18.19077
G01 X22.21819 Y-18.25597
G01 X22.29221 Y-18.34335
G01 X22.38400 Y-18.42178
G01 X22.44921 Y-18.46534
G01 X22.55383 Y-18.51909
G01 X22.66584 Y-18.55508
G01 X22.74275 Y-18.57037
G01 X22.82078 Y-18.57807
G01 X22.89919 Y-18.57807
G01 X23.01606 Y-18.56461
G01 X23.16615 Y-18.51909
G01 X23.27077 Y-18.46534
G01 X23.33597 Y-18.42178
G01 X23.42568 Y-18.34568
G01 X23.50178 Y-18.25597
G01 X23.54534 Y-18.19077
G01 X23.58230 Y-18.12163
G01 X23.59909 Y-18.08615
G01 X23.63508 Y-17.97413
G01 X23.65037 Y-17.89722
G01 X23.65807 Y-17.81919
G01 X23.65807 Y-17.74078
G01 X23.64461 Y-17.62392
G01 X23.61232 Y-17.51081
G01 X23.58230 Y-17.43834
G01 X23.54534 Y-17.36921
G01 X23.50178 Y-17.30400
G01 X23.42568 Y-17.21429
G01 X23.33597 Y-17.13819
G01 X23.27077 Y-17.09463
G01 X23.16615 Y-17.04089
G01 X23.05413 Y-17.00489
G01 X22.99749 Y-16.99260
G01 X22.05243 Y-16.04754
G01 X21.98487 Y-15.98958
G01 X21.91967 Y-15.94602
G01 X21.87575 Y-15.92255
G01 X21.80331 Y-15.89255
G01 X21.75566 Y-15.87810
G01 X21.67875 Y-15.86278
G01 X21.62919 Y-15.85791
G01 X20.05391 Y-15.85600
G01 X20.02437 Y-15.81178
G01 X19.92488 Y-15.69055
G01 X19.89851 Y-15.66146
G01 X19.81429 Y-15.58983
G01 X22.24743 Y-9.23983
G01 X22.32315 Y-9.23983
G01 X22.56887 Y-9.41675
G01 X22.32315 Y-9.23983
G01 X21.67753 Y-9.23983
G01 X21.58924 Y-9.37189
G01 X21.47379 Y-9.70539
G01 X21.36752 Y-10.03242
G01 X21.36557 Y-10.05220
G01 X21.36750 Y-10.28753
G01 X21.53348 Y-10.80023
G01 X21.53732 Y-10.79945
G01 X21.53348 Y-10.80023
G01 X21.56729 Y-11.12035
G01 X21.57451 Y-11.29441
G01 X21.57451 Y-11.56559
G01 X21.56762 Y-11.73965
G01 X21.53798 Y-12.03142
G01 X21.50626 Y-12.23929
G01 X21.50626 Y-13.16063
G01 X21.53798 Y-13.36853
G01 X21.56714 Y-13.66035
G01 X21.57440 Y-13.82583
G01 X21.57979 Y-14.25357
G01 X21.58609 Y-14.41816
G01 X21.64136 Y-14.55158
G01 X21.75246 Y-14.61232
G01 X21.96871 Y-14.72120
G01 X22.20760 Y-14.85306
G01 X22.42716 Y-14.99977
G01 X22.66287 Y-15.18963
G01 X22.78987 Y-15.31008
G01 X23.58220 Y-16.10241
G01 X23.79769 Y-16.25338
G01 X23.95538 Y-16.38366
G01 X24.03958 Y-16.45892
G01 X24.24557 Y-16.67099
G01 X24.37196 Y-16.82410
G01 X24.40203 Y-16.86644
G01 X24.41197 Y-16.86100
G01 X24.40203 Y-16.86644
G01 X24.42553 Y-16.91274
G01 X24.46856 Y-17.06123
G01 X24.52502 Y-17.36964
G01 X24.54689 Y-17.59158
G01 X24.55169 Y-17.87281
G01 X24.54501 Y-17.98556
G01 X24.52647 Y-18.17327
G01 X24.51090 Y-18.28587
G01 X24.46706 Y-18.49793
G01 X24.44798 Y-18.57652
G01 X24.37702 Y-18.80883
G01 X24.44697 Y-18.94614
G01 X24.53439 Y-19.15254
G01 X24.61644 Y-19.40883
G01 X24.67298 Y-19.67235
G01 X24.69680 Y-19.89579
G01 X24.70285 Y-20.05749
G01 X24.70285 Y-20.58248
G01 X24.69904 Y-20.72706
G01 X24.67280 Y-20.96757
G01 X24.63625 Y-21.14852
G01 X24.61522 Y-21.23247
G01 X24.63630 Y-21.31667
G01 X24.67277 Y-21.49724
G01 X24.69904 Y-21.73788
G01 X24.70285 Y-21.88246
G01 X24.70285 Y-22.40750
G01 X24.69807 Y-22.55202
G01 X24.67999 Y-22.74369
G01 X24.63340 Y-22.99005
G01 X24.55779 Y-23.24720
G01 X24.47986 Y-23.44057
G01 X24.47986 Y-24.74156
G01 X24.48911 Y-24.78763
G01 X24.61588 Y-24.93889
G01 X24.74598 Y-25.12827
G01 X24.74598 Y-28.87599
G01 X24.60038 Y-28.87599
G01 X24.55850 Y-28.85864
G01 X24.49228 Y-28.84056
G01 X24.38499 Y-28.82999
G01 X23.20999 Y-28.82999
G01 X23.10270 Y-28.84056
G01 X23.04494 Y-28.85605
G01 X22.67537 Y-29.25351
G01 X22.66480 Y-29.31152
G01 X22.65997 Y-29.37998
G01 X22.65997 Y-29.67998
G01 X22.66480 Y-29.74845
G01 X22.67532 Y-29.80639
G01 X22.61728 Y-29.79057
G01 X22.50999 Y-29.77998
G01 X21.33498 Y-29.77998
G01 X21.22769 Y-29.79057
G01 X21.16148 Y-29.80863
G01 X21.11957 Y-29.82600
G01 X20.11771 Y-29.82598
G01 X19.94637 Y-29.78285
G01 X19.61307 Y-29.78081
G01 X19.38094 Y-29.76126
G01 X19.29793 Y-29.74894
G01 X19.13392 Y-29.71625
G01 X19.04997 Y-29.69522
G01 X18.96603 Y-29.71625
G01 X18.78495 Y-29.75191
G01 X18.54451 Y-29.77807
G01 X18.39999 Y-29.78285
G01 X17.77949 Y-29.78048
G01 X17.71330 Y-29.77680
G01 X17.48988 Y-29.75188
G01 X17.24358 Y-29.70030
G01 X17.10510 Y-29.66049
G01 X17.05265 Y-29.64066
G01 X17.00403 Y-29.61269
G01 X16.94223 Y-29.55983
G01 X16.73271 Y-29.55983
G01 X16.94223 Y-29.55983
G01 X17.00403 Y-29.61269
G01 X17.05265 Y-29.64066
G01 X17.04838 Y-29.64906
G01 X17.05265 Y-29.64066
G01 X17.10510 Y-29.66049
G01 X17.23116 Y-29.69781
G01 X17.48973 Y-29.75275
G01 X17.73042 Y-29.77911
G01 X17.87497 Y-29.78285
G01 X18.39999 Y-29.78285
G01 X18.54457 Y-29.77909
G01 X18.78508 Y-29.75280
G01 X18.96603 Y-29.71625
G01 X19.04997 Y-29.69522
G01 X19.13392 Y-29.71625
G01 X19.38078 Y-29.76232
G01 X19.60441 Y-29.78104
G01 X19.94637 Y-29.78285
G01 X20.11771 Y-29.82598
G01 X21.11957 Y-29.82600
G01 X21.16148 Y-29.80863
G01 X21.22769 Y-29.79057
G01 X21.33498 Y-29.77998
G01 X22.50999 Y-29.77998
G01 X22.61728 Y-29.79057
G01 X22.67532 Y-29.80639
G01 X22.66480 Y-29.74845
G01 X22.65997 Y-29.67998
G01 X22.65997 Y-29.37998
G01 X22.66480 Y-29.31152
G01 X22.67537 Y-29.25351
G01 X23.04463 Y-28.85636
G01 X23.05517 Y-28.79847
G01 X23.06000 Y-28.72999
G01 X23.06000 Y-28.42999
G01 X23.04941 Y-28.32268
G01 X23.03135 Y-28.25646
G01 X22.98748 Y-28.15808
G01 X22.94392 Y-28.09288
G01 X22.86980 Y-28.01473
G01 X22.81555 Y-27.97269
G01 X22.78187 Y-27.95250
G01 X22.68350 Y-27.90863
G01 X22.61728 Y-27.89055
G01 X22.50999 Y-27.87998
G01 X21.33498 Y-27.87998
G01 X21.22769 Y-27.89055
G01 X21.16148 Y-27.90863
G01 X21.11962 Y-27.92598
G01 X20.87499 Y-27.92595
G01 X20.87499 Y-27.48999
G01 X20.86826 Y-27.40200
G01 X20.85297 Y-27.32509
G01 X20.82551 Y-27.24125
G01 X20.76544 Y-27.12888
G01 X20.71096 Y-27.05946
G01 X20.65553 Y-27.00401
G01 X20.61764 Y-26.97292
G01 X20.55244 Y-26.92936
G01 X20.50920 Y-26.90625
G01 X20.43676 Y-26.87625
G01 X20.35180 Y-26.85247
G01 X20.22498 Y-26.83998
G01 X19.66077 Y-26.84191
G01 X19.57319 Y-26.85247
G01 X19.45124 Y-26.88946
G01 X19.37253 Y-26.92936
G01 X19.30733 Y-26.97292
G01 X19.24037 Y-27.03038
G01 X19.15952 Y-27.12888
G01 X19.11624 Y-27.20576
G01 X19.08625 Y-27.27820
G01 X19.07202 Y-27.32509
G01 X19.05671 Y-27.40200
G01 X19.05000 Y-27.48999
G01 X19.05000 Y-28.38999
G01 X19.05671 Y-28.47797
G01 X19.07202 Y-28.55488
G01 X19.09945 Y-28.63873
G01 X19.11624 Y-28.67421
G01 X19.15952 Y-28.75110
G01 X19.18292 Y-28.78264
G01 X19.24037 Y-28.84960
G01 X19.30733 Y-28.90705
G01 X19.37253 Y-28.95062
G01 X19.41576 Y-28.97373
G01 X19.48820 Y-29.00373
G01 X19.53509 Y-29.01795
G01 X19.57319 Y-29.02750
G01 X19.66077 Y-29.03807
G01 X20.13760 Y-29.04000
G01 X20.20763 Y-29.10037
G01 X20.27171 Y-29.14320
G01 X20.20763 Y-29.10037
G01 X20.13760 Y-29.04000
G01 X19.69999 Y-29.04000
G01 X19.61200 Y-29.03327
G01 X19.57319 Y-29.02750
G01 X19.48820 Y-29.00373
G01 X19.39983 Y-28.96522
G01 X19.39983 Y-29.05575
G01 X19.45823 Y-29.06575
G01 X19.63463 Y-29.08140
G01 X19.99567 Y-29.08313
G01 X20.04446 Y-29.08656
G01 X20.04507 Y-29.08186
G01 X20.04446 Y-29.08656
G01 X20.27171 Y-29.14320
G01 X20.31672 Y-29.16740
G01 X20.38916 Y-29.19740
G01 X20.43681 Y-29.21185
G01 X20.51373 Y-29.22717
G01 X20.56328 Y-29.23205
G01 X21.11952 Y-29.23395
G01 X21.16148 Y-29.25135
G01 X21.22769 Y-29.26941
G01 X21.33498 Y-29.27998
G01 X22.50999 Y-29.27998
G01 X22.61728 Y-29.26941
G01 X22.67496 Y-29.25394
G01 X23.04494 Y-28.85605
G01 X23.10270 Y-28.84056
G01 X23.20999 Y-28.82999
G01 X24.38499 Y-28.82999
G01 X24.49228 Y-28.84056
G01 X24.55850 Y-28.85864
G01 X24.60038 Y-28.87599
G01 X24.74598 Y-28.87599
G01 X24.74598 Y-16.78089
G01 X22.39754 Y-14.43243
G01 X22.33958 Y-14.36487
G01 X22.29602 Y-14.29967
G01 X22.27255 Y-14.25575
G01 X22.24255 Y-14.18331
G01 X22.22810 Y-14.13566
G01 X22.21278 Y-14.05875
G01 X22.20598 Y-13.97000
G01 X22.20598 Y-10.61771
G01 X22.17463 Y-10.57077
G01 X22.12089 Y-10.46615
G01 X22.08489 Y-10.35413
G01 X22.06960 Y-10.27722
G01 X22.06191 Y-10.19919
G01 X22.06191 Y-10.12078
G01 X21.38454 Y-9.97869
G01 X21.60255 Y-10.02441
G01 X22.58116 Y-8.36887
G01 X22.24743 Y-9.23983
G01 X22.58116 Y-8.36887
G01 X22.33082 Y-8.54012
G01 X21.67750 Y-8.54012
G01 X21.58926 Y-8.40811
G01 X21.51840 Y-8.20880
G01 X21.36750 Y-7.74753
G01 X21.36752 Y-7.49242
G01 X21.52726 Y-7.00656
G01 X21.70910 Y-6.90905
G01 X21.77194 Y-6.87934
G01 X21.98629 Y-6.79031
G01 X22.24199 Y-6.70918
G01 X22.27938 Y-6.69983
G01 X22.33008 Y-6.69983
G01 X22.58268 Y-6.87103
G01 X22.51834 Y-6.89767
G01 X22.44921 Y-6.93463
G01 X22.38400 Y-6.97819
G01 X22.29429 Y-7.05429
G01 X22.21819 Y-7.14400
G01 X22.17463 Y-7.20921
G01 X22.13767 Y-7.27834
G01 X22.10765 Y-7.35081
G01 X22.08489 Y-7.42584
G01 X22.06960 Y-7.50275
G01 X22.06191 Y-7.58078
G01 X21.38454 Y-7.43872
G01 X22.06191 Y-7.58078
G01 X22.06191 Y-7.65919
G01 X22.06960 Y-7.73722
G01 X22.08489 Y-7.81413
G01 X22.12089 Y-7.92615
G01 X22.17463 Y-8.03077
G01 X22.21819 Y-8.09597
G01 X22.29429 Y-8.18568
G01 X22.32340 Y-8.21202
G01 X22.38400 Y-8.26178
G01 X22.44921 Y-8.30534
G01 X22.55383 Y-8.35909
G01 X22.66584 Y-8.39508
G01 X22.74275 Y-8.41037
G01 X22.86000 Y-8.42000
G01 X22.97722 Y-8.41037
G01 X23.05413 Y-8.39508
G01 X23.12916 Y-8.37232
G01 X23.20163 Y-8.34230
G01 X23.27077 Y-8.30534
G01 X23.31771 Y-8.27400
G01 X25.79627 Y-8.27400
G01 X25.83622 Y-8.37921
G01 X25.85933 Y-8.42244
G01 X25.87953 Y-8.45612
G01 X25.93398 Y-8.52551
G01 X25.96037 Y-8.55462
G01 X26.02733 Y-8.61205
G01 X26.09253 Y-8.65563
G01 X26.17125 Y-8.69551
G01 X26.25509 Y-8.72297
G01 X26.33200 Y-8.73826
G01 X26.38077 Y-8.74306
G01 X26.91999 Y-8.74499
G01 X27.00797 Y-8.73826
G01 X27.08488 Y-8.72297
G01 X27.13177 Y-8.70875
G01 X27.16873 Y-8.69551
G01 X27.24744 Y-8.65563
G01 X27.31265 Y-8.61205
G01 X27.37960 Y-8.55462
G01 X27.40596 Y-8.52551
G01 X27.46045 Y-8.45612
G01 X27.48062 Y-8.42244
G01 X27.50373 Y-8.37921
G01 X27.53373 Y-8.30677
G01 X27.54795 Y-8.25988
G01 X27.56327 Y-8.18297
G01 X27.57000 Y-8.09498
G01 X27.57000 Y-7.14499
G01 X27.56327 Y-7.05701
G01 X27.54795 Y-6.98010
G01 X27.53373 Y-6.93321
G01 X27.50373 Y-6.86077
G01 X27.46045 Y-6.78386
G01 X27.37960 Y-6.68536
G01 X27.31265 Y-6.62793
G01 X27.24744 Y-6.58434
G01 X27.16873 Y-6.54446
G01 X27.08488 Y-6.51700
G01 X27.00797 Y-6.50171
G01 X26.91999 Y-6.49498
G01 X26.38077 Y-6.49691
G01 X26.33200 Y-6.50171
G01 X26.25509 Y-6.51700
G01 X26.17125 Y-6.54446
G01 X26.09253 Y-6.58434
G01 X26.02733 Y-6.62793
G01 X25.96037 Y-6.68536
G01 X25.93398 Y-6.71446
G01 X25.87953 Y-6.78386
G01 X25.85933 Y-6.81754
G01 X25.83622 Y-6.86077
G01 X25.79627 Y-6.96598
G01 X23.31771 Y-6.96598
G01 X23.27077 Y-6.93463
G01 X23.20163 Y-6.89767
G01 X23.12916 Y-6.86765
G01 X23.05413 Y-6.84489
G01 X22.97722 Y-6.82960
G01 X22.86000 Y-6.81998
G01 X22.74275 Y-6.82960
G01 X22.66584 Y-6.84489
G01 X22.59081 Y-6.86765
G01 X19.81429 Y-7.96983
G01 X20.70395 Y-7.96983
G01 X20.85584 Y-8.43384
G01 X20.93100 Y-8.64611
G01 X20.94441 Y-8.78220
G01 X20.94972 Y-8.89000
G01 X20.94441 Y-8.99777
G01 X20.93102 Y-9.13381
G01 X20.85584 Y-9.34611
G01 X20.70395 Y-9.81011
G01 X19.81431 Y-9.81011
G01 X19.74820 Y-9.86437
G01 X19.68299 Y-9.90793
G01 X19.54469 Y-9.98187
G01 X19.47225 Y-10.01187
G01 X19.28409 Y-10.06693
G01 X19.08919 Y-10.08807
G01 X19.01078 Y-10.08807
G01 X18.81589 Y-10.06693
G01 X18.62772 Y-10.01187
G01 X18.55528 Y-9.98187
G01 X18.38330 Y-9.88776
G01 X18.23055 Y-9.76488
G01 X18.17510 Y-9.70943
G01 X18.07561 Y-9.58820
G01 X18.04462 Y-9.54400
G01 X17.94360 Y-9.54400
G01 X17.91122 Y-9.62421
G01 X17.88813 Y-9.66744
G01 X17.84457 Y-9.73264
G01 X17.80365 Y-9.78035
G01 X18.02049 Y-9.77194
G01 X18.08305 Y-9.77565
G01 X18.14393 Y-9.79043
G01 X18.18828 Y-9.81011
G01 X18.28566 Y-9.81011
G01 X18.18828 Y-9.81011
G01 X18.14393 Y-9.79043
G01 X18.08305 Y-9.77565
G01 X18.08414 Y-9.76991
G01 X18.08305 Y-9.77565
G01 X18.02049 Y-9.77110
G01 X17.80365 Y-9.78035
G01 X17.75803 Y-9.82596
G01 X17.72013 Y-9.85705
G01 X17.65493 Y-9.90062
G01 X17.61172 Y-9.92373
G01 X17.53928 Y-9.95373
G01 X17.49237 Y-9.96795
G01 X17.41546 Y-9.98327
G01 X17.32750 Y-9.99000
G01 X16.80248 Y-9.99000
G01 X16.71450 Y-9.98327
G01 X16.63761 Y-9.96795
G01 X16.59070 Y-9.95373
G01 X16.51825 Y-9.92373
G01 X16.47502 Y-9.90062
G01 X16.40985 Y-9.85705
G01 X16.37195 Y-9.82596
G01 X16.31650 Y-9.77052
G01 X16.26202 Y-9.70110
G01 X16.24185 Y-9.66744
G01 X16.21874 Y-9.62421
G01 X16.18874 Y-9.55177
G01 X16.16497 Y-9.46681
G01 X16.15249 Y-9.33999
G01 X16.15249 Y-8.43999
G01 X16.16497 Y-8.31317
G01 X16.18874 Y-8.22820
G01 X16.21874 Y-8.15576
G01 X16.26202 Y-8.07888
G01 X16.31650 Y-8.00946
G01 X16.37195 Y-7.95401
G01 X16.40985 Y-7.92292
G01 X16.47502 Y-7.87936
G01 X16.51825 Y-7.85625
G01 X16.55374 Y-7.83946
G01 X16.63761 Y-7.81202
G01 X16.71450 Y-7.79671
G01 X16.80248 Y-7.78998
G01 X17.32750 Y-7.78998
G01 X17.41546 Y-7.79671
G01 X17.49237 Y-7.81202
G01 X17.57624 Y-7.83946
G01 X17.61172 Y-7.85625
G01 X17.65493 Y-7.87936
G01 X17.72013 Y-7.92292
G01 X17.75803 Y-7.95401
G01 X17.81348 Y-8.00946
G01 X17.86793 Y-8.07888
G01 X17.91122 Y-8.15576
G01 X17.94360 Y-8.23598
G01 X18.04606 Y-8.23598
G01 X18.07561 Y-8.19178
G01 X18.17510 Y-8.07055
G01 X18.23055 Y-8.01510
G01 X18.28569 Y-7.96983
G01 X18.18828 Y-7.96983
G01 X18.14393 Y-7.98952
G01 X18.08305 Y-8.00430
G01 X18.02049 Y-8.00801
G01 X17.80362 Y-7.99960
G01 X18.02049 Y-8.00885
G01 X18.08305 Y-8.00430
G01 X18.08414 Y-8.01004
G01 X18.08305 Y-8.00430
G01 X18.14393 Y-7.98952
G01 X18.18828 Y-7.96983
G01 X18.28569 Y-7.96983
G01 X18.38330 Y-7.89221
G01 X18.55528 Y-7.79810
G01 X18.62772 Y-7.76811
G01 X18.81589 Y-7.71304
G01 X19.05000 Y-7.68998
G01 X19.28409 Y-7.71304
G01 X19.47225 Y-7.76811
G01 X19.54469 Y-7.79810
G01 X19.68299 Y-7.87204
G01 X19.74820 Y-7.91561
G01 X19.86943 Y-8.01510
G01 X19.92488 Y-8.07055
G01 X20.02437 Y-8.19178
G01 X20.06793 Y-8.25698
G01 X20.14187 Y-8.39528
G01 X20.17187 Y-8.46772
G01 X20.21738 Y-8.61781
G01 X20.23270 Y-8.69470
G01 X20.25000 Y-8.89000
G01 X20.23270 Y-9.08528
G01 X20.21738 Y-9.16216
G01 X20.15863 Y-9.34921
G01 X20.06793 Y-9.52299
G01 X20.02437 Y-9.58820
G01 X19.92488 Y-9.70943
G01 X19.86943 Y-9.76488
G01 X19.74820 Y-9.86437
G01 X19.81429 Y-10.50983
G01 X19.86943 Y-10.55510
G01 X19.92488 Y-10.61055
G01 X20.02437 Y-10.73178
G01 X20.06793 Y-10.79698
G01 X20.15863 Y-10.97077
G01 X20.21738 Y-11.15781
G01 X20.23270 Y-11.23470
G01 X20.25000 Y-11.43000
G01 X20.23270 Y-11.62528
G01 X20.21738 Y-11.70216
G01 X20.15863 Y-11.88921
G01 X20.06793 Y-12.06299
G01 X20.02437 Y-12.12820
G01 X19.92488 Y-12.24943
G01 X19.86943 Y-12.30488
G01 X19.71667 Y-12.42776
G01 X19.54469 Y-12.52187
G01 X19.47225 Y-12.55187
G01 X19.28409 Y-12.60693
G01 X19.05000 Y-12.63000
G01 X18.81589 Y-12.60693
G01 X18.62772 Y-12.55187
G01 X18.55528 Y-12.52187
G01 X18.41698 Y-12.44793
G01 X18.35178 Y-12.40437
G01 X18.23055 Y-12.30488
G01 X18.16222 Y-12.23373
G01 X18.08480 Y-12.22174
G01 X17.95823 Y-12.21821
G01 X17.95061 Y-12.23244
G01 X17.95823 Y-12.21821
G01 X18.08480 Y-12.22174
G01 X18.16222 Y-12.23373
G01 X18.07561 Y-12.12820
G01 X18.04462 Y-12.08397
G01 X18.01368 Y-12.08397
G01 X17.99052 Y-12.15372
G01 X17.95061 Y-12.23244
G01 X17.90705 Y-12.29764
G01 X17.84960 Y-12.36462
G01 X17.78264 Y-12.42205
G01 X17.71744 Y-12.46563
G01 X17.63873 Y-12.50551
G01 X17.60177 Y-12.51875
G01 X17.55488 Y-12.53297
G01 X17.47797 Y-12.54826
G01 X17.42920 Y-12.55306
G01 X16.88998 Y-12.55499
G01 X16.80200 Y-12.54826
G01 X16.72511 Y-12.53297
G01 X16.64124 Y-12.50551
G01 X16.56253 Y-12.46563
G01 X16.49733 Y-12.42205
G01 X16.43037 Y-12.36462
G01 X16.37292 Y-12.29764
G01 X16.32936 Y-12.23244
G01 X16.28948 Y-12.15372
G01 X16.25247 Y-12.03180
G01 X16.24000 Y-11.90498
G01 X16.24000 Y-10.95499
G01 X16.25247 Y-10.82817
G01 X16.28948 Y-10.70625
G01 X16.32936 Y-10.62754
G01 X16.37292 Y-10.56234
G01 X16.43037 Y-10.49536
G01 X16.45945 Y-10.46902
G01 X16.49733 Y-10.43793
G01 X16.56253 Y-10.39434
G01 X16.64124 Y-10.35446
G01 X16.72511 Y-10.32700
G01 X16.80200 Y-10.31171
G01 X16.85079 Y-10.30691
G01 X17.42920 Y-10.30691
G01 X17.47797 Y-10.31171
G01 X17.55488 Y-10.32700
G01 X17.63873 Y-10.35446
G01 X17.71744 Y-10.39434
G01 X17.78264 Y-10.43793
G01 X17.84960 Y-10.49536
G01 X17.87596 Y-10.52446
G01 X17.90705 Y-10.56234
G01 X17.95061 Y-10.62754
G01 X17.99052 Y-10.70625
G01 X18.01368 Y-10.77600
G01 X18.04606 Y-10.77600
G01 X18.07561 Y-10.73178
G01 X18.17510 Y-10.61055
G01 X18.23055 Y-10.55510
G01 X18.28569 Y-10.50983
G01 X18.07797 Y-10.50983
G01 X18.01818 Y-10.50468
G01 X17.96016 Y-10.48941
G01 X17.92938 Y-10.47532
G01 X17.83212 Y-10.47951
G01 X17.92938 Y-10.47532
G01 X17.96016 Y-10.48941
G01 X18.01818 Y-10.50468
G01 X18.07797 Y-10.50983
G01 X18.07743 Y-10.51438
G01 X18.07797 Y-10.50983
G01 X18.28569 Y-10.50983
G01 X18.38330 Y-10.43221
G01 X18.55528 Y-10.33810
G01 X18.62772 Y-10.30811
G01 X18.77781 Y-10.26259
G01 X18.85470 Y-10.24727
G01 X19.05000 Y-10.22998
G01 X19.24528 Y-10.24727
G01 X19.32216 Y-10.26259
G01 X19.47225 Y-10.30811
G01 X19.54469 Y-10.33810
G01 X19.71667 Y-10.43221
G01 X19.81429 Y-10.50983
G01 X20.70395 Y-10.50983
G01 X20.84690 Y-10.94628
G01 X20.86790 Y-11.16307
G01 X20.87479 Y-11.30303
G01 X20.87479 Y-11.55697
G01 X20.86790 Y-11.69657
G01 X20.84248 Y-11.95415
G01 X20.81433 Y-12.13119
G01 X20.75896 Y-12.25453
G01 X20.70788 Y-12.35012
G01 X20.22787 Y-12.35012
G01 X19.81429 Y-13.04983
G01 X20.70786 Y-13.04983
G01 X20.75896 Y-13.14544
G01 X20.81433 Y-13.26883
G01 X20.84248 Y-13.44579
G01 X20.86793 Y-13.70338
G01 X20.87502 Y-13.84732
G01 X20.88025 Y-14.27038
G01 X20.88690 Y-14.44551
G01 X20.84753 Y-14.57533
G01 X20.64631 Y-14.70000
G01 X20.42861 Y-14.81673
G01 X20.27296 Y-14.89011
G01 X19.81431 Y-14.89011
G01 X19.74820 Y-14.94437
G01 X19.86943 Y-14.84488
G01 X19.92488 Y-14.78943
G01 X20.02437 Y-14.66820
G01 X20.06793 Y-14.60299
G01 X20.14187 Y-14.46469
G01 X20.17187 Y-14.39225
G01 X20.21738 Y-14.24216
G01 X20.23270 Y-14.16528
G01 X20.25000 Y-13.97000
G01 X20.23270 Y-13.77470
G01 X20.21738 Y-13.69781
G01 X20.17187 Y-13.54772
G01 X20.14187 Y-13.47528
G01 X20.06793 Y-13.33698
G01 X20.02437 Y-13.27175
G01 X19.89851 Y-13.12144
G01 X19.74820 Y-12.99561
G01 X19.68299 Y-12.95204
G01 X19.54469 Y-12.87810
G01 X19.47225 Y-12.84811
G01 X19.32216 Y-12.80259
G01 X19.24528 Y-12.78727
G01 X19.05000 Y-12.76995
G01 X18.85470 Y-12.78727
G01 X18.77781 Y-12.80259
G01 X18.62772 Y-12.84811
G01 X18.55528 Y-12.87810
G01 X18.38330 Y-12.97221
G01 X18.23055 Y-13.09510
G01 X18.17510 Y-13.15055
G01 X18.07561 Y-13.27175
G01 X18.03204 Y-13.33698
G01 X17.95810 Y-13.47528
G01 X17.92811 Y-13.54772
G01 X17.88259 Y-13.69781
G01 X17.86727 Y-13.77470
G01 X17.84998 Y-13.97000
G01 X17.86727 Y-14.16528
G01 X17.88259 Y-14.24216
G01 X17.92811 Y-14.39225
G01 X17.95810 Y-14.46469
G01 X18.05429 Y-14.63947
G01 X18.17510 Y-14.78943
G01 X18.23055 Y-14.84488
G01 X18.35178 Y-14.94437
G01 X18.41698 Y-14.98793
G01 X18.55528 Y-15.06187
G01 X18.62772 Y-15.09187
G01 X18.77781 Y-15.13738
G01 X18.85470 Y-15.15270
G01 X19.01078 Y-15.16807
G01 X19.08919 Y-15.16807
G01 X19.24528 Y-15.15270
G01 X19.32216 Y-15.13738
G01 X19.47225 Y-15.09187
G01 X19.54469 Y-15.06187
G01 X19.71667 Y-14.96776
G01 X19.86943 Y-14.84488
G01 X19.92488 Y-14.78943
G01 X20.02437 Y-14.66820
G01 X20.06793 Y-14.60299
G01 X20.14187 Y-14.46469
G01 X20.17187 Y-14.39225
G01 X20.21738 Y-14.24216
G01 X20.23270 Y-14.16528
G01 X20.25000 Y-13.97000
G01 X20.23270 Y-13.77470
G01 X20.21738 Y-13.69781
G01 X20.17187 Y-13.54772
G01 X20.14187 Y-13.47528
G01 X20.06793 Y-13.33698
G01 X20.02437 Y-13.27175
G01 X19.92488 Y-13.15055
G01 X19.89851 Y-13.12144
G01 X19.81429 Y-13.04983
G01 X20.22787 Y-12.35012
G01 X19.81431 Y-12.35012
G01 X20.22787 Y-12.35012
G01 X21.60255 Y-10.02441
G01 X22.06191 Y-10.12078
G01 X22.06960 Y-10.04275
G01 X22.08489 Y-9.96584
G01 X22.12089 Y-9.85383
G01 X22.17463 Y-9.74921
G01 X22.21819 Y-9.68400
G01 X22.29429 Y-9.59429
G01 X22.41553 Y-9.49480
G01 X22.51834 Y-9.43767
G01 X22.59081 Y-9.40765
G01 X22.66584 Y-9.38489
G01 X22.74275 Y-9.36960
G01 X22.86000 Y-9.35998
G01 X22.97722 Y-9.36960
G01 X23.05413 Y-9.38489
G01 X23.12916 Y-9.40765
G01 X23.20163 Y-9.43767
G01 X23.27077 Y-9.47463
G01 X23.33597 Y-9.51819
G01 X23.41857 Y-9.58786
G01 X23.50178 Y-9.68400
G01 X23.54534 Y-9.74921
G01 X23.59909 Y-9.85383
G01 X23.63508 Y-9.96584
G01 X23.65037 Y-10.04275
G01 X23.65807 Y-10.12078
G01 X23.65807 Y-10.19919
G01 X23.65037 Y-10.27722
G01 X23.63508 Y-10.35413
G01 X23.61232 Y-10.42916
G01 X23.58230 Y-10.50163
G01 X23.54534 Y-10.57077
G01 X23.51400 Y-10.61771
G01 X23.51400 Y-13.69908
G01 X25.86243 Y-16.04754
G01 X25.92040 Y-16.11511
G01 X25.96396 Y-16.18031
G01 X26.00419 Y-16.25971
G01 X26.01570 Y-16.29184
G01 X26.02408 Y-16.34668
G01 X26.03497 Y-16.51000
G01 X26.03497 Y-20.32000
G01 X26.04585 Y-20.48327
G01 X26.05418 Y-20.53796
G01 X26.06576 Y-20.57027
G01 X26.10599 Y-20.64967
G01 X26.14958 Y-20.71487
G01 X26.20754 Y-20.78243
G01 X27.15260 Y-21.72749
G01 X27.16489 Y-21.78413
G01 X27.18765 Y-21.85916
G01 X27.21767 Y-21.93163
G01 X27.27480 Y-22.03445
G01 X27.34795 Y-22.12657
G01 X27.40340 Y-22.18202
G01 X27.46400 Y-22.23178
G01 X27.52921 Y-22.27534
G01 X27.63383 Y-22.32909
G01 X27.74584 Y-22.36508
G01 X27.80119 Y-22.37608
G01 X29.82598 Y-24.40089
G01 X29.82598 Y-25.02324
G01 X27.47754 Y-27.37170
G01 X27.41958 Y-27.43926
G01 X27.37602 Y-27.50447
G01 X27.33576 Y-27.58387
G01 X27.32255 Y-27.62082
G01 X27.29855 Y-27.70655
G01 X27.28791 Y-27.79494
G01 X27.28598 Y-28.72740
G01 X26.70043 Y-29.31292
G01 X26.99321 Y-28.60611
G01 X27.00792 Y-28.56278
G01 X27.01686 Y-28.51790
G01 X27.01986 Y-28.47223
G01 X27.01986 Y-28.07988
G01 X27.28857 Y-27.78821
G01 X27.01986 Y-28.07988
G01 X27.01986 Y-28.47223
G01 X27.01686 Y-28.51790
G01 X27.00792 Y-28.56278
G01 X27.01945 Y-28.56520
G01 X27.00792 Y-28.56278
G01 X26.99321 Y-28.60611
G01 X26.70043 Y-29.31292
G01 X26.18737 Y-29.82600
G01 X25.70884 Y-29.82600
G01 X25.88374 Y-29.64939
G01 X25.94653 Y-29.56829
G01 X25.99583 Y-29.47838
G01 X26.03050 Y-29.38186
G01 X26.04963 Y-29.28112
G01 X26.05273 Y-29.24137
G01 X26.05400 Y-29.04515
G01 X26.32011 Y-28.40264
G01 X26.32011 Y-27.93997
G01 X26.32641 Y-27.87381
G01 X26.31991 Y-27.87282
G01 X26.32641 Y-27.87381
G01 X26.34516 Y-27.81000
G01 X26.33861 Y-27.80701
G01 X26.34516 Y-27.81000
G01 X26.37561 Y-27.75090
G01 X26.41671 Y-27.69862
G01 X26.41450 Y-27.69692
G01 X26.41671 Y-27.69862
G01 X26.50581 Y-27.60513
G01 X26.77305 Y-27.31506
G01 X26.83566 Y-27.30188
G01 X26.92027 Y-27.27422
G01 X26.99967 Y-27.23396
G01 X27.06487 Y-27.19040
G01 X27.10335 Y-27.15880
G01 X28.07879 Y-26.18608
G01 X28.13413 Y-26.17508
G01 X28.24615 Y-26.13909
G01 X28.35077 Y-26.08534
G01 X28.41597 Y-26.04176
G01 X28.47657 Y-25.99202
G01 X28.53202 Y-25.93658
G01 X28.58178 Y-25.87597
G01 X28.62534 Y-25.81077
G01 X28.67909 Y-25.70615
G01 X28.71508 Y-25.59413
G01 X28.73037 Y-25.51722
G01 X28.73807 Y-25.43919
G01 X28.73807 Y-25.36078
G01 X28.72461 Y-25.24392
G01 X28.67909 Y-25.09383
G01 X28.60518 Y-24.95553
G01 X28.53202 Y-24.86340
G01 X28.47657 Y-24.80795
G01 X28.41597 Y-24.75819
G01 X28.35077 Y-24.71463
G01 X28.24615 Y-24.66089
G01 X28.20916 Y-24.64765
G01 X28.13413 Y-24.62489
G01 X28.05722 Y-24.60960
G01 X27.97919 Y-24.60191
G01 X27.90078 Y-24.60191
G01 X27.82275 Y-24.60960
G01 X27.74584 Y-24.62489
G01 X27.63383 Y-24.66089
G01 X27.52921 Y-24.71463
G01 X27.46400 Y-24.75819
G01 X27.40340 Y-24.80795
G01 X27.34795 Y-24.86340
G01 X27.27480 Y-24.95553
G01 X27.21767 Y-25.05834
G01 X27.18765 Y-25.13081
G01 X27.16489 Y-25.20584
G01 X27.15260 Y-25.26248
G01 X26.39908 Y-26.01598
G01 X26.05397 Y-26.01598
G01 X26.05397 Y-20.53704
G01 X26.06576 Y-20.57027
G01 X26.10599 Y-20.64967
G01 X26.14958 Y-20.71487
G01 X26.18118 Y-20.75335
G01 X26.70040 Y-21.27532
G01 X26.95654 Y-21.89366
G01 X26.97643 Y-21.95911
G01 X27.02918 Y-22.20793
G01 X27.11031 Y-22.46368
G01 X27.19939 Y-22.67809
G01 X27.22908 Y-22.74087
G01 X27.35110 Y-22.96846
G01 X27.43617 Y-23.00064
G01 X27.72659 Y-23.29104
G01 X27.84663 Y-23.32774
G01 X27.94404 Y-23.36302
G01 X28.19296 Y-23.46584
G01 X28.28430 Y-23.50856
G01 X28.52293 Y-23.63592
G01 X28.60662 Y-23.68657
G01 X28.80007 Y-23.81621
G01 X28.87726 Y-23.87394
G01 X29.03537 Y-24.00366
G01 X29.11904 Y-24.07948
G01 X29.26047 Y-24.22091
G01 X29.32501 Y-24.29149
G01 X29.45196 Y-24.44410
G01 X29.48203 Y-24.48644
G01 X29.50553 Y-24.53274
G01 X29.52191 Y-24.58202
G01 X29.54698 Y-24.68174
G01 X29.55582 Y-24.73239
G01 X29.55717 Y-24.78380
G01 X29.55094 Y-24.83482
G01 X29.50741 Y-25.05540
G01 X29.48135 Y-25.16137
G01 X29.42532 Y-25.34831
G01 X29.38292 Y-25.46629
G01 X29.42532 Y-25.34831
G01 X29.50441 Y-25.07290
G01 X29.55287 Y-24.83505
G01 X29.55717 Y-24.78380
G01 X29.55582 Y-24.73239
G01 X29.56344 Y-24.73162
G01 X29.55582 Y-24.73239
G01 X29.52191 Y-24.58202
G01 X29.50553 Y-24.53274
G01 X29.51269 Y-24.52975
G01 X29.50553 Y-24.53274
G01 X29.48203 Y-24.48644
G01 X29.45196 Y-24.44410
G01 X29.45468 Y-24.44206
G01 X29.45196 Y-24.44410
G01 X29.27228 Y-24.23333
G01 X29.12001 Y-24.07849
G01 X28.87779 Y-23.87323
G01 X28.78590 Y-23.80623
G01 X28.59273 Y-23.67674
G01 X28.29974 Y-23.51542
G01 X28.19296 Y-23.46584
G01 X27.94427 Y-23.36239
G01 X27.72659 Y-23.29104
G01 X27.43617 Y-23.00064
G01 X27.44488 Y-22.98718
G01 X27.43617 Y-23.00064
G01 X27.35110 Y-22.96846
G01 X27.22908 Y-22.74087
G01 X27.19939 Y-22.67809
G01 X27.11031 Y-22.46368
G01 X27.02918 Y-22.20793
G01 X26.97643 Y-21.95911
G01 X26.95882 Y-21.89292
G01 X26.70040 Y-21.27532
G01 X26.18118 Y-20.75335
G01 X26.14958 Y-20.71487
G01 X26.10599 Y-20.64967
G01 X26.06576 Y-20.57027
G01 X26.05321 Y-20.53306
G01 X26.05397 Y-21.54316
G01 X26.29692 Y-22.12967
G01 X26.35171 Y-22.38657
G01 X26.42108 Y-22.61319
G01 X26.46002 Y-22.72429
G01 X26.59967 Y-23.04821
G01 X26.75372 Y-23.33452
G01 X26.75372 Y-24.48496
G01 X26.32100 Y-25.53307
G01 X26.75730 Y-24.48011
G01 X26.80706 Y-24.41948
G01 X26.95948 Y-24.26706
G01 X27.02011 Y-24.21730
G01 X27.19936 Y-24.09754
G01 X27.26850 Y-24.06056
G01 X27.36606 Y-24.01443
G01 X27.52433 Y-23.96089
G01 X27.68468 Y-24.01296
G01 X27.91772 Y-24.10920
G01 X27.97741 Y-24.13744
G01 X28.22524 Y-24.27328
G01 X28.39027 Y-24.38342
G01 X28.58491 Y-24.53917
G01 X28.75961 Y-24.70963
G01 X28.84335 Y-24.80633
G01 X28.80462 Y-24.98321
G01 X28.75798 Y-25.13764
G01 X28.72202 Y-25.23353
G01 X28.73807 Y-25.36078
G01 X28.73807 Y-25.43919
G01 X28.73037 Y-25.51722
G01 X28.71508 Y-25.59413
G01 X28.69232 Y-25.66916
G01 X28.66230 Y-25.74163
G01 X28.62534 Y-25.81077
G01 X28.58178 Y-25.87597
G01 X28.53202 Y-25.93658
G01 X28.47657 Y-25.99202
G01 X28.41597 Y-26.04176
G01 X28.35077 Y-26.08534
G01 X28.28163 Y-26.12230
G01 X28.20916 Y-26.15232
G01 X28.13413 Y-26.17508
G01 X28.07879 Y-26.18608
G01 X27.13243 Y-27.13243
G01 X27.06487 Y-27.19040
G01 X26.99967 Y-27.23396
G01 X26.92027 Y-27.27422
G01 X26.88331 Y-27.28742
G01 X26.79758 Y-27.31143
G01 X26.70919 Y-27.32207
G01 X26.05400 Y-27.32400
G01 X26.05400 Y-29.21000
G01 X26.04963 Y-29.28112
G01 X26.03050 Y-29.38186
G01 X26.01110 Y-29.44157
G01 X25.96736 Y-29.53431
G01 X25.94653 Y-29.56829
G01 X25.88374 Y-29.64939
G01 X25.70884 Y-29.82600
G01 X25.39451 Y-29.95254
G01 X25.34249 Y-29.96837
G01 X25.24559 Y-29.99024
G01 X25.15156 Y-30.00200
G01 X25.07999 Y-30.00497
G01 X24.56244 Y-30.00497
G01 X24.47338 Y-30.02214
G01 X24.38499 Y-30.02798
G01 X23.20999 Y-30.02798
G01 X23.12157 Y-30.02214
G01 X23.05063 Y-30.00952
G01 X22.97582 Y-29.98836
G01 X22.86632 Y-29.94284
G01 X22.80801 Y-29.91157
G01 X22.72322 Y-29.85765
G01 X22.67499 Y-29.80604
G01 X22.61728 Y-29.79057
G01 X22.50999 Y-29.77998
G01 X21.33498 Y-29.77998
G01 X21.22769 Y-29.79057
G01 X21.16148 Y-29.80863
G01 X21.11957 Y-29.82600
G01 X16.95313 Y-29.82600
G01 X16.90594 Y-29.75399
G01 X16.80022 Y-29.62519
G01 X16.74480 Y-29.56974
G01 X16.61597 Y-29.46403
G01 X16.55079 Y-29.42046
G01 X16.40383 Y-29.34193
G01 X16.33139 Y-29.31190
G01 X16.17193 Y-29.26354
G01 X16.09501 Y-29.24825
G01 X15.88999 Y-29.22999
G01 X14.58999 Y-29.22999
G01 X14.38496 Y-29.24825
G01 X14.30805 Y-29.26354
G01 X14.14859 Y-29.31190
G01 X14.07615 Y-29.34193
G01 X13.89553 Y-29.44066
G01 X13.73518 Y-29.56974
G01 X13.67975 Y-29.62519
G01 X13.57404 Y-29.75399
G01 X13.52685 Y-29.82600
G01 X13.14310 Y-29.82600
G01 X13.09594 Y-29.75399
G01 X12.99022 Y-29.62519
G01 X12.92271 Y-29.55983
G01 X13.74724 Y-29.55983
G01 X12.92271 Y-29.55983
G01 X12.77445 Y-29.44066
G01 X12.59383 Y-29.34193
G01 X12.52139 Y-29.31190
G01 X12.36193 Y-29.26354
G01 X12.28501 Y-29.24825
G01 X12.07999 Y-29.22999
G01 X10.74077 Y-29.23192
G01 X10.53612 Y-29.25402
G01 X10.33859 Y-29.31190
G01 X10.26615 Y-29.34193
G01 X10.11918 Y-29.42046
G01 X10.05401 Y-29.46403
G01 X9.93724 Y-29.55983
G01 X9.86975 Y-29.62519
G01 X9.76404 Y-29.75399
G01 X9.71685 Y-29.82600
G01 X9.16089 Y-29.82598
G01 X8.27397 Y-28.93908
G01 X8.27397 Y-27.89314
G01 X8.64377 Y-28.78590
G01 X8.67611 Y-28.84637
G01 X8.88119 Y-29.12664
G01 X9.01042 Y-29.28422
G01 X9.15617 Y-29.44525
G01 X9.19879 Y-29.48495
G01 X9.24738 Y-29.51701
G01 X9.30064 Y-29.54058
G01 X9.35706 Y-29.55498
G01 X9.41509 Y-29.55983
G01 X9.93724 Y-29.55983
G01 X9.41509 Y-29.55983
G01 X9.41441 Y-29.56530
G01 X9.41509 Y-29.55983
G01 X9.35706 Y-29.55498
G01 X9.30064 Y-29.54058
G01 X9.24738 Y-29.51701
G01 X9.24055 Y-29.53088
G01 X9.24738 Y-29.51701
G01 X9.19879 Y-29.48495
G01 X9.15446 Y-29.44708
G01 X9.00996 Y-29.28460
G01 X8.87067 Y-29.11315
G01 X8.69295 Y-28.86690
G01 X8.67611 Y-28.84637
G01 X8.67123 Y-28.84922
G01 X8.67611 Y-28.84637
G01 X8.64377 Y-28.78590
G01 X8.27397 Y-27.89314
G01 X8.27397 Y-26.88646
G01 X8.29412 Y-26.93838
G01 X8.34344 Y-27.02829
G01 X8.38032 Y-27.07907
G01 X8.42754 Y-27.13243
G01 X9.58380 Y-28.28869
G01 X9.62513 Y-28.41833
G01 X9.72048 Y-28.60078
G01 X9.76404 Y-28.66598
G01 X9.89609 Y-28.82387
G01 X10.05401 Y-28.95595
G01 X10.11918 Y-28.99951
G01 X10.26615 Y-29.07805
G01 X10.33859 Y-29.10807
G01 X10.53612 Y-29.16596
G01 X10.77999 Y-29.18998
G01 X12.07999 Y-29.18998
G01 X12.32385 Y-29.16596
G01 X12.52139 Y-29.10807
G01 X12.59383 Y-29.07805
G01 X12.77445 Y-28.97932
G01 X12.93480 Y-28.85023
G01 X12.99022 Y-28.79479
G01 X13.09594 Y-28.66598
G01 X13.13947 Y-28.60078
G01 X13.21803 Y-28.45382
G01 X13.24803 Y-28.38138
G01 X13.29644 Y-28.22194
G01 X13.31173 Y-28.14503
G01 X13.32807 Y-27.97919
G01 X13.32807 Y-27.90078
G01 X13.31173 Y-27.73495
G01 X13.29644 Y-27.65803
G01 X13.24803 Y-27.49860
G01 X13.21803 Y-27.42616
G01 X13.11933 Y-27.24551
G01 X12.98512 Y-27.08008
G01 X12.98512 Y-26.21768
G01 X12.92367 Y-26.18483
G01 X12.72451 Y-26.10234
G01 X12.56505 Y-26.05395
G01 X12.46035 Y-26.02771
G01 X12.35359 Y-26.01189
G01 X12.18778 Y-25.99555
G01 X12.07999 Y-25.99027
G01 X10.77999 Y-25.99027
G01 X10.67219 Y-25.99555
G01 X10.50638 Y-26.01189
G01 X10.39962 Y-26.02771
G01 X10.24372 Y-26.06949
G01 X9.98258 Y-26.39408
G01 X10.24372 Y-26.06949
G01 X10.24372 Y-25.96071
G01 X10.19109 Y-25.93906
G01 X10.24372 Y-25.96071
G01 X11.11722 Y-25.08722
G01 X11.17582 Y-25.02380
G01 X11.20170 Y-24.99350
G01 X11.32398 Y-24.81991
G01 X11.40231 Y-24.66614
G01 X11.45342 Y-24.51900
G01 X11.32263 Y-24.23833
G01 X11.21329 Y-23.97813
G01 X11.11720 Y-23.67318
G01 X11.09208 Y-23.57813
G01 X11.04661 Y-23.34872
G01 X11.01387 Y-23.06564
G01 X11.00981 Y-22.96996
G01 X11.01253 Y-22.67156
G01 X11.03348 Y-22.46668
G01 X11.04631 Y-22.37118
G01 X11.08918 Y-22.15858
G01 X11.11641 Y-22.04657
G01 X11.21390 Y-21.74204
G01 X11.31578 Y-21.49549
G01 X11.36820 Y-21.38624
G01 X11.51372 Y-21.11543
G01 X11.51372 Y-20.94972
G01 X11.30877 Y-20.74476
G01 X11.51372 Y-20.94972
G01 X11.68438 Y-20.94972
G01 X11.74575 Y-20.92736
G01 X11.80071 Y-20.91360
G01 X12.08679 Y-20.85581
G01 X12.51003 Y-20.79137
G01 X12.89583 Y-20.71934
G01 X12.97795 Y-20.65193
G01 X12.96609 Y-20.49823
G01 X12.97795 Y-20.65193
G01 X13.07602 Y-20.70986
G01 X13.11549 Y-20.71858
G01 X13.39294 Y-20.80423
G01 X13.53017 Y-20.71025
G01 X13.77226 Y-20.55675
G01 X13.98895 Y-20.44106
G01 X14.10335 Y-20.38604
G01 X14.21445 Y-20.17499
G01 X14.34678 Y-20.16249
G01 X14.43177 Y-20.13875
G01 X14.50421 Y-20.10872
G01 X14.54744 Y-20.08563
G01 X14.58110 Y-20.06544
G01 X14.65052 Y-20.01096
G01 X14.67960 Y-19.98462
G01 X14.73705 Y-19.91764
G01 X14.78062 Y-19.85244
G01 X14.80373 Y-19.80921
G01 X14.82052 Y-19.77372
G01 X14.84795 Y-19.68988
G01 X14.85750 Y-19.65180
G01 X14.86807 Y-19.56420
G01 X14.87000 Y-18.57499
G01 X14.86327 Y-18.48701
G01 X14.84795 Y-18.41010
G01 X14.82052 Y-18.32625
G01 X14.78062 Y-18.24754
G01 X14.73705 Y-18.18234
G01 X14.67960 Y-18.11536
G01 X14.58110 Y-18.03453
G01 X14.50421 Y-17.99125
G01 X14.43177 Y-17.96123
G01 X14.34678 Y-17.93748
G01 X14.21999 Y-17.92498
G01 X13.71999 Y-17.92498
G01 X13.59319 Y-17.93748
G01 X13.50820 Y-17.96123
G01 X13.43576 Y-17.99125
G01 X13.39253 Y-18.01434
G01 X13.32733 Y-18.05793
G01 X13.26037 Y-18.11536
G01 X13.20292 Y-18.18234
G01 X13.15936 Y-18.24754
G01 X13.11946 Y-18.32625
G01 X13.09629 Y-18.39598
G01 X12.63000 Y-18.39598
G01 X12.63000 Y-18.24998
G01 X12.62230 Y-18.17195
G01 X12.59954 Y-18.09692
G01 X12.56259 Y-18.02775
G01 X12.51283 Y-17.96715
G01 X12.45222 Y-17.91739
G01 X12.38306 Y-17.88043
G01 X12.30803 Y-17.85767
G01 X12.23000 Y-17.84998
G01 X10.62998 Y-17.84998
G01 X10.55195 Y-17.85767
G01 X10.47692 Y-17.88043
G01 X10.40775 Y-17.91739
G01 X10.37288 Y-17.94601
G01 X10.20572 Y-17.91155
G01 X10.05451 Y-17.88894
G01 X10.04080 Y-17.93639
G01 X10.00821 Y-18.25244
G01 X10.00214 Y-18.40870
G01 X9.97527 Y-18.66806
G01 X9.92693 Y-18.90245
G01 X9.85492 Y-19.16953
G01 X9.65901 Y-19.63496
G01 X9.30173 Y-20.45614
G01 X9.03608 Y-21.09749
G01 X9.09907 Y-21.22533
G01 X9.21791 Y-21.51941
G01 X9.29373 Y-21.78017
G01 X9.34651 Y-22.06254
G01 X9.36412 Y-22.25672
G01 X9.36940 Y-22.40138
G01 X9.36958 Y-23.30999
G01 X9.36285 Y-23.48047
G01 X9.33971 Y-23.69825
G01 X9.34743 Y-23.70003
G01 X9.33971 Y-23.69825
G01 X9.32304 Y-23.76477
G01 X9.28042 Y-23.84890
G01 X9.28558 Y-23.85174
G01 X9.28042 Y-23.84890
G01 X9.13351 Y-24.06454
G01 X9.02053 Y-24.20295
G01 X8.92040 Y-24.44466
G01 X8.40623 Y-24.96061
G01 X8.38032 Y-24.99091
G01 X8.32261 Y-25.07567
G01 X8.29412 Y-25.13160
G01 X8.27395 Y-25.18352
G01 X8.27400 Y-24.17681
G01 X8.39643 Y-23.88121
G01 X8.42406 Y-23.82794
G01 X8.41944 Y-23.82523
G01 X8.42406 Y-23.82794
G01 X8.57656 Y-23.64090
G01 X8.65523 Y-23.52594
G01 X8.66567 Y-23.42022
G01 X8.66938 Y-23.30580
G01 X8.66938 Y-22.41418
G01 X8.66567 Y-22.29963
G01 X8.64989 Y-22.14009
G01 X8.60395 Y-21.90979
G01 X8.53798 Y-21.69864
G01 X8.45703 Y-21.50379
G01 X8.35726 Y-21.52348
G01 X8.17545 Y-21.57128
G01 X8.06610 Y-21.65088
G01 X7.88863 Y-21.76026
G01 X8.00931 Y-21.77247
G01 X8.09427 Y-21.79625
G01 X8.16671 Y-21.82625
G01 X8.20994 Y-21.84936
G01 X8.24360 Y-21.86953
G01 X8.31301 Y-21.92401
G01 X8.36846 Y-21.97946
G01 X8.39955 Y-22.01733
G01 X8.44311 Y-22.08253
G01 X8.46623 Y-22.12576
G01 X8.49622 Y-22.19820
G01 X8.51045 Y-22.24509
G01 X8.52576 Y-22.32200
G01 X8.53249 Y-22.40999
G01 X8.53249 Y-23.30999
G01 X8.52576 Y-23.39797
G01 X8.51045 Y-23.47488
G01 X8.49622 Y-23.52177
G01 X8.48302 Y-23.55873
G01 X8.44311 Y-23.63744
G01 X8.39955 Y-23.70264
G01 X8.36846 Y-23.74052
G01 X8.31301 Y-23.79596
G01 X8.27400 Y-23.82792
G01 X8.27395 Y-25.18352
G01 X8.29412 Y-25.13160
G01 X8.34344 Y-25.04168
G01 X8.38032 Y-24.99091
G01 X8.42754 Y-24.93754
G01 X9.50598 Y-23.85908
G01 X9.50598 Y-20.31997
G01 X9.51278 Y-20.23123
G01 X9.52810 Y-20.15432
G01 X9.55576 Y-20.06971
G01 X9.59602 Y-19.99031
G01 X9.63958 Y-19.92511
G01 X9.69754 Y-19.85754
G01 X10.22998 Y-19.32508
G01 X10.22998 Y-18.24998
G01 X10.23767 Y-18.17195
G01 X10.26043 Y-18.09692
G01 X10.29739 Y-18.02775
G01 X10.34715 Y-17.96715
G01 X10.40775 Y-17.91739
G01 X10.47692 Y-17.88043
G01 X10.55195 Y-17.85767
G01 X10.62998 Y-17.84998
G01 X12.23000 Y-17.84998
G01 X12.30803 Y-17.85767
G01 X12.38306 Y-17.88043
G01 X12.45222 Y-17.91739
G01 X12.51283 Y-17.96715
G01 X12.56259 Y-18.02775
G01 X12.59954 Y-18.09692
G01 X12.62230 Y-18.17195
G01 X12.63000 Y-18.24998
G01 X12.63000 Y-18.39598
G01 X13.09629 Y-18.39598
G01 X13.11946 Y-18.32625
G01 X13.15936 Y-18.24754
G01 X13.20292 Y-18.18234
G01 X13.26037 Y-18.11536
G01 X13.35888 Y-18.03453
G01 X13.43576 Y-17.99125
G01 X13.50820 Y-17.96123
G01 X13.59319 Y-17.93748
G01 X13.71999 Y-17.92498
G01 X14.25920 Y-17.92691
G01 X14.34678 Y-17.93748
G01 X14.43177 Y-17.96123
G01 X14.50421 Y-17.99125
G01 X14.58110 Y-18.03453
G01 X14.67960 Y-18.11536
G01 X14.73705 Y-18.18234
G01 X14.78062 Y-18.24754
G01 X14.82052 Y-18.32625
G01 X14.84795 Y-18.41010
G01 X14.86327 Y-18.48701
G01 X14.87000 Y-18.57499
G01 X14.87000 Y-19.52498
G01 X14.86327 Y-19.61297
G01 X14.85750 Y-19.65180
G01 X14.83373 Y-19.73677
G01 X14.80373 Y-19.80921
G01 X14.78062 Y-19.85244
G01 X14.73705 Y-19.91764
G01 X14.67960 Y-19.98462
G01 X14.65052 Y-20.01096
G01 X14.58110 Y-20.06544
G01 X14.54744 Y-20.08563
G01 X14.50421 Y-20.10872
G01 X14.43177 Y-20.13875
G01 X14.34678 Y-20.16249
G01 X14.21999 Y-20.17499
G01 X13.71999 Y-20.17499
G01 X13.63200 Y-20.16826
G01 X13.55509 Y-20.15297
G01 X13.50820 Y-20.13875
G01 X13.43576 Y-20.10872
G01 X13.39253 Y-20.08563
G01 X13.32733 Y-20.04205
G01 X13.26037 Y-19.98462
G01 X13.20292 Y-19.91764
G01 X13.15936 Y-19.85244
G01 X13.11946 Y-19.77372
G01 X13.09629 Y-19.70400
G01 X12.63000 Y-19.70400
G01 X12.63000 Y-19.85000
G01 X12.62230 Y-19.92803
G01 X12.59954 Y-20.00306
G01 X12.56259 Y-20.07222
G01 X12.51283 Y-20.13283
G01 X12.45222 Y-20.18259
G01 X12.38306 Y-20.21954
G01 X12.30803 Y-20.24230
G01 X12.23000 Y-20.25000
G01 X11.15489 Y-20.25000
G01 X10.81400 Y-20.59089
G01 X10.81400 Y-24.12997
G01 X10.80963 Y-24.20109
G01 X10.79050 Y-24.30186
G01 X10.75586 Y-24.39838
G01 X10.72736 Y-24.45431
G01 X10.66965 Y-24.53907
G01 X10.64374 Y-24.56937
G01 X9.54400 Y-25.67087
G01 X9.54400 Y-26.39908
G01 X10.06257 Y-26.91768
G01 X10.11918 Y-26.88046
G01 X10.26615 Y-26.80193
G01 X10.33859 Y-26.77190
G01 X10.49805 Y-26.72354
G01 X10.57496 Y-26.70825
G01 X10.77999 Y-26.68999
G01 X12.11920 Y-26.69192
G01 X12.32385 Y-26.71402
G01 X12.52139 Y-26.77190
G01 X12.59383 Y-26.80193
G01 X12.77445 Y-26.90066
G01 X12.93480 Y-27.02974
G01 X12.99022 Y-27.08519
G01 X13.11933 Y-27.24551
G01 X13.21803 Y-27.42616
G01 X13.24803 Y-27.49860
G01 X13.29644 Y-27.65803
G01 X13.31173 Y-27.73495
G01 X13.33000 Y-27.94000
G01 X13.31173 Y-28.14503
G01 X13.29644 Y-28.22194
G01 X13.24803 Y-28.38138
G01 X13.21803 Y-28.45382
G01 X13.13947 Y-28.60078
G01 X13.09594 Y-28.66598
G01 X12.99022 Y-28.79479
G01 X12.92273 Y-28.86012
G01 X12.98512 Y-28.79989
G01 X12.98512 Y-28.86012
G01 X12.92273 Y-28.86012
G01 X12.77445 Y-28.97932
G01 X12.59383 Y-29.07805
G01 X12.52139 Y-29.10807
G01 X12.32385 Y-29.16596
G01 X12.07999 Y-29.18998
G01 X10.77999 Y-29.18998
G01 X10.57496 Y-29.17172
G01 X10.49805 Y-29.15643
G01 X10.33859 Y-29.10807
G01 X10.26615 Y-29.07805
G01 X10.11918 Y-28.99951
G01 X10.05401 Y-28.95595
G01 X9.93722 Y-28.86012
G01 X9.56991 Y-28.86012
G01 X9.42759 Y-28.68948
G01 X9.27189 Y-28.47386
G01 X8.92040 Y-27.62532
G01 X8.42754 Y-27.13243
G01 X8.38032 Y-27.07907
G01 X8.32261 Y-26.99431
G01 X8.29412 Y-26.93838
G01 X8.27397 Y-26.88646
G01 X8.26661 Y-26.84005
G01 X8.25713 Y-26.74000
G01 X8.25497 Y-26.67000
G01 X8.25497 Y-25.40000
G01 X8.26188 Y-25.26977
G01 X8.27395 Y-25.18352
G01 X8.27400 Y-23.82792
G01 X8.31301 Y-23.79596
G01 X8.36846 Y-23.74052
G01 X8.39955 Y-23.70264
G01 X8.44311 Y-23.63744
G01 X8.48302 Y-23.55873
G01 X8.49622 Y-23.52177
G01 X8.51045 Y-23.47488
G01 X8.52576 Y-23.39797
G01 X8.53249 Y-23.30999
G01 X8.53249 Y-22.40999
G01 X8.52576 Y-22.32200
G01 X8.51045 Y-22.24509
G01 X8.48302 Y-22.16125
G01 X8.44311 Y-22.08253
G01 X8.39955 Y-22.01733
G01 X8.36846 Y-21.97946
G01 X8.31301 Y-21.92401
G01 X8.24360 Y-21.86953
G01 X8.16671 Y-21.82625
G01 X8.09427 Y-21.79625
G01 X8.00931 Y-21.77247
G01 X7.88863 Y-21.76026
G01 X7.35749 Y-21.75998
G01 X7.26951 Y-21.76671
G01 X7.19259 Y-21.78202
G01 X7.14571 Y-21.79625
G01 X7.07326 Y-21.82625
G01 X6.99638 Y-21.86953
G01 X6.96483 Y-21.89292
G01 X6.92696 Y-21.92401
G01 X6.87151 Y-21.97946
G01 X6.84042 Y-22.01733
G01 X6.79686 Y-22.08253
G01 X6.75696 Y-22.16125
G01 X6.74375 Y-22.19820
G01 X6.72953 Y-22.24509
G01 X6.71421 Y-22.32200
G01 X6.70941 Y-22.37077
G01 X6.70941 Y-23.34920
G01 X6.71421 Y-23.39797
G01 X6.72953 Y-23.47488
G01 X6.74375 Y-23.52177
G01 X6.75696 Y-23.55873
G01 X6.79686 Y-23.63744
G01 X6.84042 Y-23.70264
G01 X6.87151 Y-23.74052
G01 X6.92696 Y-23.79596
G01 X6.96598 Y-23.82792
G01 X6.96598 Y-29.21000
G01 X6.97278 Y-29.29875
G01 X6.98810 Y-29.37566
G01 X7.01576 Y-29.46027
G01 X7.05602 Y-29.53967
G01 X7.09958 Y-29.60487
G01 X7.13118 Y-29.64335
G01 X8.42754 Y-30.94243
G01 X8.49511 Y-31.00040
G01 X8.56031 Y-31.04396
G01 X8.63971 Y-31.08422
G01 X8.72432 Y-31.11188
G01 X8.80123 Y-31.12719
G01 X8.89000 Y-31.13400
G01 X9.71685 Y-31.13400
G01 X9.76404 Y-31.20598
G01 X9.89609 Y-31.36387
G01 X10.05401 Y-31.49595
G01 X10.11918 Y-31.53951
G01 X10.26615 Y-31.61805
G01 X10.33859 Y-31.64807
G01 X10.49805 Y-31.69643
G01 X10.57496 Y-31.71172
G01 X10.77999 Y-31.72998
G01 X12.07999 Y-31.72998
G01 X12.28501 Y-31.71172
G01 X12.36193 Y-31.69643
G01 X12.52139 Y-31.64807
G01 X12.59383 Y-31.61805
G01 X12.77445 Y-31.51932
G01 X12.93480 Y-31.39023
G01 X12.99022 Y-31.33479
G01 X13.09594 Y-31.20598
G01 X13.14310 Y-31.13397
G01 X13.52685 Y-31.13397
G01 X13.57404 Y-31.20598
G01 X13.70609 Y-31.36387
G01 X13.86401 Y-31.49595
G01 X13.92918 Y-31.53951
G01 X14.07615 Y-31.61805
G01 X14.14859 Y-31.64807
G01 X14.30805 Y-31.69643
G01 X14.38496 Y-31.71172
G01 X14.58999 Y-31.72998
G01 X15.88999 Y-31.72998
G01 X16.09501 Y-31.71172
G01 X16.17193 Y-31.69643
G01 X16.33139 Y-31.64807
G01 X16.40383 Y-31.61805
G01 X16.58445 Y-31.51932
G01 X16.74480 Y-31.39023
G01 X16.80022 Y-31.33479
G01 X16.90594 Y-31.20598
G01 X16.95313 Y-31.13397
G01 X21.11957 Y-31.13397
G01 X21.16148 Y-31.15135
G01 X21.22769 Y-31.16941
G01 X21.33498 Y-31.18000
G01 X22.50999 Y-31.18000
G01 X22.61728 Y-31.16941
G01 X22.68350 Y-31.15135
G01 X22.72541 Y-31.13397
G01 X48.25997 Y-31.13400
G01 X48.44219 Y-31.60913
G01 X48.44550 Y-31.62920
G01 X48.26650 Y-31.79717
G01 X48.18433 Y-31.88785
G01 X47.96508 Y-32.16069
G01 X47.93640 Y-32.20451
G01 X48.03673 Y-32.35467
G01 X48.18918 Y-32.50710
G01 X48.26551 Y-32.56973
G01 X48.38243 Y-32.65350
G01 X48.50930 Y-32.72132
G01 X48.64395 Y-32.77199
G01 X48.73841 Y-32.80065
G01 X48.86957 Y-32.83179
G01 X49.00359 Y-32.84664
G01 X49.08240 Y-32.84921
G01 X67.20568 Y-32.84921
G01 X67.42013 Y-32.82808
G01 X67.51696 Y-32.80882
G01 X67.65597 Y-32.77159
G01 X67.78894 Y-32.71652
G01 X67.91355 Y-32.64456
G01 X67.99565 Y-32.58970
G01 X68.16220 Y-32.45297
G01 X70.48960 Y-30.12557
G01 X70.62633 Y-29.95902
G01 X70.68119 Y-29.87693
G01 X70.75315 Y-29.75232
G01 X70.80821 Y-29.61935
G01 X70.84545 Y-29.48033
G01 X70.86470 Y-29.38351
G01 X70.88584 Y-29.16900
G01 X70.86470 Y-28.95450
G01 X70.84545 Y-28.85770
G01 X70.80141 Y-28.69933
G01 X70.73428 Y-28.54930
G01 X70.70956 Y-28.50358
G01 X70.65076 Y-28.40700
G01 X70.55480 Y-28.26626
G01 X70.51248 Y-28.17843
G01 X70.50408 Y-28.18183
G01 X70.51248 Y-28.17843
G01 X70.48373 Y-28.08519
G01 X70.46920 Y-27.98869
G01 X70.46130 Y-27.98930
G01 X70.46920 Y-27.98869
G01 X70.46920 Y-27.89126
G01 X70.48373 Y-27.79479
G01 X70.47939 Y-27.79395
G01 X70.48373 Y-27.79479
G01 X70.51248 Y-27.70152
G01 X70.50842 Y-27.69974
G01 X70.51248 Y-27.70152
G01 X70.55477 Y-27.61369
G01 X70.60974 Y-27.53309
G01 X70.60618 Y-27.53048
G01 X70.60974 Y-27.53309
G01 X70.67611 Y-27.46157
G01 X70.67321 Y-27.45821
G01 X70.67611 Y-27.46157
G01 X70.75233 Y-27.40078
G01 X70.83684 Y-27.35199
G01 X70.83476 Y-27.34808
G01 X70.83684 Y-27.35199
G01 X70.92759 Y-27.31635
G01 X70.92625 Y-27.31107
G01 X70.92759 Y-27.31635
G01 X71.02272 Y-27.29466
G01 X71.14431 Y-27.28920
G01 X71.14443 Y-27.28201
G01 X71.14431 Y-27.28920
G01 X71.21723 Y-27.29466
G01 X71.31235 Y-27.31635
G01 X71.31340 Y-27.31249
G01 X71.31235 Y-27.31635
G01 X71.40311 Y-27.35199
G01 X71.40456 Y-27.34912
G01 X71.40311 Y-27.35199
G01 X71.48761 Y-27.40078
G01 X71.68403 Y-27.53040
G01 X71.77174 Y-27.57571
G01 X71.97202 Y-27.65542
G01 X72.18401 Y-27.69451
G01 X72.28238 Y-27.70281
G01 X72.42622 Y-27.70551
G01 X72.56917 Y-27.68943
G01 X72.70880 Y-27.65481
G01 X72.80285 Y-27.62484
G01 X72.97374 Y-27.55405
G01 X73.13036 Y-27.45562
G01 X73.18687 Y-27.41308
G01 X73.30308 Y-27.31209
G01 X75.63297 Y-24.98220
G01 X75.76970 Y-24.81565
G01 X75.82456 Y-24.73355
G01 X75.89652 Y-24.60894
G01 X75.95159 Y-24.47597
G01 X75.98882 Y-24.33696
G01 X76.00808 Y-24.24013
G01 X76.02921 Y-24.02568
G01 X76.02921 Y-7.72429
G01 X76.00808 Y-7.50981
G01 X75.98882 Y-7.41299
G01 X75.95159 Y-7.27398
G01 X75.89652 Y-7.14101
G01 X75.82456 Y-7.01639
G01 X75.76970 Y-6.93430
G01 X75.63297 Y-6.76775
G01 X73.30308 Y-4.43786
G01 X73.22307 Y-4.36535
G01 X73.13633 Y-4.30101
G01 X73.05424 Y-4.24617
G01 X72.86417 Y-4.14459
G01 X72.65792 Y-4.08203
G01 X72.56112 Y-4.06278
G01 X72.34662 Y-4.04165
G01 X72.13211 Y-4.06278
G01 X72.03529 Y-4.08203
G01 X71.85762 Y-4.13319
G01 X71.69104 Y-4.21340
G01 X71.63011 Y-4.24934
G01 X71.48761 Y-4.34917
G01 X71.40308 Y-4.39796
G01 X71.40580 Y-4.40383
G01 X71.40308 Y-4.39796
G01 X71.31233 Y-4.43360
G01 X71.21723 Y-4.45529
G01 X71.21820 Y-4.46090
G01 X71.21723 Y-4.45529
G01 X71.09567 Y-4.46075
G01 X71.09546 Y-4.46446
G01 X71.09567 Y-4.46075
G01 X71.02272 Y-4.45529
G01 X70.92762 Y-4.43360
G01 X70.92655 Y-4.43746
G01 X70.92762 Y-4.43360
G01 X70.83682 Y-4.39796
G01 X70.83476 Y-4.40187
G01 X70.83682 Y-4.39796
G01 X70.75233 Y-4.34917
G01 X70.67611 Y-4.28838
G01 X70.67321 Y-4.29174
G01 X70.67611 Y-4.28838
G01 X70.60974 Y-4.21686
G01 X70.60634 Y-4.21937
G01 X70.60974 Y-4.21686
G01 X70.55477 Y-4.13624
G01 X70.51746 Y-4.05874
G01 X70.51355 Y-4.06047
G01 X70.51746 Y-4.05874
G01 X70.48302 Y-3.95046
G01 X70.47827 Y-3.95138
G01 X70.48302 Y-3.95046
G01 X70.46920 Y-3.85869
G01 X70.46920 Y-3.76126
G01 X70.46140 Y-3.76067
G01 X70.46920 Y-3.76126
G01 X70.48373 Y-3.66476
G01 X70.51248 Y-3.57152
G01 X70.50402 Y-3.56809
G01 X70.51248 Y-3.57152
G01 X70.55477 Y-3.48371
G01 X70.65076 Y-3.34294
G01 X70.70710 Y-3.25084
G01 X70.75416 Y-3.15377
G01 X70.79280 Y-3.06291
G01 X70.84032 Y-2.92710
G01 X70.86971 Y-2.78623
G01 X70.88045 Y-2.64277
G01 X70.88137 Y-2.54406
G01 X70.87329 Y-2.40043
G01 X70.84652 Y-2.25908
G01 X70.80153 Y-2.12242
G01 X70.76460 Y-2.03088
G01 X70.69201 Y-1.88369
G01 X70.59833 Y-1.74894
G01 X70.48960 Y-1.62433
G01 X68.16220 Y0.70300
G01 X67.99565 Y0.83972
G01 X67.91355 Y0.89459
G01 X67.78894 Y0.96655
G01 X67.65597 Y1.02161
G01 X67.51696 Y1.05885
G01 X67.42013 Y1.07810
G01 X67.20568 Y1.09924
G01 X7.72429 Y1.09924
G01 X7.50981 Y1.07810
G01 X7.41299 Y1.05885
G01 X7.27398 Y1.02161
G01 X7.14101 Y0.96655
G01 X7.01639 Y0.89459
G01 X6.93430 Y0.83972
G01 X6.76775 Y0.70300
G01 X4.44035 Y-1.62433
G01 X4.30362 Y-1.79093
G01 X4.24876 Y-1.87302
G01 X4.17680 Y-1.99763
G01 X4.12173 Y-2.13060
G01 X4.08450 Y-2.26962
G01 X4.06524 Y-2.36644
G01 X4.04411 Y-2.58094
G01 X4.06524 Y-2.79545
G01 X4.08450 Y-2.89225
G01 X4.12857 Y-3.05074
G01 X4.19580 Y-3.20083
G01 X4.22051 Y-3.24653
G01 X4.27916 Y-3.34287
G01 X4.37515 Y-3.48366
G01 X4.41747 Y-3.57154
G01 X4.42587 Y-3.56814
G01 X4.41747 Y-3.57154
G01 X4.44622 Y-3.66476
G01 X4.46075 Y-3.76126
G01 X4.46865 Y-3.76067
G01 X4.46075 Y-3.76126
G01 X4.46075 Y-3.85869
G01 X4.44622 Y-3.95519
G01 X4.45056 Y-3.95602
G01 X4.44622 Y-3.95519
G01 X4.41747 Y-4.04840
G01 X4.42153 Y-4.05018
G01 X4.41747 Y-4.04840
G01 X4.37515 Y-4.13629
G01 X4.32021 Y-4.21686
G01 X4.32377 Y-4.21947
G01 X4.32021 Y-4.21686
G01 X4.25384 Y-4.28838
G01 X4.25674 Y-4.29174
G01 X4.25384 Y-4.28838
G01 X4.17761 Y-4.34917
G01 X4.09311 Y-4.39796
G01 X4.09517 Y-4.40187
G01 X4.09311 Y-4.39796
G01 X4.00233 Y-4.43360
G01 X4.00367 Y-4.43890
G01 X4.00233 Y-4.43360
G01 X3.90723 Y-4.45529
G01 X3.78567 Y-4.46075
G01 X3.78554 Y-4.46794
G01 X3.78567 Y-4.46075
G01 X3.71274 Y-4.45529
G01 X3.61762 Y-4.43360
G01 X3.61655 Y-4.43746
G01 X3.61762 Y-4.43360
G01 X3.52682 Y-4.39796
G01 X3.52537 Y-4.40083
G01 X3.52682 Y-4.39796
G01 X3.44233 Y-4.34917
G01 X3.24587 Y-4.21955
G01 X3.15821 Y-4.17424
G01 X2.95793 Y-4.09453
G01 X2.74594 Y-4.05544
G01 X2.64757 Y-4.04713
G01 X2.50373 Y-4.04444
G01 X2.36078 Y-4.06052
G01 X2.22115 Y-4.09514
G01 X2.12710 Y-4.12511
G01 X1.95621 Y-4.19590
G01 X1.79959 Y-4.29433
G01 X1.74307 Y-4.33687
G01 X1.62682 Y-4.43786
G01 X-0.70300 Y-6.76775
G01 X-0.83972 Y-6.93430
G01 X-0.89459 Y-7.01639
G01 X-0.96655 Y-7.14101
G01 X-1.02161 Y-7.27398
G01 X-1.05885 Y-7.41299
G01 X-1.07810 Y-7.50981
G01 X-1.09924 Y-7.72429
G01 X-1.09924 Y-24.02568
G01 X-1.07810 Y-24.24013
G01 X-1.05885 Y-24.33696
G01 X-0.99629 Y-24.54326
G01 X-0.89471 Y-24.73335
G01 X-0.83988 Y-24.81544
G01 X-0.77554 Y-24.90219
G01 X-0.70302 Y-24.98222
G01 X1.62682 Y-27.31211
G01 X1.79349 Y-27.44884
G01 X1.87556 Y-27.50368
G01 X2.00015 Y-27.57564
G01 X2.13309 Y-27.63068
G01 X2.27208 Y-27.66792
G01 X2.36891 Y-27.68717
G01 X2.58338 Y-27.70830
G01 X2.79784 Y-27.68717
G01 X2.89466 Y-27.66792
G01 X3.07233 Y-27.61676
G01 X3.23886 Y-27.53655
G01 X3.29984 Y-27.50061
G01 X3.44233 Y-27.40078
G01 X3.52684 Y-27.35199
G01 X3.52410 Y-27.34612
G01 X3.52684 Y-27.35199
G01 X3.61759 Y-27.31635
G01 X3.71272 Y-27.29466
G01 X3.71175 Y-27.28905
G01 X3.71272 Y-27.29466
G01 X3.83431 Y-27.28920
G01 X3.83451 Y-27.28549
G01 X3.83431 Y-27.28920
G01 X3.90723 Y-27.29466
G01 X4.00235 Y-27.31635
G01 X4.00340 Y-27.31249
G01 X4.00235 Y-27.31635
G01 X4.09311 Y-27.35199
