( pcb2gcode 2.5.0 )
( Software-independent Gcode )

G94 ( Millimeters per minute feed rate. )
G21 ( Units == Millimeters. )

G90 ( Absolute coordinates. )
G00 S10000 ( RPM spindle speed. )
G64 P0.01016 ( set maximum deviation from commanded toolpath )
G01 F500.00000 ( Feedrate. )


G00 Z7.62000 (Retract to tool change height)
T1
M5      (Spindle stop.)
G04 P1.00000 (Wait for spindle to stop)
(MSG, Change tool bit to mill diameter 0.15000mm)
M6      (Tool change.)
M0      (Temporary machine stop.)
M3 ( Spindle on clockwise. )
G04 P1.00000 (Wait for spindle to get up to speed)
G04 P0 ( dwell for no time -- G64 should not smooth over this point )
G00 Z0.63500 ( retract )

G00 X5.16882 Y-21.89787 ( rapid move to begin. )
G01 F30.00000
( Mill infeed pass 1/1 )
G01 Z-0.14000
G04 P0 ( dwell for no time -- G64 should not smooth over this point )
G01 F500.00000
G01 X5.16882 Y-21.89787
G01 X5.16578 Y-21.89671
G01 X5.18523 Y-21.76955
G01 X5.19123 Y-21.68962
G01 X5.19346 Y-21.38759
G01 X5.18645 Y-21.27103
G01 X5.17629 Y-21.23013
G01 X5.16273 Y-21.13818
G01 X5.16275 Y-19.50123
G01 X5.17017 Y-19.44279
G01 X5.19605 Y-19.36880
G01 X5.23639 Y-19.30461
G01 X5.39712 Y-19.16831
G01 X5.62348 Y-19.02303
G01 X5.78681 Y-19.02303
G01 X5.87606 Y-19.03824
G01 X5.98195 Y-19.04878
G01 X6.08749 Y-19.05272
G01 X6.66511 Y-19.05145
G01 X6.82132 Y-19.03857
G01 X6.91314 Y-19.02303
G01 X7.10999 Y-19.02303
G01 X7.20695 Y-19.03258
G01 X7.30016 Y-19.06085
G01 X7.38609 Y-19.10677
G01 X7.42401 Y-19.13791
G01 X7.47827 Y-19.23557
G01 X7.42401 Y-19.13791
G01 X7.42401 Y-18.79384
G01 X7.43128 Y-18.79100
G01 X7.42401 Y-18.79384
G01 X7.42043 Y-18.79092
G01 X7.35155 Y-18.72204
G01 X7.31523 Y-18.67632
G01 X7.31523 Y-16.88366
G01 X7.35155 Y-16.83794
G01 X7.42043 Y-16.76905
G01 X7.49750 Y-16.70891
G01 X7.58256 Y-16.66075
G01 X7.67255 Y-16.62346
G01 X7.76676 Y-16.59738
G01 X7.91248 Y-16.58302
G01 X8.43750 Y-16.58302
G01 X8.58322 Y-16.59738
G01 X8.67743 Y-16.62346
G01 X8.76742 Y-16.66075
G01 X8.85248 Y-16.70891
G01 X8.92952 Y-16.76905
G01 X8.99841 Y-16.83794
G01 X9.02950 Y-16.87584
G01 X9.08362 Y-16.95684
G01 X9.12759 Y-17.04414
G01 X9.15825 Y-17.13695
G01 X9.17725 Y-17.23250
G01 X9.18205 Y-17.28127
G01 X9.18444 Y-18.22999
G01 X9.17725 Y-18.32747
G01 X9.15825 Y-18.42303
G01 X9.14403 Y-18.46991
G01 X9.12759 Y-18.51584
G01 X9.08362 Y-18.60314
G01 X9.02950 Y-18.68414
G01 X8.99841 Y-18.72204
G01 X8.92952 Y-18.79092
G01 X8.92594 Y-18.79387
G01 X8.91972 Y-18.79163
G01 X8.92594 Y-18.79387
G01 X8.92594 Y-19.45498
G01 X8.91865 Y-19.55322
G01 X8.89965 Y-19.64878
G01 X8.88520 Y-19.69643
G01 X8.84791 Y-19.78642
G01 X8.82444 Y-19.83034
G01 X8.77034 Y-19.91134
G01 X8.70600 Y-19.98596
G01 X7.81233 Y-20.87748
G01 X7.71893 Y-20.94921
G01 X7.68495 Y-20.97004
G01 X7.60694 Y-21.00897
G01 X7.59351 Y-21.00049
G01 X7.60694 Y-21.00897
G01 X7.60694 Y-21.12000
G01 X7.59739 Y-21.21695
G01 X7.56912 Y-21.31017
G01 X7.52320 Y-21.39607
G01 X7.46138 Y-21.47138
G01 X7.38609 Y-21.53321
G01 X7.33110 Y-21.56259
G01 X7.05668 Y-21.61695
G01 X6.54594 Y-21.61695
G01 X6.51500 Y-21.58604
G01 X6.54594 Y-21.61695
G01 X6.54594 Y-21.84611
G01 X6.53867 Y-21.84895
G01 X6.54594 Y-21.84611
G01 X6.54952 Y-21.84905
G01 X6.61843 Y-21.91794
G01 X6.65470 Y-21.96363
G01 X6.65470 Y-23.75634
G01 X6.60763 Y-23.81280
G01 X6.39051 Y-23.85733
G01 X6.41386 Y-23.84336
G01 X6.48259 Y-23.78936
G01 X6.53687 Y-23.73511
G01 X6.56796 Y-23.69723
G01 X6.61060 Y-23.63340
G01 X6.65470 Y-23.54260
G01 X6.61060 Y-23.63340
G01 X6.56796 Y-23.69723
G01 X6.53687 Y-23.73511
G01 X6.48259 Y-23.78936
G01 X6.41386 Y-23.84336
G01 X6.39051 Y-23.85733
G01 X6.13943 Y-23.90191
G01 X6.05693 Y-23.90747
G01 X5.53298 Y-23.90747
G01 X5.41561 Y-23.89739
G01 X5.30327 Y-23.86330
G01 X5.27225 Y-23.84770
G01 X5.19974 Y-23.80798
G01 X5.13532 Y-23.75621
G01 X5.10896 Y-23.73348
G01 X5.03448 Y-23.64273
G01 X4.97914 Y-23.53920
G01 X4.94505 Y-23.42683
G01 X4.93497 Y-23.30945
G01 X4.93497 Y-22.41050
G01 X5.20748 Y-22.40999
G01 X5.20748 Y-23.30999
G01 X5.21266 Y-23.36612
G01 X5.23222 Y-23.43437
G01 X5.25849 Y-23.48423
G01 X5.29773 Y-23.53434
G01 X5.34601 Y-23.57582
G01 X5.41505 Y-23.61273
G01 X5.46908 Y-23.62873
G01 X5.52513 Y-23.63462
G01 X6.06483 Y-23.63462
G01 X6.12803 Y-23.62695
G01 X6.17492 Y-23.61273
G01 X6.23174 Y-23.58400
G01 X6.28185 Y-23.54473
G01 X6.32333 Y-23.49645
G01 X6.36024 Y-23.42744
G01 X6.37624 Y-23.37338
G01 X6.38213 Y-23.31733
G01 X6.38213 Y-22.40265
G01 X6.37624 Y-22.34659
G01 X6.35775 Y-22.28560
G01 X6.33151 Y-22.23574
G01 X6.29224 Y-22.18563
G01 X6.23174 Y-22.13597
G01 X6.17492 Y-22.10725
G01 X6.12397 Y-22.09203
G01 X6.12397 Y-21.19498
G01 X7.10999 Y-21.19498
G01 X7.12462 Y-21.19356
G01 X7.15165 Y-21.18236
G01 X7.16303 Y-21.17301
G01 X7.17928 Y-21.14870
G01 X7.18500 Y-21.12000
G01 X7.18500 Y-20.64898
G01 X7.30997 Y-20.64898
G01 X7.36722 Y-20.64380
G01 X7.41718 Y-20.63085
G01 X7.45399 Y-20.61561
G01 X7.50799 Y-20.58251
G01 X7.54263 Y-20.55261
G01 X8.40763 Y-19.68759
G01 X8.45231 Y-19.63143
G01 X8.48142 Y-19.57393
G01 X8.49587 Y-19.52628
G01 X8.50397 Y-19.45498
G01 X8.50397 Y-18.54794
G01 X8.55492 Y-18.53273
G01 X8.61174 Y-18.50400
G01 X8.66729 Y-18.45981
G01 X8.70334 Y-18.41645
G01 X8.73460 Y-18.36103
G01 X8.75731 Y-18.28612
G01 X8.76249 Y-18.22999
G01 X8.76249 Y-17.32999
G01 X8.75731 Y-17.27385
G01 X8.74022 Y-17.21254
G01 X8.70334 Y-17.14353
G01 X8.66729 Y-17.10017
G01 X8.61804 Y-17.05976
G01 X8.55492 Y-17.02725
G01 X8.50090 Y-17.01124
G01 X8.43750 Y-17.00500
G01 X7.91248 Y-17.00500
G01 X7.84195 Y-17.01302
G01 X7.79506 Y-17.02725
G01 X7.73824 Y-17.05597
G01 X7.68269 Y-17.10017
G01 X7.63847 Y-17.15574
G01 X7.61223 Y-17.20560
G01 X7.59551 Y-17.25945
G01 X7.58749 Y-17.32999
G01 X7.58784 Y-18.23733
G01 X7.59551 Y-18.30052
G01 X7.61223 Y-18.35437
G01 X7.63847 Y-18.40423
G01 X7.67773 Y-18.45434
G01 X7.73824 Y-18.50400
G01 X7.79506 Y-18.53273
G01 X7.84598 Y-18.54794
G01 X7.84598 Y-19.31868
G01 X7.18500 Y-19.97969
G01 X7.18355 Y-19.50535
G01 X7.17928 Y-19.49127
G01 X7.16303 Y-19.46697
G01 X7.13870 Y-19.45069
G01 X7.12462 Y-19.44642
G01 X5.51000 Y-19.44500
G01 X5.49537 Y-19.44642
G01 X5.46832 Y-19.45762
G01 X5.44764 Y-19.47832
G01 X5.44071 Y-19.49127
G01 X5.43499 Y-19.51998
G01 X5.43499 Y-21.12000
G01 X5.44071 Y-21.14870
G01 X5.44764 Y-21.16165
G01 X5.46598 Y-21.18042
G01 X5.46598 Y-22.09203
G01 X5.40146 Y-22.11288
G01 X5.35193 Y-22.13976
G01 X5.30814 Y-22.17524
G01 X5.26664 Y-22.22353
G01 X5.22976 Y-22.29254
G01 X5.21373 Y-22.34659
G01 X5.20748 Y-22.40999
G01 X5.10200 Y-22.40999
G01 X5.11028 Y-22.32599
G01 X5.12879 Y-22.26193
G01 X5.14233 Y-22.22924
G01 X5.18511 Y-22.15660
G01 X5.24121 Y-22.09368
G01 X5.29331 Y-22.05205
G01 X5.36049 Y-22.01621
G01 X5.37477 Y-22.02452
G01 X5.36049 Y-22.01621
G01 X5.36166 Y-21.22079
G01 X5.34325 Y-21.18906
G01 X5.33296 Y-21.15520
G01 X5.32950 Y-21.12000
G01 X5.32950 Y-19.51998
G01 X5.33296 Y-19.48477
G01 X5.34325 Y-19.45091
G01 X5.35991 Y-19.41972
G01 X5.38236 Y-19.39237
G01 X5.40972 Y-19.36991
G01 X5.44091 Y-19.35323
G01 X5.47477 Y-19.34296
G01 X5.51000 Y-19.33951
G01 X7.10999 Y-19.33951
G01 X7.14520 Y-19.34296
G01 X7.17906 Y-19.35323
G01 X7.21027 Y-19.36991
G01 X7.23760 Y-19.39237
G01 X7.26006 Y-19.41972
G01 X7.27674 Y-19.45091
G01 X7.28701 Y-19.48477
G01 X7.29049 Y-19.51998
G01 X7.29049 Y-19.72503
G01 X7.22536 Y-19.88223
G01 X7.29049 Y-19.72503
G01 X7.74050 Y-19.27499
G01 X7.74852 Y-19.27832
G01 X7.74050 Y-19.27499
G01 X7.74050 Y-18.62376
G01 X7.75477 Y-18.61546
G01 X7.74050 Y-18.62376
G01 X7.67331 Y-18.58792
G01 X7.62122 Y-18.54629
G01 X7.56511 Y-18.48338
G01 X7.52234 Y-18.41073
G01 X7.50880 Y-18.37804
G01 X7.49028 Y-18.31398
G01 X7.48287 Y-18.24769
G01 X7.48287 Y-17.31228
G01 X7.49028 Y-17.24599
G01 X7.50880 Y-17.18193
G01 X7.54545 Y-17.10601
G01 X7.59620 Y-17.03870
G01 X7.65909 Y-16.98259
G01 X7.68850 Y-16.96293
G01 X7.76442 Y-16.92631
G01 X7.81131 Y-16.91208
G01 X7.84603 Y-16.90517
G01 X7.91248 Y-16.89951
G01 X8.43750 Y-16.89951
G01 X8.52147 Y-16.90776
G01 X8.58556 Y-16.92631
G01 X8.61825 Y-16.93984
G01 X8.67667 Y-16.97205
G01 X8.72876 Y-17.01368
G01 X8.75378 Y-17.03870
G01 X8.80453 Y-17.10601
G01 X8.83521 Y-17.16524
G01 X8.85541 Y-17.22882
G01 X8.86231 Y-17.26352
G01 X8.86798 Y-17.32999
G01 X8.86798 Y-18.22999
G01 X8.86231 Y-18.29646
G01 X8.84118 Y-18.37804
G01 X8.82764 Y-18.41073
G01 X8.80453 Y-18.45396
G01 X8.75378 Y-18.52127
G01 X8.72876 Y-18.54629
G01 X8.67667 Y-18.58792
G01 X8.60948 Y-18.62376
G01 X8.59673 Y-18.61683
G01 X8.60948 Y-18.62376
G01 X8.60946 Y-19.45498
G01 X8.60372 Y-19.52221
G01 X8.59681 Y-19.55691
G01 X8.56882 Y-19.63725
G01 X8.54535 Y-19.68116
G01 X8.52569 Y-19.71058
G01 X8.48220 Y-19.76219
G01 X7.61721 Y-20.62721
G01 X7.57649 Y-20.66272
G01 X7.49437 Y-20.71304
G01 X7.43062 Y-20.73707
G01 X7.39186 Y-20.74636
G01 X7.29049 Y-20.75447
G01 X7.26562 Y-20.73303
G01 X7.29049 Y-20.75447
G01 X7.29049 Y-21.12000
G01 X7.28701 Y-21.15520
G01 X7.27674 Y-21.18906
G01 X7.26006 Y-21.22025
G01 X7.23760 Y-21.24761
G01 X7.21027 Y-21.27006
G01 X7.17906 Y-21.28675
G01 X7.14520 Y-21.29701
G01 X7.10999 Y-21.30047
G01 X6.22945 Y-21.30047
G01 X6.19857 Y-21.26958
G01 X6.22945 Y-21.30047
G01 X6.22948 Y-22.01621
G01 X6.21518 Y-22.02449
G01 X6.22948 Y-22.01621
G01 X6.28147 Y-22.04293
G01 X6.31088 Y-22.06259
G01 X6.37377 Y-22.11870
G01 X6.42452 Y-22.18601
G01 X6.44764 Y-22.22924
G01 X6.46118 Y-22.26193
G01 X6.48231 Y-22.34352
G01 X6.48797 Y-22.40999
G01 X6.48797 Y-23.30999
G01 X6.47969 Y-23.39398
G01 X6.45518 Y-23.47473
G01 X6.42452 Y-23.53396
G01 X6.37377 Y-23.60127
G01 X6.31088 Y-23.65738
G01 X6.28147 Y-23.67704
G01 X6.20555 Y-23.71367
G01 X6.14147 Y-23.73221
G01 X6.05749 Y-23.74047
G01 X5.53248 Y-23.74047
G01 X5.44850 Y-23.73221
G01 X5.38442 Y-23.71367
G01 X5.35173 Y-23.70013
G01 X5.29331 Y-23.66792
G01 X5.24121 Y-23.62629
G01 X5.21619 Y-23.60127
G01 X5.16545 Y-23.53396
G01 X5.14233 Y-23.49073
G01 X5.12879 Y-23.45804
G01 X5.11028 Y-23.39398
G01 X5.10200 Y-23.30999
G01 X5.10200 Y-22.40999
G01 X4.99651 Y-22.40999
G01 X5.00268 Y-22.33318
G01 X5.01363 Y-22.27819
G01 X5.03730 Y-22.20488
G01 X5.07241 Y-22.13628
G01 X5.10355 Y-22.08967
G01 X5.13464 Y-22.05180
G01 X5.17428 Y-22.01215
G01 X5.23471 Y-21.96435
G01 X5.25498 Y-21.95218
G01 X5.26402 Y-21.95619
G01 X5.25498 Y-21.95218
G01 X5.25574 Y-21.24657
G01 X5.24579 Y-21.22942
G01 X5.22950 Y-21.17578
G01 X5.22402 Y-21.12000
G01 X5.22402 Y-19.51998
G01 X5.22950 Y-19.46420
G01 X5.24579 Y-19.41055
G01 X5.27220 Y-19.36110
G01 X5.30776 Y-19.31777
G01 X5.35109 Y-19.28221
G01 X5.40055 Y-19.25577
G01 X5.45419 Y-19.23951
G01 X5.51000 Y-19.23400
G01 X7.10999 Y-19.23400
G01 X7.16577 Y-19.23951
G01 X7.21942 Y-19.25577
G01 X7.26887 Y-19.28221
G01 X7.31220 Y-19.31777
G01 X7.34776 Y-19.36110
G01 X7.37420 Y-19.41055
G01 X7.39153 Y-19.47479
G01 X7.36435 Y-19.57644
G01 X7.39153 Y-19.47479
G01 X7.63499 Y-19.23131
G01 X7.64304 Y-19.23463
G01 X7.63499 Y-19.23131
G01 X7.63499 Y-18.68780
G01 X7.64504 Y-18.68307
G01 X7.63499 Y-18.68780
G01 X7.61472 Y-18.67563
G01 X7.55429 Y-18.62783
G01 X7.51464 Y-18.58818
G01 X7.48355 Y-18.55031
G01 X7.45241 Y-18.50370
G01 X7.41731 Y-18.43509
G01 X7.39364 Y-18.36179
G01 X7.38269 Y-18.30680
G01 X7.37789 Y-18.25803
G01 X7.37789 Y-17.30195
G01 X7.38269 Y-17.25318
G01 X7.39364 Y-17.19819
G01 X7.41731 Y-17.12488
G01 X7.45241 Y-17.05628
G01 X7.48355 Y-17.00967
G01 X7.51464 Y-16.97180
G01 X7.55429 Y-16.93215
G01 X7.61472 Y-16.88435
G01 X7.63880 Y-16.86992
G01 X7.68200 Y-16.84680
G01 X7.73379 Y-16.82534
G01 X7.78071 Y-16.81112
G01 X7.83567 Y-16.80019
G01 X7.91248 Y-16.79400
G01 X8.43750 Y-16.79400
G01 X8.51428 Y-16.80019
G01 X8.56927 Y-16.81112
G01 X8.61616 Y-16.82534
G01 X8.66798 Y-16.84680
G01 X8.73526 Y-16.88435
G01 X8.75779 Y-16.90106
G01 X8.79569 Y-16.93215
G01 X8.83534 Y-16.97180
G01 X8.86643 Y-17.00967
G01 X8.89757 Y-17.05628
G01 X8.93267 Y-17.12488
G01 X8.95634 Y-17.19819
G01 X8.96729 Y-17.25318
G01 X8.97209 Y-17.30195
G01 X8.97209 Y-18.25803
G01 X8.96729 Y-18.30680
G01 X8.95634 Y-18.36179
G01 X8.93267 Y-18.43509
G01 X8.89757 Y-18.50370
G01 X8.86643 Y-18.55031
G01 X8.83534 Y-18.58818
G01 X8.79569 Y-18.62783
G01 X8.73526 Y-18.67563
G01 X8.71497 Y-18.68780
G01 X8.70496 Y-18.68310
G01 X8.71497 Y-18.68780
G01 X8.71357 Y-19.48299
G01 X8.70869 Y-19.53255
G01 X8.69777 Y-19.58754
G01 X8.68332 Y-19.63519
G01 X8.66186 Y-19.68698
G01 X8.63839 Y-19.73087
G01 X8.60725 Y-19.77751
G01 X8.55680 Y-19.83679
G01 X7.67532 Y-20.71705
G01 X7.64502 Y-20.74294
G01 X7.57471 Y-20.79013
G01 X7.49790 Y-20.82576
G01 X7.45523 Y-20.83963
G01 X7.39597 Y-20.85218
G01 X7.37591 Y-20.83699
G01 X7.39597 Y-20.85218
G01 X7.39597 Y-21.12000
G01 X7.39046 Y-21.17578
G01 X7.37420 Y-21.22942
G01 X7.34776 Y-21.27888
G01 X7.31220 Y-21.32221
G01 X7.26887 Y-21.35777
G01 X7.21942 Y-21.38421
G01 X7.16577 Y-21.40047
G01 X7.10999 Y-21.40598
G01 X6.33496 Y-21.40598
G01 X6.30405 Y-21.37507
G01 X6.33496 Y-21.40598
G01 X6.33496 Y-21.95215
G01 X6.32493 Y-21.95688
G01 X6.33496 Y-21.95215
G01 X6.35526 Y-21.96435
G01 X6.41566 Y-22.01215
G01 X6.45533 Y-22.05180
G01 X6.48642 Y-22.08967
G01 X6.51756 Y-22.13628
G01 X6.55267 Y-22.20488
G01 X6.57634 Y-22.27819
G01 X6.58729 Y-22.33318
G01 X6.59346 Y-22.40999
G01 X6.59209 Y-23.33803
G01 X6.58317 Y-23.41456
G01 X6.55267 Y-23.51509
G01 X6.51756 Y-23.58370
G01 X6.48642 Y-23.63031
G01 X6.45533 Y-23.66818
G01 X6.41566 Y-23.70783
G01 X6.37781 Y-23.73892
G01 X6.33118 Y-23.77006
G01 X6.28797 Y-23.79317
G01 X6.23618 Y-23.81463
G01 X6.16204 Y-23.83566
G01 X6.05749 Y-23.84598
G01 X5.53248 Y-23.84598
G01 X5.42793 Y-23.83566
G01 X5.35381 Y-23.81463
G01 X5.30200 Y-23.79317
G01 X5.23471 Y-23.75563
G01 X5.17428 Y-23.70783
G01 X5.13464 Y-23.66818
G01 X5.10355 Y-23.63031
G01 X5.07241 Y-23.58370
G01 X5.04932 Y-23.54047
G01 X5.02785 Y-23.48868
G01 X5.00680 Y-23.41456
G01 X4.99651 Y-23.30999
G01 X4.99651 Y-22.40999
G01 X4.93497 Y-22.41050
G01 X4.93555 Y-22.38118
G01 X4.94505 Y-22.29312
G01 X4.97914 Y-22.18075
G01 X5.03474 Y-22.07679
G01 X5.16209 Y-21.90519
G01 X5.16791 Y-21.88769
G01 X5.18564 Y-21.76579
G01 X5.19346 Y-21.62861
G01 X5.19341 Y-21.38523
G01 X5.18645 Y-21.27103
G01 X5.17629 Y-21.23013
G01 X5.16247 Y-21.11957
G01 X5.16247 Y-19.52038
G01 X5.17017 Y-19.44279
G01 X5.19605 Y-19.36880
G01 X5.23639 Y-19.30461
G01 X5.39712 Y-19.16831
G01 X5.45023 Y-19.13440
G01 X5.51000 Y-19.12851
G01 X7.10999 Y-19.12851
G01 X7.18637 Y-19.13603
G01 X7.25980 Y-19.15831
G01 X7.32747 Y-19.19450
G01 X7.38680 Y-19.24317
G01 X7.42607 Y-19.29105
G01 X7.42630 Y-19.33395
G01 X7.42607 Y-19.29105
G01 X7.52950 Y-19.18762
G01 X7.53753 Y-19.19094
G01 X7.52950 Y-19.18762
G01 X7.52950 Y-18.74363
G01 X7.53763 Y-18.74025
G01 X7.52950 Y-18.74363
G01 X7.48736 Y-18.70936
G01 X7.43311 Y-18.65511
G01 X7.40202 Y-18.61723
G01 X7.35937 Y-18.55340
G01 X7.31523 Y-18.46255
G01 X7.31523 Y-17.09743
G01 X7.35937 Y-17.00657
G01 X7.40202 Y-16.94274
G01 X7.43311 Y-16.90487
G01 X7.48736 Y-16.85061
G01 X7.55612 Y-16.79661
G01 X7.63227 Y-16.75376
G01 X7.70319 Y-16.72440
G01 X7.78734 Y-16.70086
G01 X7.91248 Y-16.68851
G01 X8.43750 Y-16.68851
G01 X8.52462 Y-16.69522
G01 X8.59991 Y-16.71018
G01 X8.64679 Y-16.72440
G01 X8.71769 Y-16.75376
G01 X8.76092 Y-16.77688
G01 X8.82472 Y-16.81950
G01 X8.86262 Y-16.85061
G01 X8.91687 Y-16.90487
G01 X8.94796 Y-16.94274
G01 X8.99061 Y-17.00657
G01 X9.03013 Y-17.08450
G01 X9.04306 Y-17.12067
G01 X9.05728 Y-17.16758
G01 X9.07227 Y-17.24284
G01 X9.07707 Y-17.29161
G01 X9.07707 Y-18.26837
G01 X9.07227 Y-18.31713
G01 X9.05728 Y-18.39239
G01 X9.04306 Y-18.43931
G01 X9.03013 Y-18.47548
G01 X8.99061 Y-18.55340
G01 X8.94796 Y-18.61723
G01 X8.91687 Y-18.65511
G01 X8.86262 Y-18.70936
G01 X8.82472 Y-18.74048
G01 X8.82045 Y-18.74363
G01 X8.81154 Y-18.73971
G01 X8.82045 Y-18.74363
G01 X8.81855 Y-19.49333
G01 X8.81367 Y-19.54289
G01 X8.79871 Y-19.61815
G01 X8.78426 Y-19.66580
G01 X8.75490 Y-19.73669
G01 X8.73143 Y-19.78061
G01 X8.68878 Y-19.84441
G01 X8.63140 Y-19.91136
G01 X7.76641 Y-20.77639
G01 X7.71352 Y-20.82315
G01 X7.62983 Y-20.88007
G01 X7.57512 Y-20.90796
G01 X7.50146 Y-20.93519
G01 X7.48406 Y-20.92371
G01 X7.50146 Y-20.93519
G01 X7.50146 Y-21.12000
G01 X7.49394 Y-21.19635
G01 X7.47166 Y-21.26981
G01 X7.43547 Y-21.33747
G01 X7.38680 Y-21.39681
G01 X7.32747 Y-21.44547
G01 X7.25980 Y-21.48167
G01 X7.18637 Y-21.50394
G01 X7.10999 Y-21.51146
G01 X6.44042 Y-21.51146
G01 X6.40954 Y-21.48055
G01 X6.44042 Y-21.51146
G01 X6.44042 Y-21.89632
G01 X6.43232 Y-21.89973
G01 X6.44042 Y-21.89632
G01 X6.48259 Y-21.93061
G01 X6.53687 Y-21.98487
G01 X6.56796 Y-22.02274
G01 X6.61060 Y-22.08657
G01 X6.65470 Y-22.17735
G04 P0 ( dwell for no time -- G64 should not smooth over this point )
G00 Z0.63500 ( retract )

G00 X8.62162 Y-31.17441 ( rapid move to begin. )
G01 F30.00000
( Mill infeed pass 1/1 )
G01 Z-0.14000
G04 P0 ( dwell for no time -- G64 should not smooth over this point )
G01 F500.00000
G01 X8.62162 Y-31.17441
G01 X8.38581 Y-30.97835
G01 X7.11949 Y-29.71211
G01 X7.03308 Y-29.60677
G01 X7.00783 Y-29.56537
G01 X6.96397 Y-29.47749
G01 X6.92495 Y-29.35221
G01 X6.91114 Y-29.20416
G01 X6.91299 Y-24.59586
G01 X6.90921 Y-24.51938
G01 X6.89988 Y-24.42489
G01 X6.87045 Y-24.27846
G01 X6.81683 Y-24.19825
G01 X6.76816 Y-24.13894
G01 X6.70885 Y-24.09027
G01 X6.58244 Y-24.00983
G01 X6.53512 Y-23.99022
G01 X6.40743 Y-23.96145
G01 X6.53512 Y-23.99022
G01 X6.58244 Y-24.00983
G01 X6.70885 Y-24.09027
G01 X6.76816 Y-24.13894
G01 X6.81683 Y-24.19825
G01 X6.87045 Y-24.27846
G01 X6.83875 Y-24.16843
G01 X6.77022 Y-24.00483
G01 X6.68541 Y-23.94773
G01 X6.63019 Y-23.91585
G01 X6.23402 Y-23.99469
G01 X6.09171 Y-24.01227
G01 X5.49539 Y-24.01225
G01 X5.39115 Y-24.00051
G01 X5.35201 Y-23.98923
G01 X5.26628 Y-23.96272
G01 X5.13745 Y-23.89416
G01 X5.03161 Y-23.80534
G01 X4.94891 Y-23.70455
G01 X4.88226 Y-23.58357
G01 X4.84027 Y-23.44372
G01 X4.82935 Y-23.30999
G01 X4.82948 Y-22.40892
G01 X4.83982 Y-22.27618
G01 X4.87977 Y-22.14382
G01 X4.92440 Y-22.05698
G01 X4.94833 Y-22.01619
G01 X5.06562 Y-21.85830
G01 X5.08058 Y-21.75612
G01 X5.08584 Y-21.68497
G01 X5.08795 Y-21.38891
G01 X5.08493 Y-21.32025
G01 X5.05785 Y-21.15010
G01 X5.05671 Y-21.12073
G01 X5.05699 Y-19.51921
G01 X5.06484 Y-19.42374
G01 X5.10004 Y-19.32257
G01 X5.15511 Y-19.23410
G01 X5.33161 Y-19.08556
G01 X5.39499 Y-19.04451
G01 X5.42628 Y-18.98879
G01 X5.46659 Y-18.89867
G01 X5.49090 Y-18.82597
G01 X5.50055 Y-18.74992
G01 X5.50245 Y-18.68226
G01 X5.50055 Y-18.74992
G01 X5.49090 Y-18.82597
G01 X5.46659 Y-18.89867
G01 X5.42628 Y-18.98879
G01 X5.39499 Y-19.04451
G01 X5.56509 Y-18.93519
G01 X5.58061 Y-18.88874
G01 X5.51256 Y-18.71157
G01 X5.42265 Y-18.45988
G01 X5.39758 Y-18.37294
G01 X5.39100 Y-18.32453
G01 X5.38447 Y-18.22999
G01 X5.38521 Y-17.29290
G01 X5.39689 Y-17.18861
G01 X5.43771 Y-17.05661
G01 X5.50306 Y-16.93608
G01 X5.62064 Y-16.77830
G01 X5.63562 Y-16.67612
G01 X5.64091 Y-16.60434
G01 X5.64299 Y-16.48234
G01 X5.63926 Y-16.40637
G01 X5.62196 Y-16.25455
G01 X5.51571 Y-16.10926
G01 X5.46895 Y-16.02443
G01 X5.45020 Y-15.98833
G01 X5.40835 Y-15.84861
G01 X5.39697 Y-15.71495
G01 X5.39745 Y-14.73200
G01 X5.40951 Y-14.62364
G01 X5.48782 Y-14.34361
G01 X5.47286 Y-14.26835
G01 X5.44421 Y-14.17389
G01 X5.41485 Y-14.10299
G01 X5.37223 Y-14.03919
G01 X5.32846 Y-13.98582
G01 X5.37223 Y-14.03919
G01 X5.41485 Y-14.10299
G01 X5.44421 Y-14.17389
G01 X5.47286 Y-14.26835
G01 X5.48782 Y-14.34846
G01 X5.52788 Y-14.20058
G01 X5.51264 Y-14.10551
G01 X5.31754 Y-13.97853
G01 X5.01249 Y-13.80607
G01 X4.94154 Y-13.76124
G01 X4.77495 Y-13.62024
G01 X4.64729 Y-13.46929
G01 X4.59522 Y-13.38964
G01 X4.53832 Y-13.29009
G01 X4.59387 Y-13.38740
G01 X4.54000 Y-13.29393
G01 X4.51315 Y-13.23693
G01 X4.43370 Y-13.03835
G01 X4.37083 Y-12.89715
G01 X4.34269 Y-12.86901
G01 X4.30205 Y-12.83782
G01 X4.21996 Y-12.78298
G01 X4.15226 Y-12.74681
G01 X4.04162 Y-12.71712
G01 X3.98201 Y-12.70528
G01 X3.90566 Y-12.69776
G01 X3.82930 Y-12.70528
G01 X3.73250 Y-12.72454
G01 X3.66799 Y-12.74326
G01 X3.64241 Y-12.75573
G01 X3.62417 Y-12.77414
G01 X3.64241 Y-12.75573
G01 X3.66799 Y-12.74326
G01 X3.73250 Y-12.72454
G01 X3.80959 Y-12.70919
G01 X4.40637 Y-12.72962
G01 X4.46039 Y-12.73835
G01 X4.56540 Y-12.72799
G01 X4.56540 Y-12.67196
G01 X4.58173 Y-12.50612
G01 X4.59265 Y-12.45116
G01 X4.64104 Y-12.29169
G01 X4.66247 Y-12.23990
G01 X4.74104 Y-12.09294
G01 X4.77218 Y-12.04633
G01 X4.87789 Y-11.91753
G01 X4.91752 Y-11.87788
G01 X5.06887 Y-11.75545
G01 X5.23989 Y-11.66249
G01 X5.29168 Y-11.64102
G01 X5.45114 Y-11.59266
G01 X5.50614 Y-11.58171
G01 X5.69999 Y-11.56401
G01 X6.99999 Y-11.56401
G01 X7.19384 Y-11.58171
G01 X7.24883 Y-11.59266
G01 X7.40829 Y-11.64102
G01 X7.46008 Y-11.66249
G01 X7.60702 Y-11.74102
G01 X7.65365 Y-11.77216
G01 X7.78246 Y-11.87788
G01 X7.82208 Y-11.91753
G01 X7.92780 Y-12.04633
G01 X7.95894 Y-12.09294
G01 X8.03750 Y-12.23990
G01 X8.05894 Y-12.29169
G01 X8.10732 Y-12.45116
G01 X8.11825 Y-12.50612
G01 X8.13598 Y-12.70000
G01 X8.11825 Y-12.89385
G01 X8.10732 Y-12.94882
G01 X8.04949 Y-13.13467
G01 X7.95894 Y-13.30703
G01 X7.92780 Y-13.35364
G01 X7.82208 Y-13.48245
G01 X7.78246 Y-13.52210
G01 X7.65365 Y-13.62781
G01 X7.60702 Y-13.65895
G01 X7.46008 Y-13.73749
G01 X7.40829 Y-13.75895
G01 X7.24883 Y-13.80731
G01 X7.19384 Y-13.81826
G01 X7.02803 Y-13.83459
G01 X6.88998 Y-13.83596
G01 X6.86148 Y-13.80929
G01 X6.88998 Y-13.83596
G01 X6.88998 Y-14.31468
G01 X6.88028 Y-14.31912
G01 X6.88998 Y-14.31468
G01 X6.89775 Y-14.31933
G01 X6.95818 Y-14.36715
G01 X6.99783 Y-14.40678
G01 X7.02892 Y-14.44468
G01 X7.06006 Y-14.49128
G01 X7.09516 Y-14.55989
G01 X7.11886 Y-14.63319
G01 X7.12978 Y-14.68818
G01 X7.13458 Y-14.73695
G01 X7.13598 Y-15.71498
G01 X7.12978 Y-15.79179
G01 X7.11886 Y-15.84678
G01 X7.09516 Y-15.92008
G01 X7.06006 Y-15.98869
G01 X7.02892 Y-16.03530
G01 X6.99783 Y-16.07320
G01 X6.95818 Y-16.11282
G01 X6.89775 Y-16.16065
G01 X6.88998 Y-16.16530
G01 X6.88028 Y-16.16085
G01 X6.88998 Y-16.16530
G01 X6.88998 Y-16.87218
G01 X6.87995 Y-16.87690
G01 X6.88998 Y-16.87218
G01 X6.91027 Y-16.88435
G01 X6.97067 Y-16.93215
G01 X7.01032 Y-16.97180
G01 X7.04141 Y-17.00967
G01 X7.07255 Y-17.05628
G01 X7.10766 Y-17.12488
G01 X7.13135 Y-17.19819
G01 X7.14228 Y-17.25318
G01 X7.14847 Y-17.32999
G01 X7.14847 Y-18.22999
G01 X7.14228 Y-18.30680
G01 X7.13135 Y-18.36179
G01 X7.10766 Y-18.43509
G01 X7.07255 Y-18.50370
G01 X7.04141 Y-18.55031
G01 X7.01032 Y-18.58818
G01 X6.97067 Y-18.62783
G01 X6.93280 Y-18.65892
G01 X6.91027 Y-18.67563
G01 X6.84296 Y-18.71317
G01 X6.79117 Y-18.73463
G01 X6.74428 Y-18.74886
G01 X6.68929 Y-18.75978
G01 X6.61248 Y-18.76598
G01 X6.08749 Y-18.76598
G01 X5.98292 Y-18.75566
G01 X5.90880 Y-18.73463
G01 X5.85701 Y-18.71317
G01 X5.81378 Y-18.69006
G01 X5.78970 Y-18.67563
G01 X5.72930 Y-18.62783
G01 X5.68965 Y-18.58818
G01 X5.65856 Y-18.55031
G01 X5.62742 Y-18.50370
G01 X5.60431 Y-18.46047
G01 X5.58284 Y-18.40868
G01 X5.56181 Y-18.33456
G01 X5.55150 Y-18.22999
G01 X5.55150 Y-17.32999
G01 X5.55770 Y-17.25318
G01 X5.56862 Y-17.19819
G01 X5.59232 Y-17.12488
G01 X5.62742 Y-17.05628
G01 X5.65856 Y-17.00967
G01 X5.68965 Y-16.97180
G01 X5.72930 Y-16.93215
G01 X5.78970 Y-16.88435
G01 X5.81002 Y-16.87218
G01 X5.81904 Y-16.87617
G01 X5.81002 Y-16.87218
G01 X5.81002 Y-16.16532
G01 X5.81970 Y-16.16085
G01 X5.81002 Y-16.16532
G01 X5.80222 Y-16.16065
G01 X5.74180 Y-16.11282
G01 X5.70215 Y-16.07320
G01 X5.67106 Y-16.03530
G01 X5.63992 Y-15.98869
G01 X5.60481 Y-15.92008
G01 X5.57431 Y-15.81955
G01 X5.56400 Y-15.71498
G01 X5.56539 Y-14.73695
G01 X5.57431 Y-14.66042
G01 X5.58112 Y-14.63319
G01 X5.60481 Y-14.55989
G01 X5.63992 Y-14.49128
G01 X5.67106 Y-14.44468
G01 X5.70215 Y-14.40678
G01 X5.74180 Y-14.36715
G01 X5.80222 Y-14.31933
G01 X5.81002 Y-14.31465
G01 X5.81970 Y-14.31912
G01 X5.81002 Y-14.31465
G01 X5.81002 Y-13.83596
G01 X5.83799 Y-13.81013
G01 X5.81002 Y-13.83596
G01 X5.67195 Y-13.83459
G01 X5.50614 Y-13.81826
G01 X5.45114 Y-13.80731
G01 X5.29168 Y-13.75895
G01 X5.23989 Y-13.73749
G01 X5.09295 Y-13.65895
G01 X5.04632 Y-13.62781
G01 X4.91752 Y-13.52210
G01 X4.87789 Y-13.48245
G01 X4.75546 Y-13.33111
G01 X4.66247 Y-13.16007
G01 X4.64104 Y-13.10828
G01 X4.58584 Y-12.92161
G01 X4.56540 Y-12.72799
G01 X4.67037 Y-12.71768
G01 X4.67037 Y-12.68230
G01 X4.68930 Y-12.49896
G01 X4.74198 Y-12.32230
G01 X4.75551 Y-12.28961
G01 X4.84317 Y-12.12748
G01 X4.95943 Y-11.98446
G01 X4.98445 Y-11.95944
G01 X5.12747 Y-11.84316
G01 X5.28963 Y-11.75550
G01 X5.32232 Y-11.74196
G01 X5.48178 Y-11.69360
G01 X5.51647 Y-11.68669
G01 X5.69999 Y-11.66950
G01 X6.99999 Y-11.66950
G01 X7.18350 Y-11.68669
G01 X7.21820 Y-11.69360
G01 X7.37766 Y-11.74196
G01 X7.41035 Y-11.75550
G01 X7.57250 Y-11.84316
G01 X7.71553 Y-11.95944
G01 X7.74055 Y-11.98446
G01 X7.85680 Y-12.12748
G01 X7.94446 Y-12.28961
G01 X7.95800 Y-12.32230
G01 X8.00638 Y-12.48176
G01 X8.01327 Y-12.51646
G01 X8.02960 Y-12.68230
G01 X8.02960 Y-12.71768
G01 X8.01068 Y-12.90102
G01 X7.95800 Y-13.07767
G01 X7.94446 Y-13.11034
G01 X7.86592 Y-13.25730
G01 X7.84626 Y-13.28671
G01 X7.74055 Y-13.41552
G01 X7.71553 Y-13.44054
G01 X7.58673 Y-13.54625
G01 X7.55731 Y-13.56591
G01 X7.41035 Y-13.64447
G01 X7.37766 Y-13.65801
G01 X7.21820 Y-13.70637
G01 X7.18350 Y-13.71328
G01 X7.01769 Y-13.72961
G01 X6.78447 Y-13.73048
G01 X6.75518 Y-13.70241
G01 X6.78447 Y-13.73048
G01 X6.78447 Y-14.37683
G01 X6.77210 Y-14.38344
G01 X6.78447 Y-14.37683
G01 X6.83915 Y-14.40706
G01 X6.89127 Y-14.44869
G01 X6.94738 Y-14.51160
G01 X6.96704 Y-14.54102
G01 X7.00367 Y-14.61691
G01 X7.02221 Y-14.68100
G01 X7.02960 Y-14.74729
G01 X7.03047 Y-15.71498
G01 X7.02480 Y-15.78145
G01 X7.01789 Y-15.81615
G01 X6.99770 Y-15.87972
G01 X6.96704 Y-15.93896
G01 X6.94738 Y-15.96837
G01 X6.89127 Y-16.03129
G01 X6.83915 Y-16.07292
G01 X6.78447 Y-16.10314
G01 X6.77210 Y-16.09654
G01 X6.78447 Y-16.10314
G01 X6.78449 Y-16.93621
G01 X6.77019 Y-16.94452
G01 X6.78449 Y-16.93621
G01 X6.83646 Y-16.96293
G01 X6.90377 Y-17.01368
G01 X6.92879 Y-17.03870
G01 X6.97954 Y-17.10601
G01 X7.00263 Y-17.14924
G01 X7.01617 Y-17.18193
G01 X7.03471 Y-17.24599
G01 X7.04299 Y-17.32999
G01 X7.04299 Y-18.22999
G01 X7.03471 Y-18.31398
G01 X7.01020 Y-18.39473
G01 X6.97954 Y-18.45396
G01 X6.92879 Y-18.52127
G01 X6.90377 Y-18.54629
G01 X6.83646 Y-18.59704
G01 X6.76054 Y-18.63367
G01 X6.67896 Y-18.65480
G01 X6.61248 Y-18.66047
G01 X6.08749 Y-18.66047
G01 X6.00349 Y-18.65221
G01 X5.93943 Y-18.63367
G01 X5.90674 Y-18.62013
G01 X5.84832 Y-18.58792
G01 X5.79620 Y-18.54629
G01 X5.77118 Y-18.52127
G01 X5.72044 Y-18.45396
G01 X5.69735 Y-18.41073
G01 X5.68381 Y-18.37804
G01 X5.66527 Y-18.31398
G01 X5.65699 Y-18.22999
G01 X5.65699 Y-17.32999
G01 X5.66527 Y-17.24599
G01 X5.68381 Y-17.18193
G01 X5.69735 Y-17.14924
G01 X5.72044 Y-17.10601
G01 X5.77118 Y-17.03870
G01 X5.79620 Y-17.01368
G01 X5.86351 Y-16.96293
G01 X5.91551 Y-16.93621
G01 X5.92978 Y-16.94452
G01 X5.91551 Y-16.93621
G01 X5.91551 Y-16.10314
G01 X5.92788 Y-16.09654
G01 X5.91551 Y-16.10314
G01 X5.86082 Y-16.07292
G01 X5.80870 Y-16.03129
G01 X5.75259 Y-15.96837
G01 X5.73293 Y-15.93896
G01 X5.70227 Y-15.87972
G01 X5.68208 Y-15.81615
G01 X5.67517 Y-15.78145
G01 X5.66951 Y-15.71498
G01 X5.67037 Y-14.74729
G01 X5.67776 Y-14.68100
G01 X5.69631 Y-14.61691
G01 X5.73293 Y-14.54102
G01 X5.75259 Y-14.51160
G01 X5.80870 Y-14.44869
G01 X5.86082 Y-14.40706
G01 X5.91551 Y-14.37683
G01 X5.92788 Y-14.38344
G01 X5.91551 Y-14.37683
G01 X5.91551 Y-13.73048
G01 X5.94627 Y-13.69985
G01 X5.91551 Y-13.73048
G01 X5.69999 Y-13.73048
G01 X5.51647 Y-13.71328
G01 X5.48178 Y-13.70637
G01 X5.32232 Y-13.65801
G01 X5.28963 Y-13.64447
G01 X5.14266 Y-13.56591
G01 X5.11325 Y-13.54625
G01 X4.97131 Y-13.42865
G01 X4.85371 Y-13.28671
G01 X4.83405 Y-13.25730
G01 X4.74795 Y-13.09433
G01 X4.69359 Y-12.91821
G01 X4.68671 Y-12.88352
G01 X4.67037 Y-12.71768
G01 X4.77500 Y-12.70000
G01 X4.79275 Y-12.51953
G01 X4.84292 Y-12.35293
G01 X4.93088 Y-12.18608
G01 X5.04096 Y-12.05136
G01 X5.18610 Y-11.93089
G01 X5.33936 Y-11.84854
G01 X5.52681 Y-11.79167
G01 X5.69999 Y-11.77498
G01 X6.99999 Y-11.77498
G01 X7.18045 Y-11.79276
G01 X7.36062 Y-11.84854
G01 X7.51388 Y-11.93089
G01 X7.64860 Y-12.04097
G01 X7.76910 Y-12.18608
G01 X7.85706 Y-12.35293
G01 X7.90722 Y-12.51953
G01 X7.92462 Y-12.69263
G01 X7.90542 Y-12.88758
G01 X7.85457 Y-13.05395
G01 X7.77288 Y-13.20757
G01 X7.65406 Y-13.35405
G01 X7.50758 Y-13.47287
G01 X7.36062 Y-13.55143
G01 X7.18759 Y-13.60543
G01 X6.99999 Y-13.62499
G01 X6.67898 Y-13.62499
G01 X6.67898 Y-14.45059
G01 X6.73103 Y-14.46787
G01 X6.78056 Y-14.49476
G01 X6.82981 Y-14.53518
G01 X6.86582 Y-14.57851
G01 X6.90273 Y-14.64755
G01 X6.91982 Y-14.70886
G01 X6.92498 Y-14.76499
G01 X6.92498 Y-15.71498
G01 X6.91982 Y-15.77111
G01 X6.89709 Y-15.84602
G01 X6.86582 Y-15.90147
G01 X6.82981 Y-15.94480
G01 X6.77423 Y-15.98900
G01 X6.73103 Y-16.01211
G01 X6.67898 Y-16.02938
G01 X6.67898 Y-17.01203
G01 X6.72993 Y-17.02725
G01 X6.78673 Y-17.05597
G01 X6.84230 Y-17.10017
G01 X6.88650 Y-17.15574
G01 X6.91274 Y-17.20560
G01 X6.92945 Y-17.25945
G01 X6.93748 Y-17.32999
G01 X6.93748 Y-18.22999
G01 X6.93232 Y-18.28612
G01 X6.91274 Y-18.35437
G01 X6.88650 Y-18.40423
G01 X6.84723 Y-18.45434
G01 X6.78673 Y-18.50400
G01 X6.72993 Y-18.53273
G01 X6.66862 Y-18.54982
G01 X6.61248 Y-18.55498
G01 X6.08749 Y-18.55498
G01 X6.01696 Y-18.54695
G01 X5.97004 Y-18.53273
G01 X5.91325 Y-18.50400
G01 X5.85274 Y-18.45434
G01 X5.81348 Y-18.40423
G01 X5.79036 Y-18.36103
G01 X5.76765 Y-18.28612
G01 X5.76250 Y-18.22999
G01 X5.76250 Y-17.32999
G01 X5.76872 Y-17.26659
G01 X5.79036 Y-17.19895
G01 X5.81348 Y-17.15574
G01 X5.85274 Y-17.10563
G01 X5.91325 Y-17.05597
G01 X5.97004 Y-17.02725
G01 X6.02099 Y-17.01203
G01 X6.02099 Y-16.02938
G01 X5.96895 Y-16.01211
G01 X5.91942 Y-15.98521
G01 X5.87563 Y-15.94975
G01 X5.83415 Y-15.90147
G01 X5.79725 Y-15.83243
G01 X5.78124 Y-15.77840
G01 X5.77499 Y-15.71498
G01 X5.77499 Y-14.76499
G01 X5.78015 Y-14.70886
G01 X5.80288 Y-14.63396
G01 X5.83415 Y-14.57851
G01 X5.86524 Y-14.54064
G01 X5.92574 Y-14.49098
G01 X5.96895 Y-14.46787
G01 X6.02099 Y-14.45059
G01 X6.02099 Y-13.62499
G01 X5.69999 Y-13.62499
G01 X5.52681 Y-13.60830
G01 X5.35292 Y-13.55705
G01 X5.19239 Y-13.47287
G01 X5.04096 Y-13.34861
G01 X4.92709 Y-13.20757
G01 X4.84292 Y-13.04704
G01 X4.79455 Y-12.88758
G01 X4.77500 Y-12.70000
G01 X4.67037 Y-12.71768
G01 X4.46039 Y-12.73835
G01 X4.47297 Y-12.86586
G01 X4.63278 Y-13.24313
G01 X4.72951 Y-13.40315
G01 X4.85193 Y-13.54803
G01 X5.00197 Y-13.67414
G01 X5.06608 Y-13.71521
G01 X5.38706 Y-13.89812
G01 X5.49580 Y-13.92324
G01 X5.66161 Y-13.93957
G01 X5.70451 Y-13.94145
G01 X5.73225 Y-13.91605
G01 X5.70451 Y-13.94145
G01 X5.70454 Y-14.26126
G01 X5.71241 Y-14.26449
G01 X5.70454 Y-14.26126
G01 X5.67487 Y-14.28559
G01 X5.62061 Y-14.33987
G01 X5.58950 Y-14.37775
G01 X5.57040 Y-14.43888
G01 X5.63631 Y-14.21031
G01 X5.61490 Y-14.06406
G01 X5.59168 Y-14.02880
G01 X5.38706 Y-13.89812
G01 X5.51528 Y-13.98016
G01 X5.60235 Y-14.04196
G01 X5.61256 Y-14.06495
G01 X5.63438 Y-14.20302
G01 X5.61035 Y-14.30398
G01 X5.51256 Y-14.64810
G01 X5.50306 Y-14.73617
G01 X5.50306 Y-15.74378
G01 X5.51256 Y-15.83182
G01 X5.54665 Y-15.94419
G01 X5.60337 Y-16.05011
G01 X5.71472 Y-16.20256
G01 X5.72262 Y-16.21808
G01 X5.72585 Y-16.21688
G01 X5.72262 Y-16.21808
G01 X5.73463 Y-16.29842
G01 X5.74883 Y-16.47853
G01 X5.74627 Y-16.60962
G01 X5.74027 Y-16.68955
G01 X5.72082 Y-16.81668
G01 X5.72463 Y-16.81810
G01 X5.72082 Y-16.81668
G01 X5.58968 Y-16.99687
G01 X5.53415 Y-17.10075
G01 X5.50004 Y-17.21310
G01 X5.48998 Y-17.33052
G01 X5.48998 Y-18.22943
G01 X5.49577 Y-18.31218
G01 X5.50034 Y-18.34878
G01 X5.52257 Y-18.42600
G01 X5.63339 Y-18.73286
G01 X5.68099 Y-18.85615
G01 X5.75754 Y-18.89923
G01 X5.80593 Y-18.91927
G01 X5.84380 Y-18.92684
G01 X5.99105 Y-18.94368
G01 X6.08813 Y-18.94723
G01 X6.61180 Y-18.94723
G01 X6.70890 Y-18.94368
G01 X6.80969 Y-18.93372
G01 X6.89407 Y-18.91927
G01 X6.94243 Y-18.89923
G01 X7.02747 Y-18.85107
G01 X7.10453 Y-18.79092
G01 X7.17342 Y-18.72204
G01 X7.20974 Y-18.67632
G01 X7.20974 Y-16.88366
G01 X7.17342 Y-16.83794
G01 X7.10453 Y-16.76905
G01 X7.10095 Y-16.76611
G01 X7.09369 Y-16.76895
G01 X7.10095 Y-16.76611
G01 X7.10095 Y-16.26700
G01 X7.09491 Y-16.26486
G01 X7.10095 Y-16.26700
G01 X7.16092 Y-16.20703
G01 X7.19201 Y-16.16916
G01 X7.24723 Y-16.08610
G01 X7.24723 Y-14.39388
G01 X7.19201 Y-14.31082
G01 X7.16092 Y-14.27295
G01 X7.10095 Y-14.21298
G01 X7.09491 Y-14.21511
G01 X7.10095 Y-14.21298
G01 X7.10095 Y-14.03942
G01 X7.07520 Y-14.01712
G01 X7.10095 Y-14.03942
G01 X7.26277 Y-14.02105
G01 X7.46953 Y-13.96086
G01 X7.55952 Y-13.92357
G01 X7.70649 Y-13.84501
G01 X7.78749 Y-13.79088
G01 X7.95244 Y-13.65242
G01 X8.03966 Y-13.54991
G01 X8.09135 Y-13.39085
G01 X8.13244 Y-13.22675
G01 X8.14926 Y-13.14242
G01 X8.17362 Y-12.97836
G01 X8.18121 Y-12.90132
G01 X8.18932 Y-12.73665
G01 X8.19473 Y-12.52065
G01 X8.21192 Y-12.33317
G01 X8.23722 Y-12.17343
G01 X8.22355 Y-12.14044
G01 X8.11995 Y-11.95167
G01 X7.98518 Y-11.78367
G01 X7.91629 Y-11.71478
G01 X7.74832 Y-11.58004
G01 X7.57133 Y-11.48273
G01 X5.12864 Y-11.48273
G01 X4.95165 Y-11.58004
G01 X4.78368 Y-11.71478
G01 X4.71480 Y-11.78367
G01 X4.60908 Y-11.91250
G01 X4.55496 Y-11.99350
G01 X4.47642 Y-12.14044
G01 X4.43913 Y-12.23046
G01 X4.37891 Y-12.43721
G01 X4.35676 Y-12.63777
G01 X4.40637 Y-12.72962
G01 X4.48236 Y-12.88509
G01 X4.63278 Y-13.24313
G01 X4.72951 Y-13.40315
G01 X4.85193 Y-13.54803
G01 X4.99684 Y-13.67051
G01 X5.06608 Y-13.71521
G01 X5.37456 Y-13.88976
G01 X5.59006 Y-14.03043
G01 X5.60697 Y-14.04904
G01 X5.61256 Y-14.06495
G01 X5.63397 Y-14.21016
G01 X5.51256 Y-14.64810
G01 X5.50306 Y-14.73617
G01 X5.50306 Y-15.74378
G01 X5.51256 Y-15.83182
G01 X5.54665 Y-15.94419
G01 X5.60337 Y-16.05011
G01 X5.71472 Y-16.20256
G01 X5.72262 Y-16.21808
G01 X5.74454 Y-16.39971
G01 X5.74845 Y-16.55054
G01 X5.74068 Y-16.68579
G01 X5.72082 Y-16.81668
G01 X5.58968 Y-16.99687
G01 X5.54980 Y-17.06966
G01 X5.53415 Y-17.10075
G01 X5.50939 Y-17.17939
G01 X5.50004 Y-17.21310
G01 X5.49577 Y-17.24774
G01 X5.48998 Y-17.33052
G01 X5.49057 Y-18.25879
G01 X5.50034 Y-18.34878
G01 X5.52257 Y-18.42600
G01 X5.60225 Y-18.64797
G01 X5.60809 Y-18.65511
G01 X5.66237 Y-18.70936
G01 X5.73110 Y-18.76336
G01 X5.80728 Y-18.80621
G01 X5.87817 Y-18.83557
G01 X5.96235 Y-18.85912
G01 X6.08749 Y-18.87146
G01 X6.61248 Y-18.87146
G01 X6.73763 Y-18.85912
G01 X6.82180 Y-18.83557
G01 X6.89270 Y-18.80621
G01 X6.96887 Y-18.76336
G01 X7.03760 Y-18.70936
G01 X7.09188 Y-18.65511
G01 X7.12297 Y-18.61723
G01 X7.16559 Y-18.55340
G01 X7.20974 Y-18.46257
G01 X7.20974 Y-17.09740
G01 X7.16559 Y-17.00657
G01 X7.12297 Y-16.94274
G01 X7.09188 Y-16.90487
G01 X7.03760 Y-16.85061
G01 X6.99546 Y-16.81635
G01 X6.98734 Y-16.81973
G01 X6.99546 Y-16.81635
G01 X6.99546 Y-16.21871
G01 X6.98675 Y-16.21493
G01 X6.99546 Y-16.21871
G01 X7.07936 Y-16.14010
G01 X7.11048 Y-16.10223
G01 X7.15310 Y-16.03842
G01 X7.19262 Y-15.96047
G01 X7.20557 Y-15.92430
G01 X7.21980 Y-15.87739
G01 X7.23476 Y-15.80213
G01 X7.24146 Y-15.71498
G01 X7.23956 Y-14.72662
G01 X7.23476 Y-14.67785
G01 X7.21980 Y-14.60259
G01 X7.20557 Y-14.55567
G01 X7.19262 Y-14.51950
G01 X7.15310 Y-14.44155
G01 X7.11048 Y-14.37775
G01 X7.07936 Y-14.33987
G01 X7.02511 Y-14.28559
G01 X6.99546 Y-14.26126
G01 X6.98757 Y-14.26451
G01 X6.99546 Y-14.26126
G01 X6.99546 Y-13.94145
G01 X6.96806 Y-13.91658
G01 X6.99546 Y-13.94145
G01 X7.24218 Y-13.91760
G01 X7.43890 Y-13.85989
G01 X7.50981 Y-13.83053
G01 X7.68970 Y-13.73223
G01 X7.84936 Y-13.60363
G01 X7.90364 Y-13.54938
G01 X8.00936 Y-13.42057
G01 X8.05198 Y-13.35677
G01 X8.13968 Y-13.19037
G01 X8.14926 Y-13.14242
G01 X8.17362 Y-12.97836
G01 X8.18121 Y-12.90132
G01 X8.18932 Y-12.73665
G01 X8.19178 Y-12.56403
G01 X8.20491 Y-12.40947
G01 X8.15990 Y-12.26106
G01 X8.13054 Y-12.19017
G01 X8.05198 Y-12.04321
G01 X8.00936 Y-11.97940
G01 X7.90364 Y-11.85060
G01 X7.84936 Y-11.79634
G01 X7.68970 Y-11.66774
G01 X7.50981 Y-11.56945
G01 X7.43890 Y-11.54008
G01 X7.24357 Y-11.48273
G01 X5.45640 Y-11.48273
G01 X5.26108 Y-11.54008
G01 X5.19016 Y-11.56945
G01 X5.01028 Y-11.66774
G01 X4.85061 Y-11.79634
G01 X4.79633 Y-11.85060
G01 X4.66773 Y-12.01026
G01 X4.56943 Y-12.19017
G01 X4.54007 Y-12.26106
G01 X4.49171 Y-12.42052
G01 X4.47672 Y-12.49578
G01 X4.45851 Y-12.70000
G01 X4.47297 Y-12.86586
G01 X4.40637 Y-12.72962
G01 X3.54886 Y-12.70028
G01 X3.44320 Y-12.80282
G01 X3.32268 Y-12.90549
G01 X3.21912 Y-12.96081
G01 X3.18600 Y-12.97175
G01 X3.10683 Y-12.99489
G01 X3.01882 Y-13.00439
G01 X2.06113 Y-13.00439
G01 X1.97310 Y-12.99489
G01 X1.86078 Y-12.96083
G01 X1.75722 Y-12.90546
G01 X1.72969 Y-12.88397
G01 X1.66647 Y-12.83096
G01 X1.59192 Y-12.74021
G01 X1.53662 Y-12.63665
G01 X1.51186 Y-12.55791
G01 X1.50256 Y-12.52433
G01 X1.49248 Y-12.40699
G01 X1.49306 Y-11.85365
G01 X1.50256 Y-11.76564
G01 X1.51186 Y-11.73201
G01 X1.53662 Y-11.65329
G01 X1.57442 Y-11.58075
G01 X1.70739 Y-11.36891
G01 X1.76657 Y-11.32937
G01 X1.84450 Y-11.28984
G01 X1.89451 Y-11.27270
G01 X1.90995 Y-11.28215
G01 X1.89451 Y-11.27270
G01 X1.89451 Y-11.02736
G01 X1.91099 Y-11.01687
G01 X1.89451 Y-11.02736
G01 X1.81950 Y-11.00262
G01 X1.74155 Y-10.96310
G01 X1.70444 Y-10.93831
G01 X1.81318 Y-11.09840
G01 X1.81663 Y-11.09718
G01 X1.81318 Y-11.09840
G01 X1.81778 Y-11.11750
G01 X1.81988 Y-11.18370
G01 X1.82524 Y-11.18499
G01 X1.81988 Y-11.18370
G01 X1.81196 Y-11.21291
G01 X1.68491 Y-11.40254
G01 X1.81648 Y-11.20376
G01 X1.81988 Y-11.18370
G01 X1.81638 Y-11.10775
G01 X1.80830 Y-11.08982
G01 X1.69433 Y-10.92355
G01 X1.61534 Y-10.81601
G01 X1.54978 Y-10.71169
G01 X1.51130 Y-10.63826
G01 X1.48684 Y-10.56038
G01 X1.47754 Y-10.52680
G01 X1.46804 Y-10.43879
G01 X1.46746 Y-9.91052
G01 X1.73998 Y-9.90999
G01 X1.73998 Y-10.40999
G01 X1.74516 Y-10.46612
G01 X1.76787 Y-10.54103
G01 X1.79913 Y-10.59645
G01 X1.83022 Y-10.63434
G01 X1.89075 Y-10.68400
G01 X1.94061 Y-10.71024
G01 X1.99443 Y-10.72695
G01 X2.06499 Y-10.73498
G01 X2.21099 Y-10.73498
G01 X2.21099 Y-11.55748
G01 X2.08999 Y-11.55748
G01 X2.03385 Y-11.56266
G01 X1.96560 Y-11.58222
G01 X1.90353 Y-11.61664
G01 X1.85524 Y-11.65814
G01 X1.81597 Y-11.70823
G01 X1.78973 Y-11.75812
G01 X1.77302 Y-11.81194
G01 X1.76535 Y-11.87514
G01 X1.76500 Y-12.40749
G01 X1.77124 Y-12.47089
G01 X1.78973 Y-12.53185
G01 X1.82415 Y-12.59395
G01 X1.85524 Y-12.63185
G01 X1.90353 Y-12.67333
G01 X1.97254 Y-12.71024
G01 X2.01945 Y-12.72446
G01 X2.08265 Y-12.73211
G01 X2.98999 Y-12.73249
G01 X3.04612 Y-12.72731
G01 X3.11437 Y-12.70775
G01 X3.16423 Y-12.68151
G01 X3.21975 Y-12.63729
G01 X3.26400 Y-12.58174
G01 X3.29024 Y-12.53185
G01 X3.30695 Y-12.47803
G01 X3.31462 Y-12.41483
G01 X3.31493 Y-11.88248
G01 X3.30868 Y-11.81908
G01 X3.29024 Y-11.75812
G01 X3.25577 Y-11.69601
G01 X3.21975 Y-11.65268
G01 X3.16423 Y-11.60849
G01 X3.11437 Y-11.58222
G01 X3.04612 Y-11.56266
G01 X2.98999 Y-11.55748
G01 X2.86898 Y-11.55748
G01 X2.86898 Y-10.73498
G01 X3.01498 Y-10.73498
G01 X3.07111 Y-10.72982
G01 X3.14602 Y-10.70709
G01 X3.20142 Y-10.67582
G01 X3.24975 Y-10.63434
G01 X3.28894 Y-10.58423
G01 X3.31208 Y-10.54103
G01 X3.32938 Y-10.48898
G01 X4.83743 Y-10.48898
G01 X4.84856 Y-10.52063
G01 X4.92709 Y-10.66757
G01 X5.05137 Y-10.81900
G01 X5.18018 Y-10.92472
G01 X5.33936 Y-11.01143
G01 X5.51238 Y-11.06543
G01 X5.69999 Y-11.08499
G01 X6.99999 Y-11.08499
G01 X7.18045 Y-11.06721
G01 X7.34705 Y-11.01705
G01 X7.51388 Y-10.92909
G01 X7.64860 Y-10.81900
G01 X7.77288 Y-10.66757
G01 X7.85706 Y-10.50704
G01 X7.90829 Y-10.33318
G01 X7.92462 Y-10.15263
G01 X7.90722 Y-9.97953
G01 X7.85706 Y-9.81293
G01 X7.76910 Y-9.64608
G01 X7.65901 Y-9.51136
G01 X7.51388 Y-9.39089
G01 X7.34705 Y-9.30293
G01 X7.17316 Y-9.25167
G01 X6.99999 Y-9.23498
G01 X5.69999 Y-9.23498
G01 X5.51952 Y-9.25276
G01 X5.33936 Y-9.30854
G01 X5.18610 Y-9.39089
G01 X5.05137 Y-9.50097
G01 X4.93088 Y-9.64608
G01 X4.84856 Y-9.79935
G01 X4.83743 Y-9.83099
G01 X3.32938 Y-9.83099
G01 X3.31208 Y-9.77895
G01 X3.28894 Y-9.73574
G01 X3.23934 Y-9.67524
G01 X3.18922 Y-9.63597
G01 X3.14602 Y-9.61288
G01 X3.07111 Y-9.59015
G01 X3.01498 Y-9.58499
G01 X2.06499 Y-9.58499
G01 X2.00886 Y-9.59015
G01 X1.94754 Y-9.60725
G01 X1.87851 Y-9.64415
G01 X1.83022 Y-9.68563
G01 X1.79913 Y-9.72353
G01 X1.76225 Y-9.79254
G01 X1.74622 Y-9.84659
G01 X1.73998 Y-9.90999
G01 X1.63449 Y-9.90999
G01 X1.63538 Y-10.42769
G01 X1.64706 Y-10.51115
G01 X1.67485 Y-10.59073
G01 X1.69794 Y-10.63396
G01 X1.74869 Y-10.70127
G01 X1.81160 Y-10.75738
G01 X1.84102 Y-10.77704
G01 X1.90025 Y-10.80770
G01 X1.96383 Y-10.82789
G01 X1.99852 Y-10.83480
G01 X2.10548 Y-10.84047
G01 X2.13317 Y-10.81514
G01 X2.10548 Y-10.84047
G01 X2.10551 Y-11.45200
G01 X2.13058 Y-11.47331
G01 X2.10551 Y-11.45200
G01 X2.07228 Y-11.45286
G01 X1.98882 Y-11.46457
G01 X1.90924 Y-11.49233
G01 X1.83660 Y-11.53511
G01 X1.78559 Y-11.57808
G01 X1.74259 Y-11.62909
G01 X1.69984 Y-11.70173
G01 X1.68631 Y-11.73442
G01 X1.66776 Y-11.79850
G01 X1.66037 Y-11.86480
G01 X1.65951 Y-12.40749
G01 X1.66776 Y-12.49147
G01 X1.68631 Y-12.55555
G01 X1.72293 Y-12.63147
G01 X1.77368 Y-12.69876
G01 X1.79870 Y-12.72377
G01 X1.86601 Y-12.77452
G01 X1.92524 Y-12.80521
G01 X2.02352 Y-12.83231
G01 X2.08999 Y-12.83797
G01 X2.98999 Y-12.83797
G01 X3.05646 Y-12.83231
G01 X3.15473 Y-12.80521
G01 X3.21396 Y-12.77452
G01 X3.24338 Y-12.75486
G01 X3.29438 Y-12.71189
G01 X3.33738 Y-12.66088
G01 X3.35704 Y-12.63147
G01 X3.39367 Y-12.55555
G01 X3.40789 Y-12.50866
G01 X3.41960 Y-12.42517
G01 X3.42047 Y-11.88248
G01 X3.41221 Y-11.79850
G01 X3.39367 Y-11.73442
G01 X3.35704 Y-11.65852
G01 X3.33738 Y-11.62909
G01 X3.29438 Y-11.57808
G01 X3.24338 Y-11.53511
G01 X3.21396 Y-11.51545
G01 X3.15473 Y-11.48476
G01 X3.09115 Y-11.46457
G01 X3.05646 Y-11.45766
G01 X2.97447 Y-11.45200
G01 X2.94998 Y-11.47244
G01 X2.97447 Y-11.45200
G01 X2.97447 Y-10.84047
G01 X2.94681 Y-10.81514
G01 X2.97447 Y-10.84047
G01 X3.03268 Y-10.83960
G01 X3.11615 Y-10.82789
G01 X3.19575 Y-10.80013
G01 X3.26837 Y-10.75738
G01 X3.31940 Y-10.71438
G01 X3.36238 Y-10.66338
G01 X3.38204 Y-10.63396
G01 X3.40314 Y-10.59447
G01 X3.39654 Y-10.58210
G01 X3.40314 Y-10.59447
G01 X4.76842 Y-10.59447
G01 X4.77688 Y-10.57999
G01 X4.76842 Y-10.59447
G01 X4.83405 Y-10.71730
G01 X4.85371 Y-10.74671
G01 X4.97131 Y-10.88865
G01 X5.11325 Y-11.00625
G01 X5.14266 Y-11.02591
G01 X5.28963 Y-11.10447
G01 X5.32232 Y-11.11801
G01 X5.49895 Y-11.17067
G01 X5.69999 Y-11.19048
G01 X7.01769 Y-11.18961
G01 X7.20103 Y-11.17067
G01 X7.37766 Y-11.11801
G01 X7.41035 Y-11.10447
G01 X7.57250 Y-11.01682
G01 X7.71553 Y-10.90054
G01 X7.74055 Y-10.87552
G01 X7.84626 Y-10.74671
G01 X7.86592 Y-10.71730
G01 X7.94446 Y-10.57036
G01 X7.95800 Y-10.53767
G01 X8.00638 Y-10.37821
G01 X8.01327 Y-10.34352
G01 X8.03049 Y-10.16000
G01 X8.01327 Y-9.97646
G01 X8.00638 Y-9.94176
G01 X7.95800 Y-9.78230
G01 X7.94446 Y-9.74961
G01 X7.85680 Y-9.58748
G01 X7.74055 Y-9.44446
G01 X7.71553 Y-9.41944
G01 X7.57250 Y-9.30316
G01 X7.41035 Y-9.21550
G01 X7.37766 Y-9.20196
G01 X7.21820 Y-9.15360
G01 X7.18350 Y-9.14669
G01 X6.99999 Y-9.12950
G01 X5.69999 Y-9.12950
G01 X5.49895 Y-9.14931
G01 X5.32232 Y-9.20196
G01 X5.28963 Y-9.21550
G01 X5.14266 Y-9.29406
G01 X5.11325 Y-9.31372
G01 X4.98445 Y-9.41944
G01 X4.95943 Y-9.44446
G01 X4.85371 Y-9.57326
G01 X4.83405 Y-9.60267
G01 X4.76842 Y-9.72551
G01 X4.77726 Y-9.74037
G01 X4.76842 Y-9.72551
G01 X3.40314 Y-9.72551
G01 X3.39654 Y-9.73788
G01 X3.40314 Y-9.72551
G01 X3.37292 Y-9.67082
G01 X3.31940 Y-9.60559
G01 X3.26837 Y-9.56259
G01 X3.19575 Y-9.51984
G01 X3.16306 Y-9.50631
G01 X3.08145 Y-9.48517
G01 X3.03268 Y-9.48037
G01 X2.06499 Y-9.47951
G01 X1.99852 Y-9.48517
G01 X1.91691 Y-9.50631
G01 X1.84102 Y-9.54293
G01 X1.81160 Y-9.56259
G01 X1.76058 Y-9.60559
G01 X1.71760 Y-9.65660
G01 X1.69794 Y-9.68601
G01 X1.66131 Y-9.76193
G01 X1.64277 Y-9.82602
G01 X1.63449 Y-9.90999
G01 X1.52900 Y-9.90999
G01 X1.53038 Y-10.43803
G01 X1.53932 Y-10.51456
G01 X1.54612 Y-10.54179
G01 X1.56980 Y-10.61509
G01 X1.58181 Y-10.64047
G01 X1.60490 Y-10.68370
G01 X1.63606 Y-10.73031
G01 X1.68600 Y-10.78898
G01 X1.74468 Y-10.83892
G01 X1.79128 Y-10.87006
G01 X1.85989 Y-10.90516
G01 X1.93319 Y-10.92886
G01 X2.00000 Y-10.94095
G01 X2.02220 Y-10.92373
G01 X2.00000 Y-10.94095
G01 X2.00000 Y-11.35530
G01 X2.02049 Y-11.37036
G01 X2.00000 Y-11.35530
G01 X1.91130 Y-11.37785
G01 X1.88488 Y-11.38730
G01 X1.81628 Y-11.42241
G01 X1.76967 Y-11.45355
G01 X1.71099 Y-11.50348
G01 X1.66101 Y-11.56218
G01 X1.60680 Y-11.65200
G01 X1.58534 Y-11.70381
G01 X1.56431 Y-11.77793
G01 X1.55400 Y-11.88248
G01 X1.55400 Y-12.40749
G01 X1.56431 Y-12.51204
G01 X1.59482 Y-12.61260
G01 X1.62992 Y-12.68118
G01 X1.66101 Y-12.72779
G01 X1.69215 Y-12.76568
G01 X1.71099 Y-12.78649
G01 X1.76967 Y-12.83642
G01 X1.81628 Y-12.86754
G01 X1.85951 Y-12.89068
G01 X1.88488 Y-12.90264
G01 X1.95819 Y-12.92634
G01 X2.01318 Y-12.93726
G01 X2.08999 Y-12.94343
G01 X2.98999 Y-12.94343
G01 X3.06680 Y-12.93726
G01 X3.12179 Y-12.92634
G01 X3.19507 Y-12.90264
G01 X3.26370 Y-12.86754
G01 X3.31031 Y-12.83642
G01 X3.36898 Y-12.78649
G01 X3.38783 Y-12.76568
G01 X3.41892 Y-12.72779
G01 X3.45006 Y-12.68118
G01 X3.48516 Y-12.61260
G01 X3.49463 Y-12.58618
G01 X3.51566 Y-12.51204
G01 X3.52458 Y-12.43551
G01 X3.52598 Y-11.88248
G01 X3.51566 Y-11.77793
G01 X3.48516 Y-11.67737
G01 X3.45006 Y-11.60879
G01 X3.41892 Y-11.56218
G01 X3.38783 Y-11.52428
G01 X3.34818 Y-11.48464
G01 X3.31031 Y-11.45355
G01 X3.26370 Y-11.42241
G01 X3.19507 Y-11.38730
G01 X3.12179 Y-11.36363
G01 X3.07998 Y-11.35530
G01 X3.05948 Y-11.37036
G01 X3.07998 Y-11.35530
G01 X3.07998 Y-10.94095
G01 X3.05707 Y-10.92274
G01 X3.07998 Y-10.94095
G01 X3.14678 Y-10.92886
G01 X3.22008 Y-10.90516
G01 X3.28869 Y-10.87006
G01 X3.33530 Y-10.83892
G01 X3.39397 Y-10.78898
G01 X3.44391 Y-10.73031
G01 X3.46420 Y-10.69995
G01 X3.45907 Y-10.68939
G01 X3.46420 Y-10.69995
G01 X4.70517 Y-10.69995
G01 X4.71312 Y-10.68606
G01 X4.70517 Y-10.69995
G01 X4.74104 Y-10.76703
G01 X4.77218 Y-10.81364
G01 X4.87789 Y-10.94245
G01 X4.91752 Y-10.98210
G01 X5.04632 Y-11.08781
G01 X5.09295 Y-11.11895
G01 X5.23989 Y-11.19749
G01 X5.29168 Y-11.21895
G01 X5.47837 Y-11.27415
G01 X5.69999 Y-11.29596
G01 X6.99999 Y-11.29596
G01 X7.19384 Y-11.27826
G01 X7.24883 Y-11.26731
G01 X7.40829 Y-11.21895
G01 X7.46008 Y-11.19749
G01 X7.60702 Y-11.11895
G01 X7.65365 Y-11.08781
G01 X7.78246 Y-10.98210
G01 X7.82208 Y-10.94245
G01 X7.94451 Y-10.79111
G01 X8.03750 Y-10.62007
G01 X8.05894 Y-10.56828
G01 X8.10732 Y-10.40882
G01 X8.11825 Y-10.35385
G01 X8.13458 Y-10.18802
G01 X8.13458 Y-10.13196
G01 X8.11825 Y-9.96612
G01 X8.10732 Y-9.91116
G01 X8.05894 Y-9.75169
G01 X8.03750 Y-9.69990
G01 X7.95894 Y-9.55294
G01 X7.92780 Y-9.50633
G01 X7.82208 Y-9.37753
G01 X7.78246 Y-9.33788
G01 X7.63110 Y-9.21545
G01 X7.46008 Y-9.12249
G01 X7.40829 Y-9.10102
G01 X7.24883 Y-9.05266
G01 X7.19384 Y-9.04171
G01 X6.99999 Y-9.02401
G01 X5.69999 Y-9.02401
G01 X5.47837 Y-9.04583
G01 X5.29168 Y-9.10102
G01 X5.23989 Y-9.12249
G01 X5.09295 Y-9.20102
G01 X5.04632 Y-9.23216
G01 X4.91752 Y-9.33788
G01 X4.87789 Y-9.37753
G01 X4.75546 Y-9.52886
G01 X4.70517 Y-9.62002
G01 X4.71383 Y-9.63465
G01 X4.70517 Y-9.62002
G01 X3.46418 Y-9.62000
G01 X3.45907 Y-9.63059
G01 X3.46418 Y-9.62000
G01 X3.41282 Y-9.55180
G01 X3.39397 Y-9.53099
G01 X3.33530 Y-9.48106
G01 X3.28869 Y-9.44992
G01 X3.22008 Y-9.41481
G01 X3.14678 Y-9.39112
G01 X3.09179 Y-9.38019
G01 X3.01498 Y-9.37400
G01 X2.06499 Y-9.37400
G01 X1.98818 Y-9.38019
G01 X1.93319 Y-9.39112
G01 X1.85989 Y-9.41481
G01 X1.83451 Y-9.42680
G01 X1.79128 Y-9.44992
G01 X1.74468 Y-9.48106
G01 X1.68600 Y-9.53099
G01 X1.63606 Y-9.58967
G01 X1.60490 Y-9.63628
G01 X1.56980 Y-9.70488
G01 X1.53932 Y-9.80542
G01 X1.52900 Y-9.90999
G01 X1.46746 Y-9.91052
G01 X1.47754 Y-9.79315
G01 X1.51163 Y-9.68075
G01 X1.54960 Y-9.60793
G01 X1.62806 Y-9.47715
G01 X1.76596 Y-9.26272
G01 X3.38605 Y-9.26272
G01 X3.46916 Y-9.31796
G01 X3.50703 Y-9.34905
G01 X3.56784 Y-9.40902
G01 X3.56573 Y-9.41502
G01 X3.56784 Y-9.40902
G01 X4.58198 Y-9.40902
G01 X4.58696 Y-9.41939
G01 X4.58198 Y-9.40902
G01 X4.71480 Y-9.24367
G01 X4.78368 Y-9.17478
G01 X4.86235 Y-9.11022
G01 X5.00654 Y-9.06391
G01 X5.17068 Y-9.02279
G01 X5.25607 Y-9.00577
G01 X5.42011 Y-8.98144
G01 X5.49811 Y-8.97374
G01 X5.70065 Y-8.96473
G01 X6.99930 Y-8.96473
G01 X7.20184 Y-8.97374
G01 X7.27984 Y-8.98144
G01 X7.44388 Y-9.00577
G01 X7.52927 Y-9.02279
G01 X7.69341 Y-9.06391
G01 X7.83765 Y-9.11024
G01 X7.91629 Y-9.17478
G01 X7.98518 Y-9.24367
G01 X8.11995 Y-9.41167
G01 X8.22355 Y-9.60044
G01 X8.26084 Y-9.69046
G01 X8.30920 Y-9.84989
G01 X8.32823 Y-9.94545
G01 X8.34695 Y-10.16000
G01 X8.32823 Y-10.37453
G01 X8.30920 Y-10.47008
G01 X8.26084 Y-10.62952
G01 X8.22355 Y-10.71954
G01 X8.11995 Y-10.90831
G01 X7.98518 Y-11.07630
G01 X7.91629 Y-11.14519
G01 X7.78749 Y-11.25088
G01 X7.70649 Y-11.30501
G01 X7.57138 Y-11.37722
G01 X5.12859 Y-11.37722
G01 X4.99349 Y-11.30501
G01 X4.91249 Y-11.25088
G01 X4.78368 Y-11.14519
G01 X4.71480 Y-11.07630
G01 X4.60908 Y-10.94748
G01 X4.58467 Y-10.91095
G01 X4.58917 Y-10.90120
G01 X4.58467 Y-10.91095
G01 X3.56784 Y-10.91095
G01 X3.56502 Y-10.90371
G01 X3.56784 Y-10.91095
G01 X3.50703 Y-10.97092
G01 X3.46916 Y-11.00201
G01 X3.38816 Y-11.05614
G01 X3.29095 Y-11.10364
G01 X3.27668 Y-11.09533
G01 X3.29095 Y-11.10364
G01 X3.29095 Y-11.19955
G01 X3.27713 Y-11.20739
G01 X3.29095 Y-11.19955
G01 X3.36314 Y-11.23635
G01 X3.44414 Y-11.29048
G01 X3.51815 Y-11.35431
G01 X3.58201 Y-11.42832
G01 X3.63614 Y-11.50932
G01 X3.68008 Y-11.59665
G01 X3.69651 Y-11.64255
G01 X3.72260 Y-11.73676
G01 X3.73695 Y-11.88248
G01 X3.73695 Y-12.40749
G01 X3.72628 Y-12.52837
G01 X3.44320 Y-12.80282
G01 X3.35026 Y-12.88397
G01 X3.32268 Y-12.90549
G01 X3.21912 Y-12.96081
G01 X3.14035 Y-12.98560
G01 X3.10683 Y-12.99489
G01 X2.98948 Y-13.00498
G01 X2.06113 Y-13.00439
G01 X1.97310 Y-12.99489
G01 X1.86078 Y-12.96083
G01 X1.75722 Y-12.90546
G01 X1.66647 Y-12.83096
G01 X1.59192 Y-12.74021
G01 X1.53662 Y-12.63665
G01 X1.50256 Y-12.52433
G01 X1.49306 Y-12.43632
G01 X1.49248 Y-11.88296
G01 X1.50256 Y-11.76564
G01 X1.53662 Y-11.65329
G01 X1.57442 Y-11.58075
G01 X1.68491 Y-11.40254
G01 X1.81196 Y-11.21291
G01 X1.81988 Y-11.18370
G01 X1.81778 Y-11.11750
G01 X1.81318 Y-11.09840
G01 X1.69433 Y-10.92355
G01 X1.61534 Y-10.81601
G01 X1.54978 Y-10.71169
G01 X1.51130 Y-10.63826
G01 X1.47754 Y-10.52680
G01 X1.46746 Y-10.40943
G01 X1.46804 Y-9.88116
G01 X1.47754 Y-9.79315
G01 X1.51163 Y-9.68075
G01 X1.52738 Y-9.64951
G01 X1.58539 Y-9.54768
G01 X1.67731 Y-9.39988
G01 X1.74155 Y-9.35688
G01 X1.81950 Y-9.31735
G01 X1.85567 Y-9.30440
G01 X1.90259 Y-9.29018
G01 X1.97785 Y-9.27522
G01 X2.02662 Y-9.27042
G01 X3.05336 Y-9.27042
G01 X3.10213 Y-9.27522
G01 X3.17739 Y-9.29018
G01 X3.22430 Y-9.30440
G01 X3.26047 Y-9.31735
G01 X3.33842 Y-9.35688
G01 X3.40223 Y-9.39950
G01 X3.46857 Y-9.45639
G01 X3.51871 Y-9.51451
G01 X3.51546 Y-9.52241
G01 X3.51871 Y-9.51451
G01 X4.64195 Y-9.51451
G01 X4.64688 Y-9.52482
G01 X4.64195 Y-9.51451
G01 X4.69062 Y-9.43940
G01 X4.79633 Y-9.31060
G01 X4.85061 Y-9.25634
G01 X5.01028 Y-9.12774
G01 X5.19016 Y-9.02945
G01 X5.23916 Y-9.00913
G01 X5.42011 Y-8.98144
G01 X5.49811 Y-8.97374
G01 X5.70065 Y-8.96473
G01 X6.99930 Y-8.96473
G01 X7.20184 Y-8.97374
G01 X7.27984 Y-8.98144
G01 X7.46077 Y-9.00913
G01 X7.50981 Y-9.02945
G01 X7.68970 Y-9.12774
G01 X7.84936 Y-9.25634
G01 X7.90364 Y-9.31060
G01 X8.03224 Y-9.47026
G01 X8.13054 Y-9.65017
G01 X8.15990 Y-9.72106
G01 X8.20826 Y-9.88052
G01 X8.22325 Y-9.95578
G01 X8.23958 Y-10.12162
G01 X8.23958 Y-10.19835
G01 X8.22325 Y-10.36419
G01 X8.20826 Y-10.43945
G01 X8.15990 Y-10.59891
G01 X8.13054 Y-10.66980
G01 X8.05198 Y-10.81677
G01 X8.00936 Y-10.88057
G01 X7.90364 Y-11.00938
G01 X7.84936 Y-11.06363
G01 X7.68970 Y-11.19223
G01 X7.50981 Y-11.29053
G01 X7.43890 Y-11.31989
G01 X7.24367 Y-11.37722
G01 X5.45630 Y-11.37722
G01 X5.26108 Y-11.31989
G01 X5.19016 Y-11.29053
G01 X5.04322 Y-11.21199
G01 X4.97942 Y-11.16935
G01 X4.85061 Y-11.06363
G01 X4.79633 Y-11.00938
G01 X4.69062 Y-10.88057
G01 X4.64195 Y-10.80546
G01 X4.64723 Y-10.79470
G01 X4.64195 Y-10.80546
G01 X3.51871 Y-10.80544
G01 X3.51493 Y-10.79675
G01 X3.51871 Y-10.80544
G01 X3.46857 Y-10.86358
G01 X3.40223 Y-10.92048
G01 X3.33842 Y-10.96310
G01 X3.26047 Y-11.00262
G01 X3.22430 Y-11.01557
G01 X3.18546 Y-11.02736
G01 X3.16784 Y-11.01562
G01 X3.18546 Y-11.02736
G01 X3.18546 Y-11.27270
G01 X3.16837 Y-11.28382
G01 X3.18546 Y-11.27270
G01 X3.27020 Y-11.30628
G01 X3.31340 Y-11.32937
G01 X3.37723 Y-11.37201
G01 X3.44358 Y-11.42891
G01 X3.50048 Y-11.49525
G01 X3.54310 Y-11.55906
G01 X3.58262 Y-11.63701
G01 X3.60980 Y-11.72007
G01 X3.62476 Y-11.79535
G01 X3.63146 Y-11.88248
G01 X3.62956 Y-12.44585
G01 X3.61912 Y-12.53264
G01 X3.59557 Y-12.61679
G01 X3.57066 Y-12.67823
G01 X3.54886 Y-12.70028
G01 X4.04162 Y-12.71712
G01 X4.07883 Y-12.72454
G01 X4.15226 Y-12.74681
G01 X4.21996 Y-12.78298
G01 X4.30205 Y-12.83782
G01 X4.34269 Y-12.86901
G01 X4.37083 Y-12.89715
G01 X4.26359 Y-12.68727
G01 X4.19263 Y-12.64935
G01 X4.09941 Y-12.62108
G01 X4.00258 Y-12.60183
G01 X3.90566 Y-12.59228
G01 X3.80032 Y-12.60351
G01 X3.51500 Y-12.88009
G01 X3.45458 Y-12.93480
G01 X3.37810 Y-12.99535
G01 X3.26314 Y-13.05679
G01 X3.13144 Y-13.09863
G01 X2.99103 Y-13.11044
G01 X2.08892 Y-13.11044
G01 X1.94861 Y-13.09817
G01 X1.81663 Y-13.05728
G01 X1.73731 Y-13.01542
G01 X1.69509 Y-12.99144
G01 X1.58872 Y-12.90320
G01 X1.50167 Y-12.79588
G01 X1.43703 Y-12.67371
G01 X1.39984 Y-12.54872
G01 X1.39276 Y-12.50229
G01 X1.38697 Y-12.40749
G01 X1.38697 Y-11.88245
G01 X1.38768 Y-11.84539
G01 X1.39941 Y-11.74115
G01 X1.43995 Y-11.60902
G01 X1.52403 Y-11.45964
G01 X1.62077 Y-11.30859
G01 X1.63794 Y-11.22604
G01 X1.63794 Y-11.14930
G01 X1.62009 Y-11.00183
G01 X1.63794 Y-11.14930
G01 X1.63794 Y-11.22604
G01 X1.62077 Y-11.30859
G01 X1.71404 Y-11.17062
G01 X1.71315 Y-11.13790
G01 X1.50078 Y-10.83465
G01 X1.43426 Y-10.71964
G01 X1.41536 Y-10.68233
G01 X1.39992 Y-10.63727
G01 X1.37381 Y-10.55144
G01 X1.36835 Y-10.50315
G01 X1.36187 Y-10.41103
G01 X1.36197 Y-9.90892
G01 X1.37439 Y-9.76866
G01 X1.41501 Y-9.63651
G01 X1.45832 Y-9.55505
G01 X1.58862 Y-9.34273
G01 X1.60246 Y-9.27313
G01 X1.60246 Y-9.19637
G01 X1.58874 Y-9.07506
G01 X1.60246 Y-9.19637
G01 X1.60246 Y-9.27313
G01 X1.58862 Y-9.34273
G01 X1.67378 Y-9.21121
G01 X1.49530 Y-8.92716
G01 X1.43398 Y-8.81951
G01 X1.41496 Y-8.78345
G01 X1.37231 Y-8.64375
G01 X1.36197 Y-8.51103
G01 X1.36263 Y-7.97293
G01 X1.37439 Y-7.86867
G01 X1.41519 Y-7.73661
G01 X1.48100 Y-7.61510
G01 X1.53835 Y-7.54451
G01 X1.56926 Y-7.50880
G01 X1.67013 Y-7.42602
G01 X1.79159 Y-7.36021
G01 X1.92362 Y-7.31939
G01 X2.02791 Y-7.30766
G01 X2.06499 Y-7.30697
G01 X3.01498 Y-7.30697
G01 X3.14884 Y-7.31695
G01 X3.28097 Y-7.35769
G01 X3.32478 Y-7.37819
G01 X3.40916 Y-7.42592
G01 X3.55570 Y-7.53156
G01 X3.65359 Y-7.54560
G01 X3.72483 Y-7.55086
G01 X7.15808 Y-7.55297
G01 X7.23466 Y-7.54924
G01 X7.32955 Y-7.53986
G01 X7.47591 Y-7.51045
G01 X7.59673 Y-7.42572
G01 X7.63295 Y-7.38949
G01 X7.66415 Y-7.34885
G01 X7.74459 Y-7.22244
G01 X7.76420 Y-7.17512
G01 X7.77745 Y-7.12564
G01 X7.79897 Y-7.00809
G01 X7.77745 Y-7.12564
G01 X7.76420 Y-7.17512
G01 X7.74459 Y-7.22244
G01 X7.49366 Y-7.61449
G01 X7.34776 Y-7.64383
G01 X7.15973 Y-7.65848
G01 X3.72013 Y-7.65625
G01 X3.64033 Y-7.65028
G01 X3.51772 Y-7.63184
G01 X3.51658 Y-7.63501
G01 X3.51772 Y-7.63184
G01 X3.41965 Y-7.56163
G01 X3.31734 Y-7.49478
G01 X3.24416 Y-7.45665
G01 X3.13182 Y-7.42254
G01 X3.01442 Y-7.41248
G01 X2.03614 Y-7.41307
G01 X1.94810 Y-7.42254
G01 X1.83576 Y-7.45665
G01 X1.73223 Y-7.51197
G01 X1.64145 Y-7.58647
G01 X1.56698 Y-7.67723
G01 X1.51163 Y-7.78076
G01 X1.47754 Y-7.89315
G01 X1.46746 Y-8.01052
G01 X1.73998 Y-8.00999
G01 X1.73998 Y-8.50999
G01 X1.74622 Y-8.57339
G01 X1.76225 Y-8.62744
G01 X1.79913 Y-8.69645
G01 X1.83022 Y-8.73435
G01 X1.87851 Y-8.77583
G01 X1.94061 Y-8.81024
G01 X2.00886 Y-8.82983
G01 X2.06499 Y-8.83498
G01 X3.01498 Y-8.83498
G01 X3.07111 Y-8.82983
G01 X3.14602 Y-8.80709
G01 X3.20142 Y-8.77583
G01 X3.24480 Y-8.73978
G01 X3.28894 Y-8.68423
G01 X3.31208 Y-8.64100
G01 X3.32941 Y-8.58896
G01 X8.12368 Y-8.58896
G01 X8.65736 Y-9.12261
G01 X8.70720 Y-9.16353
G01 X8.77103 Y-9.19643
G01 X8.83308 Y-9.21375
G01 X8.88997 Y-9.21898
G01 X10.61951 Y-9.21898
G01 X10.70684 Y-9.38202
G01 X10.81672 Y-9.51365
G01 X10.93795 Y-9.61314
G01 X11.10206 Y-9.70087
G01 X11.25929 Y-9.74816
G01 X11.42263 Y-9.76462
G01 X11.60069 Y-9.74816
G01 X11.76482 Y-9.69838
G01 X11.90981 Y-9.62132
G01 X12.04326 Y-9.51365
G01 X12.16132 Y-9.36981
G01 X12.23838 Y-9.22482
G01 X12.28926 Y-9.05340
G01 X12.30462 Y-8.88263
G01 X12.28816 Y-8.71929
G01 X12.23838 Y-8.55515
G01 X12.15314 Y-8.39795
G01 X12.04326 Y-8.26633
G01 X11.90981 Y-8.15866
G01 X11.76482 Y-8.08159
G01 X11.59340 Y-8.03072
G01 X11.42263 Y-8.01535
G01 X11.25929 Y-8.03181
G01 X11.09515 Y-8.08159
G01 X10.95017 Y-8.15866
G01 X10.80633 Y-8.27672
G01 X10.69866 Y-8.41017
G01 X10.61956 Y-8.56099
G01 X9.02627 Y-8.56099
G01 X8.48716 Y-8.02239
G01 X8.44276 Y-7.98642
G01 X8.39252 Y-7.95917
G01 X8.31687 Y-7.93620
G01 X8.25995 Y-7.93097
G01 X3.32938 Y-7.93097
G01 X3.31208 Y-7.87895
G01 X3.28894 Y-7.83575
G01 X3.23934 Y-7.77524
G01 X3.18922 Y-7.73598
G01 X3.14602 Y-7.71286
G01 X3.07111 Y-7.69015
G01 X3.01498 Y-7.68500
G01 X2.06499 Y-7.68500
G01 X2.00886 Y-7.69015
G01 X1.94754 Y-7.70725
G01 X1.87851 Y-7.74416
G01 X1.83022 Y-7.78563
G01 X1.79913 Y-7.82350
G01 X1.76787 Y-7.87895
G01 X1.74622 Y-7.94659
G01 X1.73998 Y-8.00999
G01 X1.63449 Y-8.00999
G01 X1.63449 Y-8.50999
G01 X1.64277 Y-8.59396
G01 X1.66131 Y-8.65805
G01 X1.67485 Y-8.69074
G01 X1.71760 Y-8.76338
G01 X1.77371 Y-8.82630
G01 X1.84102 Y-8.87702
G01 X1.90025 Y-8.90770
G01 X1.96383 Y-8.92790
G01 X1.99852 Y-8.93481
G01 X2.06499 Y-8.94047
G01 X3.01498 Y-8.94047
G01 X3.08145 Y-8.93481
G01 X3.11615 Y-8.92790
G01 X3.17967 Y-8.90770
G01 X3.26837 Y-8.85739
G01 X3.31940 Y-8.81438
G01 X3.37292 Y-8.74916
G01 X3.40314 Y-8.69445
G01 X3.39656 Y-8.68208
G01 X3.40314 Y-8.69445
G01 X8.07999 Y-8.69445
G01 X8.08332 Y-8.68642
G01 X8.07999 Y-8.69445
G01 X8.58276 Y-9.19721
G01 X8.64860 Y-9.25126
G01 X8.70770 Y-9.28383
G01 X8.74039 Y-9.29737
G01 X8.82274 Y-9.31873
G01 X8.88997 Y-9.32447
G01 X10.55484 Y-9.32449
G01 X10.56366 Y-9.30966
G01 X10.55484 Y-9.32449
G01 X10.60564 Y-9.41951
G01 X10.62530 Y-9.44895
G01 X10.73668 Y-9.58329
G01 X10.88525 Y-9.70524
G01 X11.03876 Y-9.78827
G01 X11.07145 Y-9.80181
G01 X11.23871 Y-9.85164
G01 X11.41230 Y-9.86960
G01 X11.44768 Y-9.86960
G01 X11.60376 Y-9.85423
G01 X11.63846 Y-9.84733
G01 X11.78852 Y-9.80181
G01 X11.82121 Y-9.78827
G01 X11.97473 Y-9.70524
G01 X12.11019 Y-9.59521
G01 X12.13521 Y-9.57019
G01 X12.24524 Y-9.43473
G01 X12.32827 Y-9.28121
G01 X12.34181 Y-9.24852
G01 X12.39164 Y-9.08126
G01 X12.40960 Y-8.90768
G01 X12.40960 Y-8.87230
G01 X12.39164 Y-8.69871
G01 X12.34181 Y-8.53145
G01 X12.32827 Y-8.49876
G01 X12.24524 Y-8.34525
G01 X12.12329 Y-8.19668
G01 X11.98895 Y-8.08530
G01 X11.95951 Y-8.06564
G01 X11.82121 Y-7.99170
G01 X11.78852 Y-7.97817
G01 X11.62126 Y-7.92833
G01 X11.44768 Y-7.91037
G01 X11.41230 Y-7.91037
G01 X11.25621 Y-7.92574
G01 X11.22152 Y-7.93265
G01 X11.07145 Y-7.97817
G01 X11.03876 Y-7.99170
G01 X10.88525 Y-8.07474
G01 X10.73668 Y-8.19668
G01 X10.62530 Y-8.33102
G01 X10.60564 Y-8.36046
G01 X10.55482 Y-8.45551
G01 X10.56363 Y-8.47032
G01 X10.55482 Y-8.45551
G01 X9.06996 Y-8.45551
G01 X9.06673 Y-8.46338
G01 X9.06996 Y-8.45551
G01 X8.55406 Y-7.94085
G01 X8.50135 Y-7.89869
G01 X8.44225 Y-7.86613
G01 X8.40956 Y-7.85259
G01 X8.32721 Y-7.83123
G01 X8.25995 Y-7.82549
G01 X3.40312 Y-7.82549
G01 X3.39654 Y-7.83786
G01 X3.40312 Y-7.82549
G01 X3.37292 Y-7.77083
G01 X3.31940 Y-7.70557
G01 X3.26837 Y-7.66260
G01 X3.23891 Y-7.64294
G01 X3.17967 Y-7.61228
G01 X3.11615 Y-7.59209
G01 X3.08145 Y-7.58518
G01 X3.01498 Y-7.57949
G01 X2.04729 Y-7.58038
G01 X1.96383 Y-7.59209
G01 X1.90025 Y-7.61228
G01 X1.84102 Y-7.64294
G01 X1.77371 Y-7.69369
G01 X1.71760 Y-7.75660
G01 X1.67485 Y-7.82925
G01 X1.66131 Y-7.86193
G01 X1.64277 Y-7.92599
G01 X1.63449 Y-8.00999
G01 X1.52900 Y-8.00999
G01 X1.52900 Y-8.50999
G01 X1.53520 Y-8.58680
G01 X1.54612 Y-8.64177
G01 X1.56980 Y-8.71510
G01 X1.60490 Y-8.78370
G01 X1.63606 Y-8.83031
G01 X1.66715 Y-8.86818
G01 X1.68600 Y-8.88898
G01 X1.74468 Y-8.93892
G01 X1.79128 Y-8.97006
G01 X1.83451 Y-8.99317
G01 X1.88631 Y-9.01461
G01 X1.93319 Y-9.02884
G01 X1.98818 Y-9.03978
G01 X2.06499 Y-9.04596
G01 X3.01498 Y-9.04596
G01 X3.09179 Y-9.03978
G01 X3.14678 Y-9.02884
G01 X3.22008 Y-9.00516
G01 X3.28869 Y-8.97006
G01 X3.33530 Y-8.93892
G01 X3.39397 Y-8.88898
G01 X3.41282 Y-8.86818
G01 X3.46420 Y-8.79996
G01 X3.45907 Y-8.78937
G01 X3.46420 Y-8.79996
G01 X8.03631 Y-8.79996
G01 X8.03961 Y-8.79196
G01 X8.03631 Y-8.79996
G01 X8.52896 Y-9.29066
G01 X8.59000 Y-9.33897
G01 X8.61405 Y-9.35340
G01 X8.65797 Y-9.37687
G01 X8.70976 Y-9.39830
G01 X8.75741 Y-9.41278
G01 X8.81240 Y-9.42370
G01 X8.88997 Y-9.42998
G01 X10.49160 Y-9.42998
G01 X10.49739 Y-9.41855
G01 X10.49160 Y-9.42998
G01 X10.52703 Y-9.49333
G01 X10.64323 Y-9.63709
G01 X10.68288 Y-9.67674
G01 X10.82665 Y-9.79294
G01 X10.98903 Y-9.88131
G01 X11.04082 Y-9.90275
G01 X11.21811 Y-9.95510
G01 X11.40196 Y-9.97458
G01 X11.45802 Y-9.97458
G01 X11.61410 Y-9.95921
G01 X11.66906 Y-9.94829
G01 X11.84557 Y-9.89330
G01 X12.03333 Y-9.79294
G01 X12.17709 Y-9.67674
G01 X12.21674 Y-9.63709
G01 X12.33294 Y-9.49333
G01 X12.42131 Y-9.33094
G01 X12.44275 Y-9.27915
G01 X12.49510 Y-9.10186
G01 X12.51458 Y-8.91802
G01 X12.51458 Y-8.86196
G01 X12.49510 Y-8.67811
G01 X12.44275 Y-8.50082
G01 X12.42131 Y-8.44903
G01 X12.33294 Y-8.28665
G01 X12.21674 Y-8.14288
G01 X12.17709 Y-8.10323
G01 X12.05586 Y-8.00374
G01 X12.00925 Y-7.97260
G01 X11.84557 Y-7.88667
G01 X11.66906 Y-7.83168
G01 X11.61410 Y-7.82076
G01 X11.45802 Y-7.80539
G01 X11.40196 Y-7.80539
G01 X11.24588 Y-7.82076
G01 X11.19091 Y-7.83168
G01 X11.01441 Y-7.88667
G01 X10.85073 Y-7.97260
G01 X10.80412 Y-8.00374
G01 X10.68288 Y-8.10323
G01 X10.64323 Y-8.14288
G01 X10.52703 Y-8.28665
G01 X10.49160 Y-8.35000
G01 X10.49924 Y-8.36356
G01 X10.49160 Y-8.35000
G01 X9.11365 Y-8.35000
G01 X9.11045 Y-8.35787
G01 X9.11365 Y-8.35000
G01 X8.64179 Y-7.87814
G01 X8.58251 Y-7.82770
G01 X8.55995 Y-7.81098
G01 X8.49198 Y-7.77309
G01 X8.44019 Y-7.75165
G01 X8.39254 Y-7.73717
G01 X8.33755 Y-7.72625
G01 X8.25995 Y-7.71997
G01 X3.46418 Y-7.72000
G01 X3.45905 Y-7.73054
G01 X3.46418 Y-7.72000
G01 X3.41282 Y-7.65178
G01 X3.39397 Y-7.63100
G01 X3.33530 Y-7.58106
G01 X3.28869 Y-7.54992
G01 X3.22008 Y-7.51482
G01 X3.14678 Y-7.49112
G01 X3.09179 Y-7.48020
G01 X3.01498 Y-7.47400
G01 X2.03695 Y-7.47540
G01 X1.98818 Y-7.48020
G01 X1.93319 Y-7.49112
G01 X1.85989 Y-7.51482
G01 X1.79128 Y-7.54992
G01 X1.74468 Y-7.58106
G01 X1.68600 Y-7.63100
G01 X1.63606 Y-7.68967
G01 X1.60490 Y-7.73628
G01 X1.56980 Y-7.80489
G01 X1.53932 Y-7.90542
G01 X1.52900 Y-8.00999
G01 X1.46746 Y-8.01052
G01 X1.46746 Y-8.50943
G01 X1.47754 Y-8.62681
G01 X1.51163 Y-8.73917
G01 X1.54958 Y-8.81197
G01 X1.76459 Y-9.15723
G01 X3.38610 Y-9.15723
G01 X3.46916 Y-9.10201
G01 X3.50703 Y-9.07092
G01 X3.56786 Y-9.01093
G01 X3.56575 Y-9.00493
G01 X3.56786 Y-9.01093
G01 X4.82676 Y-9.01093
G01 X4.97710 Y-8.96262
G01 X5.14878 Y-8.91959
G01 X5.23931 Y-8.90161
G01 X5.40591 Y-8.87689
G01 X5.48904 Y-8.86851
G01 X5.69996 Y-8.85919
G01 X6.99999 Y-8.85922
G01 X7.20829 Y-8.86844
G01 X7.29404 Y-8.87689
G01 X7.46064 Y-8.90161
G01 X7.55368 Y-8.92015
G01 X7.72284 Y-8.96262
G01 X7.87319 Y-9.01093
G01 X7.94890 Y-9.01093
G01 X7.95210 Y-9.00311
G01 X7.94890 Y-9.01093
G01 X8.39511 Y-9.45375
G01 X8.47278 Y-9.51438
G01 X8.51461 Y-9.53945
G01 X8.55853 Y-9.56292
G01 X8.64852 Y-9.60021
G01 X8.69617 Y-9.61466
G01 X8.79173 Y-9.63366
G01 X8.88997 Y-9.64095
G01 X10.37415 Y-9.64095
G01 X10.37900 Y-9.63074
G01 X10.37415 Y-9.64095
G01 X10.48014 Y-9.77095
G01 X10.54903 Y-9.83983
G01 X10.67026 Y-9.93932
G01 X10.75126 Y-9.99345
G01 X10.88956 Y-10.06737
G01 X10.98809 Y-10.10722
G01 X11.87188 Y-10.10722
G01 X11.95045 Y-10.07562
G01 X12.00727 Y-9.99244
G01 X12.10965 Y-9.85840
G01 X12.36002 Y-9.56376
G01 X12.45265 Y-9.41047
G01 X12.50381 Y-9.29358
G01 X12.52116 Y-9.24507
G01 X12.54702 Y-9.14984
G01 X12.56403 Y-9.07115
G01 X12.57922 Y-8.88997
G01 X12.56403 Y-8.70877
G01 X12.52116 Y-8.53488
G01 X12.47470 Y-8.41609
G01 X12.45265 Y-8.36948
G01 X12.40361 Y-8.28388
G01 X12.36002 Y-8.21619
G01 X12.17130 Y-7.99843
G01 X12.10935 Y-7.92162
G01 X11.94684 Y-7.70285
G01 X11.87181 Y-7.67273
G01 X10.98817 Y-7.67270
G01 X10.97958 Y-7.67532
G01 X10.88956 Y-7.71261
G01 X10.75126 Y-7.78652
G01 X10.67026 Y-7.84065
G01 X10.54903 Y-7.94014
G01 X10.48014 Y-8.00903
G01 X10.37415 Y-8.13902
G01 X10.37900 Y-8.14923
G01 X10.37415 Y-8.13902
G01 X9.20105 Y-8.13902
G01 X9.19772 Y-8.14705
G01 X9.20105 Y-8.13902
G01 X8.79097 Y-7.72897
G01 X8.71634 Y-7.66463
G01 X8.63534 Y-7.61050
G01 X8.59142 Y-7.58703
G01 X8.50143 Y-7.54974
G01 X8.45378 Y-7.53529
G01 X8.35823 Y-7.51629
G01 X8.25995 Y-7.50900
G01 X7.78683 Y-7.50900
G01 X7.62429 Y-7.57710
G01 X7.51566 Y-7.61042
G01 X7.34256 Y-7.64459
G01 X7.16234 Y-7.65840
G01 X3.78115 Y-7.65848
G01 X3.64393 Y-7.65068
G01 X3.51772 Y-7.63184
G01 X3.35011 Y-7.51337
G01 X3.31734 Y-7.49478
G01 X3.24416 Y-7.45665
G01 X3.13182 Y-7.42254
G01 X3.01442 Y-7.41248
G01 X2.03614 Y-7.41307
G01 X1.94810 Y-7.42254
G01 X1.86878 Y-7.44573
G01 X1.83576 Y-7.45665
G01 X1.73223 Y-7.51197
G01 X1.64145 Y-7.58647
G01 X1.58836 Y-7.64979
G01 X1.56698 Y-7.67723
G01 X1.51163 Y-7.78076
G01 X1.47754 Y-7.89315
G01 X1.46804 Y-7.98119
G01 X1.46746 Y-8.50943
G01 X1.47754 Y-8.62681
G01 X1.51163 Y-8.73917
G01 X1.52733 Y-8.77034
G01 X1.58542 Y-8.87227
G01 X1.67996 Y-9.02195
G01 X1.74155 Y-9.06310
G01 X1.78478 Y-9.08619
G01 X1.85567 Y-9.11558
G01 X1.90259 Y-9.12980
G01 X1.97785 Y-9.14476
G01 X2.06499 Y-9.15147
G01 X3.01498 Y-9.15147
G01 X3.10213 Y-9.14476
G01 X3.17739 Y-9.12980
G01 X3.22430 Y-9.11558
G01 X3.26047 Y-9.10262
G01 X3.33842 Y-9.06310
G01 X3.40223 Y-9.02045
G01 X3.46857 Y-8.96358
G01 X3.51874 Y-8.90544
G01 X3.51495 Y-8.89673
G01 X3.51874 Y-8.90544
G01 X5.21975 Y-8.90544
G01 X5.40847 Y-8.87659
G01 X5.48904 Y-8.86851
G01 X5.65958 Y-8.86021
G01 X6.99999 Y-8.85922
G01 X7.21091 Y-8.86864
G01 X7.29404 Y-8.87689
G01 X7.48015 Y-8.90544
G01 X7.99259 Y-8.90544
G01 X7.99589 Y-8.89747
G01 X7.99259 Y-8.90544
G01 X8.46204 Y-9.37219
G01 X8.53138 Y-9.42668
G01 X8.60824 Y-9.46991
G01 X8.67915 Y-9.49927
G01 X8.72681 Y-9.51372
G01 X8.80207 Y-9.52868
G01 X8.88997 Y-9.53546
G01 X10.43059 Y-9.53546
G01 X10.43526 Y-9.52548
G01 X10.43059 Y-9.53546
G01 X10.46221 Y-9.58278
G01 X10.56170 Y-9.70402
G01 X10.61596 Y-9.75827
G01 X10.73719 Y-9.85777
G01 X10.80099 Y-9.90041
G01 X10.93930 Y-9.97433
G01 X11.01021 Y-10.00371
G01 X11.16028 Y-10.04923
G01 X11.23554 Y-10.06419
G01 X11.43000 Y-10.08146
G01 X11.66244 Y-10.05855
G01 X11.84976 Y-10.00371
G01 X11.92068 Y-9.97433
G01 X12.05898 Y-9.90041
G01 X12.09604 Y-9.87565
G01 X12.36002 Y-9.56376
G01 X12.45265 Y-9.41047
G01 X12.50381 Y-9.29358
G01 X12.52116 Y-9.24507
G01 X12.54702 Y-9.14984
G01 X12.56403 Y-9.07115
G01 X12.57922 Y-8.88997
G01 X12.57696 Y-8.85454
G01 X12.56330 Y-8.70443
G01 X12.52116 Y-8.53488
G01 X12.47470 Y-8.41609
G01 X12.45265 Y-8.36948
G01 X12.40361 Y-8.28388
G01 X12.36002 Y-8.21619
G01 X12.17130 Y-7.99843
G01 X12.09759 Y-7.90537
G01 X12.05898 Y-7.87956
G01 X11.92068 Y-7.80565
G01 X11.84976 Y-7.77626
G01 X11.69970 Y-7.73074
G01 X11.62444 Y-7.71578
G01 X11.43000 Y-7.69851
G01 X11.23554 Y-7.71578
G01 X11.16028 Y-7.73074
G01 X11.01021 Y-7.77626
G01 X10.93930 Y-7.80565
G01 X10.80099 Y-7.87956
G01 X10.73719 Y-7.92221
G01 X10.61596 Y-8.02170
G01 X10.56170 Y-8.07596
G01 X10.46221 Y-8.19719
G01 X10.43059 Y-8.24451
G01 X10.43526 Y-8.25449
G01 X10.43059 Y-8.24451
G01 X9.15736 Y-8.24451
G01 X9.15403 Y-8.25254
G01 X9.15736 Y-8.24451
G01 X8.68792 Y-7.77776
G01 X8.61858 Y-7.72328
G01 X8.58561 Y-7.70354
G01 X8.54172 Y-7.68005
G01 X8.47080 Y-7.65068
G01 X8.42315 Y-7.63623
G01 X8.34789 Y-7.62127
G01 X8.25995 Y-7.61449
G01 X7.49366 Y-7.61449
G01 X7.90133 Y-6.98249
G01 X7.82754 Y-6.71683
G01 X7.81804 Y-6.62876
G01 X7.81746 Y-6.10050
G01 X8.08998 Y-6.09999
G01 X8.08998 Y-6.59999
G01 X8.09803 Y-6.67052
G01 X8.11787 Y-6.73103
G01 X8.14913 Y-6.78645
G01 X8.18022 Y-6.82434
G01 X8.22851 Y-6.86582
G01 X8.29754 Y-6.90273
G01 X8.35886 Y-6.91982
G01 X8.41499 Y-6.92498
G01 X9.37235 Y-6.92462
G01 X9.42111 Y-6.91982
G01 X9.48243 Y-6.90273
G01 X9.55147 Y-6.86582
G01 X9.59480 Y-6.82981
G01 X9.63084 Y-6.78645
G01 X9.66526 Y-6.72437
G01 X9.67938 Y-6.67898
G01 X10.61956 Y-6.67898
G01 X10.70684 Y-6.84202
G01 X10.80633 Y-6.96326
G01 X10.93795 Y-7.07314
G01 X11.10206 Y-7.16087
G01 X11.25929 Y-7.20816
G01 X11.42263 Y-7.22462
G01 X11.60069 Y-7.20816
G01 X11.75791 Y-7.16087
G01 X11.92202 Y-7.07314
G01 X12.05365 Y-6.96326
G01 X12.16132 Y-6.82981
G01 X12.23838 Y-6.68482
G01 X12.28816 Y-6.52069
G01 X12.30462 Y-6.35732
G01 X12.28926 Y-6.18658
G01 X12.23838 Y-6.01515
G01 X12.15753 Y-5.86387
G01 X12.04326 Y-5.72633
G01 X11.90981 Y-5.61866
G01 X11.76482 Y-5.54159
G01 X11.60069 Y-5.49181
G01 X11.43734 Y-5.47535
G01 X11.25929 Y-5.49181
G01 X11.09515 Y-5.54159
G01 X10.95017 Y-5.61866
G01 X10.80633 Y-5.73672
G01 X10.70244 Y-5.86387
G01 X10.61956 Y-6.02099
G01 X9.67938 Y-6.02099
G01 X9.66526 Y-5.97560
G01 X9.63900 Y-5.92574
G01 X9.58934 Y-5.86524
G01 X9.54555 Y-5.82976
G01 X9.49602 Y-5.80288
G01 X9.42111 Y-5.78015
G01 X9.36498 Y-5.77499
G01 X8.41499 Y-5.77499
G01 X8.35157 Y-5.78124
G01 X8.29754 Y-5.79725
G01 X8.24075 Y-5.82597
G01 X8.18022 Y-5.87563
G01 X8.14098 Y-5.92574
G01 X8.11472 Y-5.97560
G01 X8.09516 Y-6.04385
G01 X8.08998 Y-6.09999
G01 X7.98449 Y-6.09999
G01 X7.98449 Y-6.59999
G01 X7.99277 Y-6.68396
G01 X8.01131 Y-6.74804
G01 X8.04794 Y-6.82396
G01 X8.09869 Y-6.89127
G01 X8.12371 Y-6.91629
G01 X8.17583 Y-6.95792
G01 X8.23422 Y-6.99013
G01 X8.26691 Y-7.00367
G01 X8.34852 Y-7.02480
G01 X8.41499 Y-7.03047
G01 X9.36498 Y-7.03047
G01 X9.43145 Y-7.02480
G01 X9.51306 Y-7.00367
G01 X9.54575 Y-6.99013
G01 X9.61837 Y-6.94738
G01 X9.68129 Y-6.89127
G01 X9.71238 Y-6.85338
G01 X9.75314 Y-6.78447
G01 X9.74654 Y-6.77210
G01 X9.75314 Y-6.78447
G01 X10.55482 Y-6.78447
G01 X10.56363 Y-6.76966
G01 X10.55482 Y-6.78447
G01 X10.61474 Y-6.89473
G01 X10.73668 Y-7.04329
G01 X10.88525 Y-7.16524
G01 X11.03876 Y-7.24827
G01 X11.07145 Y-7.26181
G01 X11.22152 Y-7.30733
G01 X11.25621 Y-7.31423
G01 X11.41230 Y-7.32960
G01 X11.44768 Y-7.32960
G01 X11.60376 Y-7.31423
G01 X11.63846 Y-7.30733
G01 X11.78852 Y-7.26181
G01 X11.82121 Y-7.24827
G01 X11.97473 Y-7.16524
G01 X12.12329 Y-7.04329
G01 X12.24524 Y-6.89473
G01 X12.32827 Y-6.74121
G01 X12.34181 Y-6.70852
G01 X12.39164 Y-6.54124
G01 X12.40960 Y-6.36765
G01 X12.40960 Y-6.33230
G01 X12.39423 Y-6.17621
G01 X12.38733 Y-6.14152
G01 X12.34181 Y-5.99145
G01 X12.32827 Y-5.95876
G01 X12.24524 Y-5.80525
G01 X12.13521 Y-5.66979
G01 X12.11019 Y-5.64477
G01 X11.97473 Y-5.53474
G01 X11.82121 Y-5.45170
G01 X11.78852 Y-5.43817
G01 X11.62126 Y-5.38833
G01 X11.44768 Y-5.37037
G01 X11.41230 Y-5.37037
G01 X11.25621 Y-5.38574
G01 X11.22152 Y-5.39265
G01 X11.07145 Y-5.43817
G01 X11.03876 Y-5.45170
G01 X10.90046 Y-5.52564
G01 X10.87102 Y-5.54530
G01 X10.73668 Y-5.65668
G01 X10.61474 Y-5.80525
G01 X10.55482 Y-5.91551
G01 X10.56363 Y-5.93032
G01 X10.55482 Y-5.91551
G01 X9.75314 Y-5.91551
G01 X9.74654 Y-5.92788
G01 X9.75314 Y-5.91551
G01 X9.72292 Y-5.86082
G01 X9.68129 Y-5.80870
G01 X9.61837 Y-5.75259
G01 X9.54575 Y-5.70984
G01 X9.51306 Y-5.69631
G01 X9.43145 Y-5.67517
G01 X9.36498 Y-5.66951
G01 X8.41499 Y-5.66951
G01 X8.34852 Y-5.67517
G01 X8.26691 Y-5.69631
G01 X8.19102 Y-5.73293
G01 X8.12371 Y-5.78368
G01 X8.09869 Y-5.80870
G01 X8.05706 Y-5.86082
G01 X8.01726 Y-5.93524
G01 X7.99706 Y-5.99882
G01 X7.99018 Y-6.03352
G01 X7.98449 Y-6.09999
G01 X7.87900 Y-6.09999
G01 X7.87900 Y-6.59999
G01 X7.88932 Y-6.70456
G01 X7.91035 Y-6.77868
G01 X7.91980 Y-6.80509
G01 X7.95490 Y-6.87370
G01 X7.98606 Y-6.92031
G01 X8.01715 Y-6.95818
G01 X8.05678 Y-6.99783
G01 X8.11721 Y-7.04563
G01 X8.14128 Y-7.06006
G01 X8.20989 Y-7.09516
G01 X8.23631 Y-7.10463
G01 X8.28319 Y-7.11886
G01 X8.33818 Y-7.12978
G01 X8.41499 Y-7.13598
G01 X9.36498 Y-7.13598
G01 X9.44179 Y-7.12978
G01 X9.49678 Y-7.11886
G01 X9.54367 Y-7.10463
G01 X9.59546 Y-7.08317
G01 X9.66277 Y-7.04563
G01 X9.72320 Y-6.99783
G01 X9.76282 Y-6.95818
G01 X9.81418 Y-6.88998
G01 X9.80867 Y-6.87888
G01 X9.81418 Y-6.88998
G01 X10.49160 Y-6.88995
G01 X10.49739 Y-6.87855
G01 X10.49160 Y-6.88995
G01 X10.52703 Y-6.95333
G01 X10.64323 Y-7.09709
G01 X10.68288 Y-7.13674
G01 X10.80412 Y-7.23623
G01 X10.85073 Y-7.26737
G01 X11.01441 Y-7.35330
G01 X11.19091 Y-7.40829
G01 X11.24588 Y-7.41921
G01 X11.40196 Y-7.43458
G01 X11.45802 Y-7.43458
G01 X11.61410 Y-7.41921
G01 X11.66906 Y-7.40829
G01 X11.84557 Y-7.35330
G01 X12.00925 Y-7.26737
G01 X12.05586 Y-7.23623
G01 X12.17709 Y-7.13674
G01 X12.21674 Y-7.09709
G01 X12.33294 Y-6.95333
G01 X12.42131 Y-6.79094
G01 X12.44275 Y-6.73915
G01 X12.49510 Y-6.56186
G01 X12.51458 Y-6.37802
G01 X12.51458 Y-6.32196
G01 X12.49510 Y-6.13811
G01 X12.44275 Y-5.96082
G01 X12.42131 Y-5.90903
G01 X12.33294 Y-5.74665
G01 X12.21674 Y-5.60288
G01 X12.17709 Y-5.56323
G01 X12.05586 Y-5.46374
G01 X12.00925 Y-5.43260
G01 X11.84557 Y-5.34667
G01 X11.64186 Y-5.28488
G01 X11.45802 Y-5.26539
G01 X11.40196 Y-5.26539
G01 X11.24588 Y-5.28076
G01 X11.19091 Y-5.29168
G01 X11.01441 Y-5.34667
G01 X10.85073 Y-5.43260
G01 X10.80412 Y-5.46374
G01 X10.66208 Y-5.58208
G01 X10.52703 Y-5.74665
G01 X10.49160 Y-5.81002
G01 X10.49718 Y-5.82117
G01 X10.49160 Y-5.81002
G01 X9.81420 Y-5.81002
G01 X9.80867 Y-5.82110
G01 X9.81420 Y-5.81002
G01 X9.76282 Y-5.74180
G01 X9.72320 Y-5.70215
G01 X9.66277 Y-5.65434
G01 X9.59546 Y-5.61680
G01 X9.54367 Y-5.59534
G01 X9.46955 Y-5.57431
G01 X9.44179 Y-5.57019
G01 X9.36498 Y-5.56400
G01 X8.41499 Y-5.56400
G01 X8.31042 Y-5.57431
G01 X8.23631 Y-5.59534
G01 X8.18451 Y-5.61680
G01 X8.14128 Y-5.63992
G01 X8.11721 Y-5.65434
G01 X8.05678 Y-5.70215
G01 X8.01715 Y-5.74180
G01 X7.98606 Y-5.77967
G01 X7.95490 Y-5.82628
G01 X7.91980 Y-5.89488
G01 X7.89612 Y-5.96819
G01 X7.88520 Y-6.02318
G01 X7.87900 Y-6.09999
G01 X7.81746 Y-6.10050
G01 X7.82754 Y-5.98315
G01 X7.86163 Y-5.87075
G01 X7.91698 Y-5.76722
G01 X7.93839 Y-5.73979
G01 X7.99145 Y-5.67647
G01 X8.08223 Y-5.60197
G01 X8.18576 Y-5.54665
G01 X8.29813 Y-5.51256
G01 X8.41550 Y-5.50248
G01 X9.36445 Y-5.50248
G01 X9.44740 Y-5.50832
G01 X9.48182 Y-5.51256
G01 X9.59421 Y-5.54665
G01 X9.84100 Y-5.67149
G01 X9.92068 Y-5.57898
G01 X9.89134 Y-5.57878
G01 X9.96917 Y-5.57898
G01 X10.06739 Y-5.56931
G01 X10.14263 Y-5.55434
G01 X10.21352 Y-5.52498
G01 X10.30059 Y-5.47845
G01 X10.36439 Y-5.43583
G01 X10.41865 Y-5.38157
G01 X10.51113 Y-5.26364
G01 X10.53529 Y-5.21846
G01 X10.55332 Y-5.17053
G01 X10.58197 Y-5.07606
G01 X10.59693 Y-5.00080
G01 X10.59693 Y-4.92407
G01 X10.58725 Y-4.82582
G01 X10.58027 Y-4.78340
G01 X10.58438 Y-4.80842
G01 X10.49030 Y-4.91767
G01 X10.48228 Y-4.83616
G01 X10.46533 Y-4.76344
G01 X10.40336 Y-4.64233
G01 X10.36333 Y-4.58521
G01 X10.25477 Y-4.40881
G01 X10.17560 Y-4.21752
G01 X10.12731 Y-4.01632
G01 X10.11105 Y-3.80997
G01 X10.12731 Y-3.60362
G01 X10.17560 Y-3.40241
G01 X10.25482 Y-3.21120
G01 X10.36295 Y-3.03472
G01 X10.49736 Y-2.87739
G01 X10.65474 Y-2.74295
G01 X10.83122 Y-2.63479
G01 X11.02241 Y-2.55560
G01 X11.22368 Y-2.50728
G01 X11.42997 Y-2.49105
G01 X11.63627 Y-2.50731
G01 X11.83754 Y-2.55560
G01 X12.02875 Y-2.63482
G01 X12.20518 Y-2.74295
G01 X12.36259 Y-2.87736
G01 X12.49700 Y-3.03477
G01 X12.60516 Y-3.21122
G01 X12.68435 Y-3.40241
G01 X12.73264 Y-3.60362
G01 X12.74887 Y-3.81000
G01 X12.73264 Y-4.01627
G01 X12.68435 Y-4.21752
G01 X12.60516 Y-4.40873
G01 X12.49700 Y-4.58518
G01 X12.37295 Y-4.72994
G01 X12.34092 Y-4.77591
G01 X12.29269 Y-4.86202
G01 X12.27656 Y-4.89580
G01 X12.25817 Y-4.96824
G01 X12.24658 Y-5.06628
G01 X12.24549 Y-5.12229
G01 X12.25535 Y-5.17743
G01 X12.29766 Y-5.31457
G01 X12.31958 Y-5.35371
G01 X12.37295 Y-5.43001
G01 X12.49700 Y-5.57477
G01 X12.60516 Y-5.75122
G01 X12.68435 Y-5.94241
G01 X12.73264 Y-6.14363
G01 X12.74887 Y-6.35000
G01 X12.73264 Y-6.55627
G01 X12.68435 Y-6.75754
G01 X12.60513 Y-6.94875
G01 X12.49700 Y-7.12518
G01 X12.37295 Y-7.26994
G01 X12.34092 Y-7.31591
G01 X12.29269 Y-7.40202
G01 X12.27656 Y-7.43580
G01 X12.25817 Y-7.50824
G01 X12.24658 Y-7.60628
G01 X12.24549 Y-7.66229
G01 X12.25535 Y-7.71743
G01 X12.28214 Y-7.81246
G01 X12.29766 Y-7.85457
G01 X12.31958 Y-7.89371
G01 X12.37295 Y-7.97001
G01 X12.49700 Y-8.11477
G01 X12.60516 Y-8.29122
G01 X12.68435 Y-8.48241
G01 X12.73264 Y-8.68362
G01 X12.74887 Y-8.89000
G01 X12.73264 Y-9.09627
G01 X12.68435 Y-9.29752
G01 X12.60516 Y-9.48873
G01 X12.49700 Y-9.66518
G01 X12.37295 Y-9.80994
G01 X12.34092 Y-9.85591
G01 X12.29269 Y-9.94202
G01 X12.27656 Y-9.97580
G01 X12.25817 Y-10.04824
G01 X12.24658 Y-10.14628
G01 X12.24549 Y-10.20229
G01 X12.25535 Y-10.25743
G01 X12.29766 Y-10.39457
G01 X12.31958 Y-10.43371
G01 X12.37295 Y-10.51001
G01 X12.49700 Y-10.65477
G01 X12.60516 Y-10.83122
G01 X12.68435 Y-11.02241
G01 X12.73264 Y-11.22363
G01 X12.74887 Y-11.43000
G01 X12.73264 Y-11.63627
G01 X12.68435 Y-11.83754
G01 X12.60511 Y-12.02873
G01 X12.53929 Y-12.13820
G01 X12.49413 Y-12.25664
G01 X12.47999 Y-12.31085
G01 X12.47668 Y-12.36680
G01 X12.47922 Y-12.43193
G01 X12.28568 Y-12.25045
G01 X12.45265 Y-11.95047
G01 X12.47470 Y-11.90386
G01 X12.52116 Y-11.78507
G01 X12.54702 Y-11.68984
G01 X12.56403 Y-11.61118
G01 X12.57922 Y-11.42997
G01 X12.56403 Y-11.24877
G01 X12.54702 Y-11.17011
G01 X12.52116 Y-11.07488
G01 X12.47470 Y-10.95609
G01 X12.45265 Y-10.90948
G01 X12.36254 Y-10.75972
G01 X12.10935 Y-10.46162
G01 X11.94684 Y-10.24285
G01 X11.88039 Y-10.21532
G01 X11.87181 Y-10.21273
G01 X10.98817 Y-10.21273
G01 X10.88956 Y-10.25261
G01 X10.75126 Y-10.32652
G01 X10.67026 Y-10.38065
G01 X10.54903 Y-10.48014
G01 X10.48014 Y-10.54903
G01 X10.37415 Y-10.67902
G01 X10.37895 Y-10.68898
G01 X10.37415 Y-10.67902
G01 X10.16000 Y-10.67902
G01 X10.06173 Y-10.68631
G01 X9.96617 Y-10.70531
G01 X9.87260 Y-10.73620
G01 X9.82853 Y-10.75705
G01 X9.78461 Y-10.78052
G01 X9.70361 Y-10.83465
G01 X9.62899 Y-10.89899
G01 X8.34187 Y-12.18748
G01 X8.31667 Y-12.34575
G01 X8.29986 Y-12.52939
G01 X8.29470 Y-12.74120
G01 X8.28652 Y-12.90780
G01 X8.27814 Y-12.99256
G01 X8.25343 Y-13.15923
G01 X8.23509 Y-13.25115
G01 X8.19267 Y-13.42029
G01 X8.13902 Y-13.58532
G01 X8.13902 Y-14.01803
G01 X8.16808 Y-14.04564
G01 X8.13902 Y-14.01803
G01 X7.99998 Y-14.01803
G01 X7.90250 Y-14.02522
G01 X7.80694 Y-14.04424
G01 X7.76006 Y-14.05847
G01 X7.67006 Y-14.09573
G01 X7.58500 Y-14.14391
G01 X7.50794 Y-14.20406
G01 X7.43905 Y-14.27295
G01 X7.40796 Y-14.31082
G01 X7.35272 Y-14.39393
G01 X7.35274 Y-14.72067
G01 X7.35851 Y-14.76499
G01 X7.46402 Y-14.76499
G01 X7.46402 Y-15.71498
G01 X7.47019 Y-15.79179
G01 X7.48114 Y-15.84678
G01 X7.50481 Y-15.92008
G01 X7.51680 Y-15.94546
G01 X7.53991 Y-15.98869
G01 X7.57105 Y-16.03530
G01 X7.60214 Y-16.07320
G01 X7.64179 Y-16.11282
G01 X7.70222 Y-16.16065
G01 X7.76950 Y-16.19816
G01 X7.82130 Y-16.21963
G01 X7.89541 Y-16.24066
G01 X7.99998 Y-16.25097
G01 X8.49998 Y-16.25097
G01 X8.60455 Y-16.24066
G01 X8.67867 Y-16.21963
G01 X8.73046 Y-16.19816
G01 X8.79777 Y-16.16065
G01 X8.85820 Y-16.11282
G01 X8.89782 Y-16.07320
G01 X8.92891 Y-16.03530
G01 X8.96005 Y-15.98869
G01 X8.99516 Y-15.92008
G01 X9.01885 Y-15.84678
G01 X9.02978 Y-15.79179
G01 X9.03458 Y-15.74302
G01 X9.03597 Y-15.21765
G01 X9.02848 Y-15.21465
G01 X9.03597 Y-15.21765
G01 X9.27181 Y-14.98181
G01 X9.33930 Y-14.89870
G01 X9.36013 Y-14.86471
G01 X9.39576 Y-14.78791
G01 X9.40963 Y-14.74523
G01 X9.42597 Y-14.66215
G01 X9.42998 Y-14.59997
G01 X9.42998 Y-12.92362
G01 X9.42198 Y-12.92034
G01 X9.42998 Y-12.92362
G01 X10.38365 Y-11.96995
G01 X10.38032 Y-11.96193
G01 X10.38365 Y-11.96995
G01 X10.49160 Y-11.96995
G01 X10.49739 Y-11.95855
G01 X10.49160 Y-11.96995
G01 X10.52703 Y-12.03333
G01 X10.64323 Y-12.17709
G01 X10.68288 Y-12.21674
G01 X10.82665 Y-12.33294
G01 X10.98903 Y-12.42131
G01 X11.04082 Y-12.44275
G01 X11.21811 Y-12.49510
G01 X11.40196 Y-12.51458
G01 X11.45802 Y-12.51458
G01 X11.64186 Y-12.49510
G01 X11.81915 Y-12.44275
G01 X11.87094 Y-12.42131
G01 X12.03333 Y-12.33294
G01 X12.17709 Y-12.21674
G01 X12.21674 Y-12.17709
G01 X12.33294 Y-12.03333
G01 X12.43330 Y-11.84557
G01 X12.49510 Y-11.64186
G01 X12.51458 Y-11.45802
G01 X12.51458 Y-11.40196
G01 X12.49510 Y-11.21811
G01 X12.43330 Y-11.01441
G01 X12.33294 Y-10.82665
G01 X12.21674 Y-10.68288
G01 X12.17709 Y-10.64323
G01 X12.03333 Y-10.52703
G01 X11.87094 Y-10.43866
G01 X11.81915 Y-10.41723
G01 X11.64186 Y-10.36488
G01 X11.45802 Y-10.34539
G01 X11.40196 Y-10.34539
G01 X11.24588 Y-10.36076
G01 X11.19091 Y-10.37168
G01 X11.01441 Y-10.42667
G01 X10.85073 Y-10.51260
G01 X10.80412 Y-10.54374
G01 X10.68288 Y-10.64323
G01 X10.64323 Y-10.68288
G01 X10.52703 Y-10.82665
G01 X10.49160 Y-10.89002
G01 X10.49909 Y-10.90305
G01 X10.49160 Y-10.89002
G01 X10.16000 Y-10.89000
G01 X10.08240 Y-10.89627
G01 X10.02741 Y-10.90719
G01 X9.95335 Y-10.93112
G01 X9.88405 Y-10.96658
G01 X9.83745 Y-10.99772
G01 X9.79896 Y-11.02932
G01 X8.50816 Y-12.31816
G01 X8.44065 Y-12.40127
G01 X8.39945 Y-12.47524
G01 X8.37034 Y-12.55474
G01 X8.36104 Y-12.59350
G01 X8.35000 Y-12.69997
G01 X8.35000 Y-14.22900
G01 X8.38073 Y-14.25964
G01 X8.35000 Y-14.22900
G01 X7.99998 Y-14.22900
G01 X7.89541 Y-14.23932
G01 X7.82130 Y-14.26035
G01 X7.76950 Y-14.28181
G01 X7.72627 Y-14.30490
G01 X7.70222 Y-14.31933
G01 X7.64179 Y-14.36715
G01 X7.60214 Y-14.40678
G01 X7.57105 Y-14.44468
G01 X7.53991 Y-14.49128
G01 X7.50481 Y-14.55989
G01 X7.48114 Y-14.63319
G01 X7.47019 Y-14.68818
G01 X7.46402 Y-14.76499
G01 X7.56950 Y-14.76499
G01 X7.56950 Y-15.71498
G01 X7.57776 Y-15.79898
G01 X7.59630 Y-15.86306
G01 X7.60984 Y-15.89575
G01 X7.65259 Y-15.96837
G01 X7.68368 Y-16.00627
G01 X7.70870 Y-16.03129
G01 X7.76082 Y-16.07292
G01 X7.81924 Y-16.10512
G01 X7.85193 Y-16.11866
G01 X7.91601 Y-16.13720
G01 X7.99998 Y-16.14548
G01 X8.49998 Y-16.14548
G01 X8.58398 Y-16.13720
G01 X8.64804 Y-16.11866
G01 X8.68073 Y-16.10512
G01 X8.73915 Y-16.07292
G01 X8.79127 Y-16.03129
G01 X8.81629 Y-16.00627
G01 X8.86704 Y-15.93896
G01 X8.90367 Y-15.86306
G01 X8.92221 Y-15.79898
G01 X8.92960 Y-15.73268
G01 X8.93049 Y-15.17393
G01 X8.92261 Y-15.17073
G01 X8.93049 Y-15.17393
G01 X9.19721 Y-14.90721
G01 X9.23272 Y-14.86649
G01 X9.27019 Y-14.80960
G01 X9.29830 Y-14.74754
G01 X9.32078 Y-14.65387
G01 X9.32447 Y-14.59997
G01 X9.32447 Y-12.87996
G01 X9.31649 Y-12.87663
G01 X9.32447 Y-12.87996
G01 X10.33996 Y-11.86447
G01 X10.33663 Y-11.85644
G01 X10.33996 Y-11.86447
G01 X10.55482 Y-11.86447
G01 X10.56363 Y-11.84966
G01 X10.55482 Y-11.86447
G01 X10.61474 Y-11.97473
G01 X10.73668 Y-12.12329
G01 X10.88525 Y-12.24524
G01 X11.03876 Y-12.32827
G01 X11.07145 Y-12.34181
G01 X11.22152 Y-12.38733
G01 X11.25621 Y-12.39423
G01 X11.41230 Y-12.40960
G01 X11.44768 Y-12.40960
G01 X11.60376 Y-12.39423
G01 X11.63846 Y-12.38733
G01 X11.78852 Y-12.34181
G01 X11.82121 Y-12.32827
G01 X11.97473 Y-12.24524
G01 X12.12329 Y-12.12329
G01 X12.24524 Y-11.97473
G01 X12.32827 Y-11.82121
G01 X12.34181 Y-11.78852
G01 X12.39164 Y-11.62126
G01 X12.40960 Y-11.44768
G01 X12.40960 Y-11.41230
G01 X12.39164 Y-11.23871
G01 X12.34181 Y-11.07145
G01 X12.32827 Y-11.03876
G01 X12.24524 Y-10.88525
G01 X12.12329 Y-10.73668
G01 X11.97473 Y-10.61474
G01 X11.82121 Y-10.53170
G01 X11.78852 Y-10.51817
G01 X11.62126 Y-10.46833
G01 X11.44768 Y-10.45037
G01 X11.41230 Y-10.45037
G01 X11.25621 Y-10.46574
G01 X11.22152 Y-10.47265
G01 X11.07145 Y-10.51817
G01 X11.03876 Y-10.53170
G01 X10.88525 Y-10.61474
G01 X10.73668 Y-10.73668
G01 X10.61474 Y-10.88525
G01 X10.55482 Y-10.99551
G01 X10.56350 Y-11.00988
G01 X10.55482 Y-10.99551
G01 X10.16000 Y-10.99551
G01 X10.09274 Y-11.00125
G01 X10.01039 Y-11.02261
G01 X9.97770 Y-11.03615
G01 X9.93379 Y-11.05962
G01 X9.86589 Y-11.11087
G01 X8.58276 Y-12.39276
G01 X8.53062 Y-12.45639
G01 X8.49691 Y-12.51560
G01 X8.47291 Y-12.57935
G01 X8.46361 Y-12.61811
G01 X8.45551 Y-12.69997
G01 X8.45551 Y-14.33449
G01 X8.48637 Y-14.36538
G01 X8.45551 Y-14.33449
G01 X7.99998 Y-14.33449
G01 X7.91601 Y-14.34277
G01 X7.85193 Y-14.36131
G01 X7.81924 Y-14.37485
G01 X7.76082 Y-14.40706
G01 X7.70870 Y-14.44869
G01 X7.65259 Y-14.51160
G01 X7.63295 Y-14.54102
G01 X7.60227 Y-14.60025
G01 X7.58208 Y-14.66383
G01 X7.57517 Y-14.69852
G01 X7.56950 Y-14.76499
G01 X7.67499 Y-14.76499
G01 X7.68015 Y-14.70886
G01 X7.69724 Y-14.64755
G01 X7.73415 Y-14.57851
G01 X7.77019 Y-14.53518
G01 X7.81352 Y-14.49913
G01 X7.88253 Y-14.46225
G01 X7.93659 Y-14.44622
G01 X7.99998 Y-14.43998
G01 X8.49998 Y-14.43998
G01 X8.56099 Y-14.44587
G01 X8.56099 Y-12.69997
G01 X8.56618 Y-12.64275
G01 X8.57913 Y-12.59279
G01 X8.59437 Y-12.55598
G01 X8.62056 Y-12.51151
G01 X8.65736 Y-12.46736
G01 X9.92736 Y-11.19736
G01 X9.97130 Y-11.16081
G01 X10.04103 Y-11.12355
G01 X10.10308 Y-11.10623
G01 X10.15263 Y-11.10135
G01 X10.61956 Y-11.10099
G01 X10.69866 Y-10.95017
G01 X10.80633 Y-10.81672
G01 X10.95017 Y-10.69866
G01 X11.09515 Y-10.62159
G01 X11.25929 Y-10.57181
G01 X11.42263 Y-10.55535
G01 X11.60069 Y-10.57181
G01 X11.76482 Y-10.62159
G01 X11.92202 Y-10.70684
G01 X12.05365 Y-10.81672
G01 X12.16132 Y-10.95017
G01 X12.23838 Y-11.09515
G01 X12.28816 Y-11.25929
G01 X12.30462 Y-11.42263
G01 X12.28816 Y-11.60069
G01 X12.23838 Y-11.76482
G01 X12.16132 Y-11.90981
G01 X12.04326 Y-12.05365
G01 X11.90981 Y-12.16132
G01 X11.76482 Y-12.23838
G01 X11.60069 Y-12.28816
G01 X11.43734 Y-12.30462
G01 X11.25215 Y-12.28639
G01 X11.09515 Y-12.23838
G01 X10.95017 Y-12.16132
G01 X10.80633 Y-12.04326
G01 X10.69866 Y-11.90981
G01 X10.61956 Y-11.75898
G01 X10.29627 Y-11.75898
G01 X9.21898 Y-12.83625
G01 X9.21898 Y-14.59997
G01 X9.21563 Y-14.64561
G01 X9.20085 Y-14.70718
G01 X9.18025 Y-14.75448
G01 X9.15251 Y-14.79799
G01 X9.12261 Y-14.83263
G01 X8.82498 Y-15.13025
G01 X8.82462 Y-15.72235
G01 X8.81982 Y-15.77111
G01 X8.80273 Y-15.83243
G01 X8.76582 Y-15.90147
G01 X8.72980 Y-15.94480
G01 X8.68647 Y-15.98084
G01 X8.63102 Y-16.01211
G01 X8.56338 Y-16.03375
G01 X8.49998 Y-16.04000
G01 X7.99998 Y-16.04000
G01 X7.94388 Y-16.03482
G01 X7.86897 Y-16.01211
G01 X7.81942 Y-15.98521
G01 X7.77563 Y-15.94975
G01 X7.73415 Y-15.90147
G01 X7.69973 Y-15.83936
G01 X7.68302 Y-15.78554
G01 X7.67535 Y-15.72235
G01 X7.67499 Y-14.76499
G01 X7.35851 Y-14.76499
G01 X7.35274 Y-14.72067
G01 X7.35383 Y-16.08816
G01 X7.40796 Y-16.16916
G01 X7.43905 Y-16.20703
G01 X7.50794 Y-16.27591
G01 X7.58500 Y-16.33606
G01 X7.62683 Y-16.36113
G01 X7.67006 Y-16.38424
G01 X7.76006 Y-16.42151
G01 X7.80694 Y-16.43573
G01 X7.90250 Y-16.45475
G01 X7.99998 Y-16.46194
G01 X8.49998 Y-16.46194
G01 X8.59747 Y-16.45475
G01 X8.69302 Y-16.43573
G01 X8.73991 Y-16.42151
G01 X8.82993 Y-16.38424
G01 X8.91497 Y-16.33606
G01 X8.99203 Y-16.27591
G01 X9.06092 Y-16.20703
G01 X9.09201 Y-16.16916
G01 X9.14613 Y-16.08816
G01 X9.19008 Y-16.00083
G01 X9.22073 Y-15.90802
G01 X9.23976 Y-15.81247
G01 X9.24695 Y-15.71498
G01 X9.24695 Y-15.30502
G01 X9.23935 Y-15.30185
G01 X9.24695 Y-15.30502
G01 X9.42099 Y-15.13101
G01 X9.47336 Y-15.07203
G01 X9.51921 Y-15.00894
G01 X9.54004 Y-14.97498
G01 X9.59068 Y-14.86865
G01 X9.62409 Y-14.75572
G01 X9.63628 Y-14.67871
G01 X9.64095 Y-14.59997
G01 X9.64095 Y-13.01105
G01 X9.63298 Y-13.00772
G01 X9.64095 Y-13.01105
G01 X10.41745 Y-12.23455
G01 X10.41862 Y-12.18702
G01 X10.41745 Y-12.23455
G01 X10.48014 Y-12.31095
G01 X10.54903 Y-12.37983
G01 X10.67026 Y-12.47932
G01 X10.75126 Y-12.53345
G01 X10.88956 Y-12.60737
G01 X10.98809 Y-12.64722
G01 X11.87188 Y-12.64722
G01 X11.97041 Y-12.60737
G01 X12.10871 Y-12.53345
G01 X12.17783 Y-12.48814
G01 X12.28661 Y-12.24854
G01 X12.45265 Y-11.95047
G01 X12.50381 Y-11.83358
G01 X12.52116 Y-11.78507
G01 X12.56332 Y-11.61550
G01 X12.57922 Y-11.42997
G01 X12.56403 Y-11.24877
G01 X12.54702 Y-11.17011
G01 X12.52116 Y-11.07488
G01 X12.50381 Y-11.02637
G01 X12.45265 Y-10.90948
G01 X12.36002 Y-10.75621
G01 X12.17130 Y-10.53843
G01 X12.09759 Y-10.44537
G01 X12.05898 Y-10.41956
G01 X11.92068 Y-10.34565
G01 X11.84976 Y-10.31626
G01 X11.66244 Y-10.26142
G01 X11.43000 Y-10.23851
G01 X11.19754 Y-10.26142
G01 X11.01021 Y-10.31626
G01 X10.93930 Y-10.34565
G01 X10.80099 Y-10.41956
G01 X10.73719 Y-10.46221
G01 X10.61596 Y-10.56170
G01 X10.56170 Y-10.61596
G01 X10.46221 Y-10.73719
G01 X10.43059 Y-10.78451
G01 X10.43577 Y-10.79508
G01 X10.43059 Y-10.78451
G01 X10.16000 Y-10.78451
G01 X10.07207 Y-10.79129
G01 X9.99681 Y-10.80625
G01 X9.91298 Y-10.83366
G01 X9.87824 Y-10.85007
G01 X9.83435 Y-10.87356
G01 X9.77052 Y-10.91618
G01 X9.70356 Y-10.97356
G01 X8.43356 Y-12.24356
G01 X8.38683 Y-12.29644
G01 X8.35071 Y-12.34615
G01 X8.31004 Y-12.41910
G01 X8.29719 Y-12.56817
G01 X8.29475 Y-12.73990
G01 X8.28632 Y-12.91039
G01 X8.27814 Y-12.99256
G01 X8.24451 Y-13.20419
G01 X8.24451 Y-14.12352
G01 X8.27418 Y-14.15222
G01 X8.24451 Y-14.12352
G01 X7.96160 Y-14.12540
G01 X7.87484 Y-14.13584
G01 X7.83758 Y-14.14518
G01 X7.79069 Y-14.15941
G01 X7.71977 Y-14.18877
G01 X7.64360 Y-14.23162
G01 X7.57486 Y-14.28559
G01 X7.52061 Y-14.33987
G01 X7.48952 Y-14.37775
G01 X7.44687 Y-14.44155
G01 X7.42378 Y-14.48478
G01 X7.40735 Y-14.51950
G01 X7.38017 Y-14.60259
G01 X7.36521 Y-14.67785
G01 X7.35851 Y-14.76499
G01 X7.36041 Y-15.75336
G01 X7.36521 Y-15.80213
G01 X7.38017 Y-15.87739
G01 X7.40735 Y-15.96047
G01 X7.44687 Y-16.03842
G01 X7.48952 Y-16.10223
G01 X7.52061 Y-16.14010
G01 X7.57486 Y-16.19438
G01 X7.64360 Y-16.24835
G01 X7.71977 Y-16.29120
G01 X7.79069 Y-16.32057
G01 X7.87484 Y-16.34414
G01 X7.99998 Y-16.35646
G01 X8.49998 Y-16.35646
G01 X8.58713 Y-16.34978
G01 X8.66239 Y-16.33479
G01 X8.70930 Y-16.32057
G01 X8.78020 Y-16.29120
G01 X8.85637 Y-16.24835
G01 X8.92510 Y-16.19438
G01 X8.97938 Y-16.14010
G01 X9.01047 Y-16.10223
G01 X9.05309 Y-16.03842
G01 X9.09262 Y-15.96047
G01 X9.11979 Y-15.87739
G01 X9.13475 Y-15.80213
G01 X9.14146 Y-15.71498
G01 X9.14146 Y-15.26134
G01 X9.13417 Y-15.25844
G01 X9.14146 Y-15.26134
G01 X9.34639 Y-15.05641
G01 X9.39315 Y-15.00353
G01 X9.45007 Y-14.91983
G01 X9.47796 Y-14.86512
G01 X9.49322 Y-14.82829
G01 X9.52152 Y-14.73111
G01 X9.53112 Y-14.67043
G01 X9.53546 Y-14.59997
G01 X9.53546 Y-12.96736
G01 X9.52749 Y-12.96403
G01 X9.53546 Y-12.96736
G01 X10.42736 Y-12.07546
G01 X10.43033 Y-12.02268
G01 X10.42736 Y-12.07546
G01 X10.43059 Y-12.07546
G01 X10.46221 Y-12.12278
G01 X10.56170 Y-12.24402
G01 X10.61596 Y-12.29827
G01 X10.73719 Y-12.39777
G01 X10.80099 Y-12.44041
G01 X10.93930 Y-12.51433
G01 X11.01021 Y-12.54371
G01 X11.16028 Y-12.58923
G01 X11.23554 Y-12.60419
G01 X11.43000 Y-12.62146
G01 X11.62444 Y-12.60419
G01 X11.69970 Y-12.58923
G01 X11.84976 Y-12.54371
G01 X11.92068 Y-12.51433
G01 X12.05898 Y-12.44041
G01 X12.12278 Y-12.39777
G01 X12.24402 Y-12.29827
G01 X12.28019 Y-12.26208
G01 X12.28568 Y-12.25045
G01 X13.20582 Y-13.11323
G01 X13.35260 Y-13.01874
G01 X13.49075 Y-12.94163
G01 X13.60312 Y-12.90754
G01 X13.63774 Y-12.90328
G01 X13.72050 Y-12.89743
G01 X14.24876 Y-12.89804
G01 X14.33680 Y-12.90754
G01 X14.44920 Y-12.94163
G01 X14.48046 Y-12.95735
G01 X14.55273 Y-12.99698
G01 X14.64348 Y-13.07142
G01 X14.71798 Y-13.16223
G01 X14.77330 Y-13.26576
G01 X14.80739 Y-13.37810
G01 X14.81747 Y-13.49550
G01 X14.81689 Y-14.47378
G01 X14.80739 Y-14.56182
G01 X14.77330 Y-14.67419
G01 X14.75765 Y-14.70530
G01 X14.71798 Y-14.77772
G01 X14.66632 Y-14.84203
G01 X14.64348 Y-14.86850
G01 X14.55273 Y-14.94297
G01 X14.44920 Y-14.99832
G01 X14.33680 Y-15.03241
G01 X14.21943 Y-15.04249
G01 X13.72052 Y-15.04249
G01 X13.60312 Y-15.03241
G01 X13.49075 Y-14.99832
G01 X13.45951 Y-14.98257
G01 X13.35260 Y-14.92118
G01 X13.20836 Y-14.83050
G01 X13.11918 Y-14.91206
G01 X13.07549 Y-14.90340
G01 X12.99875 Y-14.90340
G01 X12.84996 Y-14.92141
G01 X12.80094 Y-14.93627
G01 X12.66728 Y-15.00396
G01 X12.60351 Y-15.04655
G01 X12.54925 Y-15.10081
G01 X12.45677 Y-15.21874
G01 X12.43261 Y-15.26393
G01 X12.41458 Y-15.31186
G01 X12.38593 Y-15.40632
G01 X12.37097 Y-15.48158
G01 X12.37097 Y-15.55831
G01 X12.37854 Y-15.63543
G01 X12.37440 Y-15.59329
G01 X13.11918 Y-14.91206
G01 X13.14958 Y-14.91811
G01 X13.11918 Y-14.91206
G01 X12.28192 Y-15.67790
G01 X12.34935 Y-15.81031
G01 X12.45265 Y-15.98948
G01 X12.52116 Y-16.15488
G01 X12.56332 Y-16.32445
G01 X12.57696 Y-16.47459
G01 X12.57922 Y-16.50997
G01 X12.56403 Y-16.69118
G01 X12.52116 Y-16.86507
G01 X12.47470 Y-16.98386
G01 X12.45265 Y-17.03047
G01 X12.28661 Y-17.32854
G01 X12.17833 Y-17.56692
G01 X12.10871 Y-17.61345
G01 X12.03907 Y-17.65066
G01 X11.87554 Y-17.68653
G01 X11.72126 Y-17.70941
G01 X11.62916 Y-17.71851
G01 X11.47493 Y-17.72610
G01 X11.38504 Y-17.72610
G01 X11.23079 Y-17.71851
G01 X11.13869 Y-17.70941
G01 X10.98441 Y-17.68653
G01 X10.82093 Y-17.65069
G01 X10.75126 Y-17.61345
G01 X10.67026 Y-17.55932
G01 X10.54903 Y-17.45983
G01 X10.48014 Y-17.39095
G01 X10.38065 Y-17.26971
G01 X10.32652 Y-17.18871
G01 X10.25261 Y-17.05041
G01 X10.21532 Y-16.96039
G01 X10.15794 Y-16.76301
G01 X10.13541 Y-16.55869
G01 X10.34539 Y-16.53802
G01 X10.34539 Y-16.48196
G01 X10.36076 Y-16.32588
G01 X10.37168 Y-16.27091
G01 X10.41723 Y-16.12082
G01 X10.43866 Y-16.06903
G01 X10.52703 Y-15.90665
G01 X10.64323 Y-15.76288
G01 X10.68288 Y-15.72324
G01 X10.80412 Y-15.62374
G01 X10.85073 Y-15.59260
G01 X11.01441 Y-15.50667
G01 X11.19091 Y-15.45168
G01 X11.24588 Y-15.44076
G01 X11.40196 Y-15.42539
G01 X11.45802 Y-15.42539
G01 X11.61410 Y-15.44076
G01 X11.66906 Y-15.45168
G01 X11.84557 Y-15.50667
G01 X12.00925 Y-15.59260
G01 X12.05586 Y-15.62374
G01 X12.19789 Y-15.74208
G01 X12.33294 Y-15.90665
G01 X12.42131 Y-16.06903
G01 X12.44275 Y-16.12082
G01 X12.49510 Y-16.29811
G01 X12.51458 Y-16.48196
G01 X12.51458 Y-16.53802
G01 X12.49510 Y-16.72186
G01 X12.44275 Y-16.89915
G01 X12.42131 Y-16.95094
G01 X12.33294 Y-17.11333
G01 X12.21674 Y-17.25709
G01 X12.17709 Y-17.29674
G01 X12.05586 Y-17.39623
G01 X12.00925 Y-17.42737
G01 X11.87094 Y-17.50131
G01 X11.81915 Y-17.52275
G01 X11.66906 Y-17.56829
G01 X11.61410 Y-17.57921
G01 X11.43000 Y-17.59598
G01 X11.24588 Y-17.57921
G01 X11.19091 Y-17.56829
G01 X11.04082 Y-17.52275
G01 X10.98903 Y-17.50131
G01 X10.85073 Y-17.42737
G01 X10.80412 Y-17.39623
G01 X10.68288 Y-17.29674
G01 X10.64323 Y-17.25709
G01 X10.52703 Y-17.11333
G01 X10.43866 Y-16.95094
G01 X10.41723 Y-16.89915
G01 X10.36488 Y-16.72186
G01 X10.34539 Y-16.53802
G01 X10.45037 Y-16.52768
G01 X10.45037 Y-16.49230
G01 X10.46833 Y-16.31871
G01 X10.51817 Y-16.15145
G01 X10.53170 Y-16.11876
G01 X10.60564 Y-15.98046
G01 X10.62530 Y-15.95102
G01 X10.72477 Y-15.82979
G01 X10.74979 Y-15.80477
G01 X10.87102 Y-15.70530
G01 X10.90046 Y-15.68564
G01 X11.05477 Y-15.60413
G01 X11.22152 Y-15.55265
G01 X11.25621 Y-15.54574
G01 X11.41230 Y-15.53037
G01 X11.44768 Y-15.53037
G01 X11.60376 Y-15.54574
G01 X11.63846 Y-15.55265
G01 X11.80521 Y-15.60413
G01 X11.95951 Y-15.68564
G01 X11.98895 Y-15.70530
G01 X12.11019 Y-15.80477
G01 X12.13521 Y-15.82979
G01 X12.24524 Y-15.96525
G01 X12.32827 Y-16.11876
G01 X12.34181 Y-16.15145
G01 X12.39164 Y-16.31871
G01 X12.40960 Y-16.49230
G01 X12.40960 Y-16.52768
G01 X12.39423 Y-16.68376
G01 X12.38733 Y-16.71846
G01 X12.34181 Y-16.86852
G01 X12.32827 Y-16.90121
G01 X12.24524 Y-17.05473
G01 X12.13521 Y-17.19019
G01 X12.11019 Y-17.21521
G01 X11.98895 Y-17.31467
G01 X11.95951 Y-17.33433
G01 X11.82121 Y-17.40827
G01 X11.78852 Y-17.42181
G01 X11.63846 Y-17.46733
G01 X11.60376 Y-17.47423
G01 X11.44768 Y-17.48960
G01 X11.41230 Y-17.48960
G01 X11.25621 Y-17.47423
G01 X11.22152 Y-17.46733
G01 X11.05477 Y-17.41584
G01 X10.90046 Y-17.33433
G01 X10.87102 Y-17.31467
G01 X10.74979 Y-17.21521
G01 X10.72477 Y-17.19019
G01 X10.61474 Y-17.05473
G01 X10.53170 Y-16.90121
G01 X10.51817 Y-16.86852
G01 X10.46833 Y-16.70126
G01 X10.45037 Y-16.52768
G01 X10.55500 Y-16.51000
G01 X10.57181 Y-16.33929
G01 X10.61910 Y-16.18206
G01 X10.70244 Y-16.02387
G01 X10.80633 Y-15.89672
G01 X10.95017 Y-15.77866
G01 X11.09515 Y-15.70159
G01 X11.25215 Y-15.65359
G01 X11.43734 Y-15.63535
G01 X11.60783 Y-15.65359
G01 X11.76482 Y-15.70159
G01 X11.92202 Y-15.78684
G01 X12.04326 Y-15.88633
G01 X12.15314 Y-16.01795
G01 X12.24087 Y-16.18206
G01 X12.28926 Y-16.34658
G01 X12.30498 Y-16.51000
G01 X12.28926 Y-16.67340
G01 X12.23523 Y-16.85148
G01 X12.15753 Y-16.99611
G01 X12.05365 Y-17.12326
G01 X11.90981 Y-17.24132
G01 X11.76482 Y-17.31838
G01 X11.60783 Y-17.36639
G01 X11.43000 Y-17.38498
G01 X11.26658 Y-17.36926
G01 X11.09515 Y-17.31838
G01 X10.95017 Y-17.24132
G01 X10.81672 Y-17.13365
G01 X10.70244 Y-16.99611
G01 X10.62474 Y-16.85148
G01 X10.57181 Y-16.68069
G01 X10.55500 Y-16.51000
G01 X10.45037 Y-16.52768
G01 X10.13541 Y-16.55869
G01 X10.13541 Y-16.46128
G01 X10.15794 Y-16.25697
G01 X10.21532 Y-16.05958
G01 X10.25261 Y-15.96956
G01 X10.35162 Y-15.78943
G01 X10.48014 Y-15.62903
G01 X10.54903 Y-15.56014
G01 X10.67026 Y-15.46065
G01 X10.75126 Y-15.40652
G01 X10.88956 Y-15.33261
G01 X10.93366 Y-15.31175
G01 X10.98817 Y-15.29273
G01 X11.87181 Y-15.29273
G01 X11.92632 Y-15.31175
G01 X11.97041 Y-15.33261
G01 X12.10871 Y-15.40652
G01 X12.17811 Y-15.45290
G01 X12.28761 Y-15.69034
G01 X12.34935 Y-15.81031
G01 X12.45265 Y-15.98948
G01 X12.52116 Y-16.15488
G01 X12.56332 Y-16.32445
G01 X12.57696 Y-16.47459
G01 X12.57922 Y-16.50997
G01 X12.56403 Y-16.69118
G01 X12.52116 Y-16.86507
G01 X12.47470 Y-16.98386
G01 X12.45265 Y-17.03047
G01 X12.32057 Y-17.26326
G01 X12.27839 Y-17.34596
G01 X12.12278 Y-17.47777
G01 X12.05898 Y-17.52041
G01 X11.88593 Y-17.61076
G01 X11.69970 Y-17.66923
G01 X11.62444 Y-17.68419
G01 X11.46835 Y-17.69956
G01 X11.39162 Y-17.69956
G01 X11.23554 Y-17.68419
G01 X11.16028 Y-17.66923
G01 X10.97404 Y-17.61076
G01 X10.80099 Y-17.52041
G01 X10.73719 Y-17.47777
G01 X10.58748 Y-17.35249
G01 X10.46221 Y-17.20278
G01 X10.41956 Y-17.13898
G01 X10.34565 Y-17.00068
G01 X10.31626 Y-16.92976
G01 X10.26142 Y-16.74244
G01 X10.24042 Y-16.54835
G01 X10.24042 Y-16.47162
G01 X10.25578 Y-16.31554
G01 X10.27074 Y-16.24028
G01 X10.31626 Y-16.09021
G01 X10.34565 Y-16.01930
G01 X10.43932 Y-15.84805
G01 X10.56170 Y-15.69596
G01 X10.61596 Y-15.64170
G01 X10.73719 Y-15.54221
G01 X10.80099 Y-15.49956
G01 X10.97404 Y-15.40921
G01 X11.16028 Y-15.35074
G01 X11.23554 Y-15.33578
G01 X11.43000 Y-15.31851
G01 X11.62444 Y-15.33578
G01 X11.69970 Y-15.35074
G01 X11.84976 Y-15.39626
G01 X11.92068 Y-15.42565
G01 X12.05898 Y-15.49956
G01 X12.12278 Y-15.54221
G01 X12.24402 Y-15.64170
G01 X12.28192 Y-15.67790
G01 X13.20836 Y-14.83050
G01 X13.01844 Y-14.70950
G01 X13.01961 Y-14.70520
G01 X13.01844 Y-14.70950
G01 X12.99832 Y-14.70640
G01 X12.88329 Y-14.71193
G01 X12.82139 Y-14.72095
G01 X12.48580 Y-14.72095
G01 X12.48113 Y-14.71132
G01 X12.48580 Y-14.72095
G01 X12.37983 Y-14.85095
G01 X12.31095 Y-14.91983
G01 X12.18971 Y-15.01932
G01 X12.10871 Y-15.07345
G01 X11.97041 Y-15.14737
G01 X11.87188 Y-15.18722
G01 X10.98809 Y-15.18722
G01 X10.93366 Y-15.16822
G01 X10.88956 Y-15.14737
G01 X10.75126 Y-15.07345
G01 X10.67026 Y-15.01932
G01 X10.54903 Y-14.91983
G01 X10.48014 Y-14.85095
G01 X10.35162 Y-14.69055
G01 X10.25261 Y-14.51041
G01 X10.21532 Y-14.42039
G01 X10.16980 Y-14.27033
G01 X10.15081 Y-14.17477
G01 X10.13541 Y-14.01869
G01 X10.34539 Y-13.99802
G01 X10.34539 Y-13.94196
G01 X10.36076 Y-13.78588
G01 X10.37168 Y-13.73091
G01 X10.41723 Y-13.58082
G01 X10.43866 Y-13.52903
G01 X10.52703 Y-13.36665
G01 X10.64323 Y-13.22288
G01 X10.68288 Y-13.18321
G01 X10.82665 Y-13.06700
G01 X10.98903 Y-12.97864
G01 X11.04082 Y-12.95723
G01 X11.19091 Y-12.91166
G01 X11.24588 Y-12.90076
G01 X11.43000 Y-12.88400
G01 X11.61410 Y-12.90076
G01 X11.66906 Y-12.91166
G01 X11.84557 Y-12.96667
G01 X12.00925 Y-13.05258
G01 X12.05586 Y-13.08374
G01 X12.19789 Y-13.20208
G01 X12.33294 Y-13.36665
G01 X12.36838 Y-13.43000
G01 X12.36259 Y-13.44143
G01 X12.36838 Y-13.43000
G01 X13.18900 Y-13.43000
G01 X13.20495 Y-13.45118
G01 X13.18900 Y-13.43000
G01 X13.19017 Y-13.41819
G01 X13.20112 Y-13.36319
G01 X13.22479 Y-13.28989
G01 X13.25989 Y-13.22126
G01 X13.29106 Y-13.17468
G01 X13.34099 Y-13.11600
G01 X13.42222 Y-13.04933
G01 X13.51488 Y-12.99980
G01 X13.61542 Y-12.96932
G01 X13.69195 Y-12.96038
G01 X14.21999 Y-12.95900
G01 X14.32456 Y-12.96932
G01 X14.39868 Y-12.99032
G01 X14.45047 Y-13.01178
G01 X14.51775 Y-13.04933
G01 X14.59898 Y-13.11600
G01 X14.64892 Y-13.17468
G01 X14.68006 Y-13.22126
G01 X14.71516 Y-13.28989
G01 X14.74567 Y-13.39042
G01 X14.75598 Y-13.49499
G01 X14.75598 Y-14.44498
G01 X14.74978 Y-14.52179
G01 X14.73886 Y-14.57678
G01 X14.71516 Y-14.65009
G01 X14.68006 Y-14.71869
G01 X14.64892 Y-14.76530
G01 X14.59898 Y-14.82397
G01 X14.57818 Y-14.84282
G01 X14.51775 Y-14.89065
G01 X14.49370 Y-14.90508
G01 X14.42509 Y-14.94018
G01 X14.35179 Y-14.96385
G01 X14.32456 Y-14.97066
G01 X14.24803 Y-14.97960
G01 X13.71999 Y-14.98097
G01 X13.61542 Y-14.97066
G01 X13.51488 Y-14.94018
G01 X13.44628 Y-14.90508
G01 X13.39967 Y-14.87391
