( pcb2gcode 2.5.0 )
( Software-independent Gcode )

G94 ( Millimeters per minute feed rate. )
G21 ( Units == Millimeters. )

G90 ( Absolute coordinates. )
G00 S10000 ( RPM spindle speed. )
G64 P0.01016 ( set maximum deviation from commanded toolpath )
G01 F500.00000 ( Feedrate. )


G00 Z7.62000 (Retract to tool change height)
T1
M5      (Spindle stop.)
G04 P1.00000 (Wait for spindle to stop)
(MSG, Change tool bit to mill diameter 0.15000mm)
M6      (Tool change.)
M0      (Temporary machine stop.)
M3 ( Spindle on clockwise. )
G04 P1.00000 (Wait for spindle to get up to speed)
G04 P0 ( dwell for no time -- G64 should not smooth over this point )
G00 Z0.63500 ( retract )

G00 X5.43499 Y19.51998 ( rapid move to begin. )
G01 F30.00000
( Mill infeed pass 1/1 )
G01 Z-0.14000
G04 P0 ( dwell for no time -- G64 should not smooth over this point )
G01 F500.00000
G01 X5.43499 Y19.51998
G01 X5.43499 Y21.12000
G01 X5.44071 Y21.14870
G01 X5.45696 Y21.17301
G01 X5.48129 Y21.18929
G01 X5.51000 Y21.19498
G01 X7.10999 Y21.19498
G01 X7.13870 Y21.18929
G01 X7.16303 Y21.17301
G01 X7.17928 Y21.14870
G01 X7.18500 Y21.12000
G01 X7.18500 Y19.51998
G01 X7.17928 Y19.49127
G01 X7.16303 Y19.46697
G01 X7.13870 Y19.45069
G01 X7.10999 Y19.44500
G01 X5.51000 Y19.44500
G01 X5.48129 Y19.45069
G01 X5.45696 Y19.46697
G01 X5.44071 Y19.49127
G01 X5.43499 Y19.51998
G01 X5.32950 Y19.51998
G01 X5.32950 Y21.12000
G01 X5.33296 Y21.15520
G01 X5.34325 Y21.18906
G01 X5.35991 Y21.22025
G01 X5.38236 Y21.24761
G01 X5.40972 Y21.27006
G01 X5.44091 Y21.28675
G01 X5.47477 Y21.29701
G01 X5.51000 Y21.30047
G01 X7.10999 Y21.30047
G01 X7.14520 Y21.29701
G01 X7.17906 Y21.28675
G01 X7.21027 Y21.27006
G01 X7.23760 Y21.24761
G01 X7.26006 Y21.22025
G01 X7.27674 Y21.18906
G01 X7.28701 Y21.15520
G01 X7.29049 Y21.12000
G01 X7.29049 Y19.51998
G01 X7.28701 Y19.48477
G01 X7.27674 Y19.45091
G01 X7.26006 Y19.41972
G01 X7.23760 Y19.39237
G01 X7.21027 Y19.36991
G01 X7.17906 Y19.35323
G01 X7.14520 Y19.34296
G01 X7.10999 Y19.33951
G01 X5.51000 Y19.33951
G01 X5.47477 Y19.34296
G01 X5.44091 Y19.35323
G01 X5.40972 Y19.36991
G01 X5.38236 Y19.39237
G01 X5.35991 Y19.41972
G01 X5.34325 Y19.45091
G01 X5.33296 Y19.48477
G01 X5.32950 Y19.51998
G01 X5.22402 Y19.51998
G01 X5.22402 Y21.12000
G01 X5.22950 Y21.17578
G01 X5.24579 Y21.22942
G01 X5.27220 Y21.27888
G01 X5.30776 Y21.32221
G01 X5.35109 Y21.35777
G01 X5.40055 Y21.38421
G01 X5.45419 Y21.40047
G01 X5.51000 Y21.40598
G01 X7.10999 Y21.40598
G01 X7.16577 Y21.40047
G01 X7.21942 Y21.38421
G01 X7.26887 Y21.35777
G01 X7.31220 Y21.32221
G01 X7.34776 Y21.27888
G01 X7.37420 Y21.22942
G01 X7.39046 Y21.17578
G01 X7.39597 Y21.12000
G01 X7.39597 Y19.51998
G01 X7.39046 Y19.46420
G01 X7.37420 Y19.41055
G01 X7.34776 Y19.36110
G01 X7.31220 Y19.31777
G01 X7.26887 Y19.28221
G01 X7.21942 Y19.25577
G01 X7.16577 Y19.23951
G01 X7.10999 Y19.23400
G01 X5.50723 Y19.23425
G01 X5.45419 Y19.23951
G01 X5.40055 Y19.25577
G01 X5.35109 Y19.28221
G01 X5.30776 Y19.31777
G01 X5.27220 Y19.36110
G01 X5.24579 Y19.41055
G01 X5.22950 Y19.46420
G01 X5.22402 Y19.51998
G01 X5.11851 Y19.51998
G01 X5.11851 Y21.12000
G01 X5.12605 Y21.19635
G01 X5.14833 Y21.26981
G01 X5.18450 Y21.33747
G01 X5.23319 Y21.39681
G01 X5.29250 Y21.44547
G01 X5.36019 Y21.48167
G01 X5.43362 Y21.50394
G01 X5.51000 Y21.51146
G01 X7.10999 Y21.51146
G01 X7.18637 Y21.50394
G01 X7.25980 Y21.48167
G01 X7.32747 Y21.44547
G01 X7.38680 Y21.39681
G01 X7.43547 Y21.33747
G01 X7.47166 Y21.26981
G01 X7.49394 Y21.19635
G01 X7.50146 Y21.12000
G01 X7.50146 Y19.51998
G01 X7.49394 Y19.44362
G01 X7.47166 Y19.37017
G01 X7.43547 Y19.30250
G01 X7.38680 Y19.24317
G01 X7.32747 Y19.19450
G01 X7.25980 Y19.15831
G01 X7.18637 Y19.13603
G01 X7.10999 Y19.12851
G01 X5.51000 Y19.12851
G01 X5.43362 Y19.13603
G01 X5.36019 Y19.15831
G01 X5.29250 Y19.19450
G01 X5.23319 Y19.24317
G01 X5.18450 Y19.30250
G01 X5.14833 Y19.37017
G01 X5.12605 Y19.44362
G01 X5.11851 Y19.51998
G01 X5.01302 Y19.51998
G01 X5.01302 Y19.61050
G01 X5.05056 Y19.76034
G01 X5.07068 Y19.86100
G01 X5.09440 Y20.02041
G01 X5.10385 Y20.11629
G01 X5.11165 Y20.27573
G01 X5.11157 Y20.36686
G01 X5.10385 Y20.52368
G01 X5.09468 Y20.61957
G01 X5.07114 Y20.77636
G01 X5.05112 Y20.87712
G01 X5.01302 Y21.02945
G01 X5.01302 Y21.12000
G01 X5.02257 Y21.21695
G01 X5.05087 Y21.31017
G01 X5.09679 Y21.39607
G01 X5.15859 Y21.47138
G01 X5.23390 Y21.53318
G01 X5.31980 Y21.57913
G01 X5.41304 Y21.60740
G01 X5.51000 Y21.61695
G01 X7.10999 Y21.61695
G01 X7.20695 Y21.60740
G01 X7.30016 Y21.57913
G01 X7.38609 Y21.53318
G01 X7.46138 Y21.47138
G01 X7.52320 Y21.39607
G01 X7.56912 Y21.31017
G01 X7.59739 Y21.21695
G01 X7.60694 Y21.12000
G01 X7.60694 Y19.51998
G01 X7.59739 Y19.42302
G01 X7.56912 Y19.32981
G01 X7.52320 Y19.24390
G01 X7.46138 Y19.16859
G01 X7.38609 Y19.10679
G01 X7.30016 Y19.06085
G01 X7.20695 Y19.03258
G01 X7.10999 Y19.02303
G01 X5.51000 Y19.02303
G01 X5.41304 Y19.03258
G01 X5.31980 Y19.06085
G01 X5.23390 Y19.10679
G01 X5.15859 Y19.16859
G01 X5.09679 Y19.24390
G01 X5.05087 Y19.32981
G01 X5.02257 Y19.42302
G01 X5.01302 Y19.51998
G01 X10.13541 Y16.55869
G01 X10.13541 Y16.46128
G01 X10.15081 Y16.30520
G01 X10.16980 Y16.20965
G01 X10.21532 Y16.05958
G01 X10.25261 Y15.96956
G01 X10.35162 Y15.78943
G01 X10.48014 Y15.62903
G01 X10.54903 Y15.56014
G01 X10.67026 Y15.46065
G01 X10.75126 Y15.40652
G01 X10.88956 Y15.33261
G01 X10.93366 Y15.31175
G01 X10.98817 Y15.29273
G01 X11.87181 Y15.29273
G01 X11.92632 Y15.31175
G01 X11.97041 Y15.33261
G01 X12.10871 Y15.40652
G01 X12.18971 Y15.46065
G01 X12.31095 Y15.56014
G01 X12.37983 Y15.62903
G01 X12.50836 Y15.78943
G01 X12.60737 Y15.96956
G01 X12.64465 Y16.05958
G01 X12.70201 Y16.25697
G01 X12.72456 Y16.46128
G01 X12.72456 Y16.55869
G01 X12.70201 Y16.76301
G01 X12.64465 Y16.96039
G01 X12.60737 Y17.05041
G01 X12.50836 Y17.23055
G01 X12.37983 Y17.39095
G01 X12.31095 Y17.45983
G01 X12.18971 Y17.55932
G01 X12.10871 Y17.61345
G01 X12.03907 Y17.65066
G01 X11.97524 Y17.66667
G01 X11.87552 Y17.68653
G01 X11.72126 Y17.70941
G01 X11.62914 Y17.71851
G01 X11.47493 Y17.72610
G01 X11.38504 Y17.72610
G01 X11.23079 Y17.71851
G01 X11.13869 Y17.70941
G01 X10.98443 Y17.68653
G01 X10.82093 Y17.65069
G01 X10.75126 Y17.61345
G01 X10.67026 Y17.55932
G01 X10.54903 Y17.45983
G01 X10.48014 Y17.39095
G01 X10.38065 Y17.26971
G01 X10.32652 Y17.18871
G01 X10.25261 Y17.05041
G01 X10.21532 Y16.96039
G01 X10.16980 Y16.81033
G01 X10.15081 Y16.71477
G01 X10.13541 Y16.55869
G01 X10.24042 Y16.54835
G01 X10.24042 Y16.47162
G01 X10.26142 Y16.27754
G01 X10.31626 Y16.09021
G01 X10.34565 Y16.01930
G01 X10.43932 Y15.84805
G01 X10.58748 Y15.66748
G01 X10.73719 Y15.54221
G01 X10.80099 Y15.49956
G01 X10.97404 Y15.40921
G01 X11.16028 Y15.35074
G01 X11.23554 Y15.33578
G01 X11.43000 Y15.31851
G01 X11.62444 Y15.33578
G01 X11.69970 Y15.35074
G01 X11.84976 Y15.39626
G01 X11.92068 Y15.42565
G01 X12.05898 Y15.49956
G01 X12.12278 Y15.54221
G01 X12.24402 Y15.64170
G01 X12.29827 Y15.69596
G01 X12.39777 Y15.81719
G01 X12.44041 Y15.88099
G01 X12.51433 Y16.01930
G01 X12.54371 Y16.09021
G01 X12.59855 Y16.27754
G01 X12.61956 Y16.47162
G01 X12.61956 Y16.54835
G01 X12.60419 Y16.70444
G01 X12.58923 Y16.77970
G01 X12.54371 Y16.92976
G01 X12.51433 Y17.00068
G01 X12.42065 Y17.17192
G01 X12.27249 Y17.35249
G01 X12.12278 Y17.47777
G01 X12.05898 Y17.52041
G01 X11.92068 Y17.59433
G01 X11.84976 Y17.62371
G01 X11.69970 Y17.66923
G01 X11.62444 Y17.68419
G01 X11.43000 Y17.70146
G01 X11.23554 Y17.68419
G01 X11.16028 Y17.66923
G01 X10.97404 Y17.61076
G01 X10.80099 Y17.52041
G01 X10.73719 Y17.47777
G01 X10.61596 Y17.37827
G01 X10.56170 Y17.32402
G01 X10.46221 Y17.20278
G01 X10.41956 Y17.13898
G01 X10.34565 Y17.00068
G01 X10.31626 Y16.92976
G01 X10.27074 Y16.77970
G01 X10.25578 Y16.70444
G01 X10.24042 Y16.54835
G01 X10.34539 Y16.53802
G01 X10.34539 Y16.48196
G01 X10.36488 Y16.29811
G01 X10.41723 Y16.12082
G01 X10.43866 Y16.06903
G01 X10.52703 Y15.90665
G01 X10.66208 Y15.74208
G01 X10.80412 Y15.62374
G01 X10.85073 Y15.59260
G01 X11.01441 Y15.50667
G01 X11.19091 Y15.45168
G01 X11.24588 Y15.44076
G01 X11.43000 Y15.42400
G01 X11.61410 Y15.44076
G01 X11.66906 Y15.45168
G01 X11.81915 Y15.49723
G01 X11.87094 Y15.51866
G01 X12.00925 Y15.59260
G01 X12.05586 Y15.62374
G01 X12.17709 Y15.72324
G01 X12.21674 Y15.76288
G01 X12.31623 Y15.88412
G01 X12.34737 Y15.93073
G01 X12.42131 Y16.06903
G01 X12.44275 Y16.12082
G01 X12.49510 Y16.29811
G01 X12.51598 Y16.51000
G01 X12.49921 Y16.69410
G01 X12.48829 Y16.74906
G01 X12.44275 Y16.89915
G01 X12.42131 Y16.95094
G01 X12.33294 Y17.11333
G01 X12.19789 Y17.27789
G01 X12.05586 Y17.39623
G01 X12.00925 Y17.42737
G01 X11.84557 Y17.51330
G01 X11.66906 Y17.56829
G01 X11.61410 Y17.57921
G01 X11.43000 Y17.59598
G01 X11.24588 Y17.57921
G01 X11.19091 Y17.56829
G01 X11.04082 Y17.52275
G01 X10.98903 Y17.50131
G01 X10.85073 Y17.42737
G01 X10.80412 Y17.39623
G01 X10.68288 Y17.29674
G01 X10.64323 Y17.25709
G01 X10.52703 Y17.11333
G01 X10.43866 Y16.95094
G01 X10.41723 Y16.89915
G01 X10.36488 Y16.72186
G01 X10.34539 Y16.53802
G01 X10.45037 Y16.52768
G01 X10.45037 Y16.49230
G01 X10.46833 Y16.31871
G01 X10.51817 Y16.15145
G01 X10.53170 Y16.11876
G01 X10.61474 Y15.96525
G01 X10.72477 Y15.82979
G01 X10.74979 Y15.80477
G01 X10.87102 Y15.70530
G01 X10.90046 Y15.68564
G01 X11.05477 Y15.60413
G01 X11.22152 Y15.55265
G01 X11.25621 Y15.54574
G01 X11.41230 Y15.53037
G01 X11.44768 Y15.53037
G01 X11.60376 Y15.54574
G01 X11.63846 Y15.55265
G01 X11.78852 Y15.59817
G01 X11.82121 Y15.61170
G01 X11.95951 Y15.68564
G01 X11.98895 Y15.70530
G01 X12.11019 Y15.80477
G01 X12.13521 Y15.82979
G01 X12.23467 Y15.95102
G01 X12.25433 Y15.98046
G01 X12.32827 Y16.11876
G01 X12.34181 Y16.15145
G01 X12.39164 Y16.31871
G01 X12.40960 Y16.49230
G01 X12.40960 Y16.52768
G01 X12.39423 Y16.68376
G01 X12.38733 Y16.71846
G01 X12.34181 Y16.86852
G01 X12.32827 Y16.90121
G01 X12.24524 Y17.05473
G01 X12.13521 Y17.19019
G01 X12.11019 Y17.21521
G01 X11.98895 Y17.31467
G01 X11.95951 Y17.33433
G01 X11.80521 Y17.41584
G01 X11.63846 Y17.46733
G01 X11.60376 Y17.47423
G01 X11.43000 Y17.49047
G01 X11.25621 Y17.47423
G01 X11.22152 Y17.46733
G01 X11.07145 Y17.42181
G01 X11.03876 Y17.40827
G01 X10.90046 Y17.33433
G01 X10.87102 Y17.31467
G01 X10.74979 Y17.21521
G01 X10.72477 Y17.19019
G01 X10.61474 Y17.05473
G01 X10.53170 Y16.90121
G01 X10.51817 Y16.86852
G01 X10.46833 Y16.70126
G01 X10.45037 Y16.52768
G01 X10.55500 Y16.51000
G01 X10.57181 Y16.33929
G01 X10.62474 Y16.16850
G01 X10.70244 Y16.02387
G01 X10.81672 Y15.88633
G01 X10.95017 Y15.77866
G01 X11.09515 Y15.70159
G01 X11.26658 Y15.65072
G01 X11.43734 Y15.63535
G01 X11.59340 Y15.65072
G01 X11.75791 Y15.69910
G01 X11.90981 Y15.77866
G01 X12.04326 Y15.88633
G01 X12.15314 Y16.01795
G01 X12.23523 Y16.16850
G01 X12.28816 Y16.33929
G01 X12.30498 Y16.51000
G01 X12.28816 Y16.68069
G01 X12.24087 Y16.83791
G01 X12.16132 Y16.98981
G01 X12.04326 Y17.13365
G01 X11.90981 Y17.24132
G01 X11.76482 Y17.31838
G01 X11.60783 Y17.36639
G01 X11.43734 Y17.38462
G01 X11.25215 Y17.36639
G01 X11.09515 Y17.31838
G01 X10.95017 Y17.24132
G01 X10.80633 Y17.12326
G01 X10.70244 Y16.99611
G01 X10.61910 Y16.83791
G01 X10.57181 Y16.68069
G01 X10.55500 Y16.51000
G01 X10.55527 Y12.23620
G01 X10.46221 Y12.12278
G01 X10.41956 Y12.05898
G01 X10.34565 Y11.92068
G01 X10.31626 Y11.84976
G01 X10.26142 Y11.66244
G01 X10.24042 Y11.46835
G01 X10.24042 Y11.39162
G01 X10.25578 Y11.23554
G01 X10.27074 Y11.16028
G01 X10.31626 Y11.01021
G01 X10.34565 Y10.93930
G01 X10.41956 Y10.80099
G01 X10.46221 Y10.73719
G01 X10.56170 Y10.61596
G01 X10.59315 Y10.58448
G01 X10.61596 Y10.56170
G01 X10.73719 Y10.46221
G01 X10.80099 Y10.41956
G01 X10.93930 Y10.34565
G01 X11.01021 Y10.31626
G01 X11.16028 Y10.27074
G01 X11.23554 Y10.25578
G01 X11.39162 Y10.24042
G01 X11.46835 Y10.24042
G01 X11.66244 Y10.26142
G01 X11.84976 Y10.31626
G01 X11.92068 Y10.34565
G01 X12.05898 Y10.41956
G01 X12.12278 Y10.46221
G01 X12.24402 Y10.56170
G01 X12.29827 Y10.61596
G01 X12.39777 Y10.73719
G01 X12.44041 Y10.80099
G01 X12.51433 Y10.93930
G01 X12.54371 Y11.01021
G01 X12.58923 Y11.16028
G01 X12.60419 Y11.23554
G01 X12.62146 Y11.43000
G01 X12.59855 Y11.66244
G01 X12.54371 Y11.84976
G01 X12.51433 Y11.92068
G01 X12.44041 Y12.05898
G01 X12.39777 Y12.12278
G01 X12.29827 Y12.24402
G01 X12.24402 Y12.29827
G01 X12.12278 Y12.39777
G01 X12.05898 Y12.44041
G01 X11.92068 Y12.51433
G01 X11.84976 Y12.54371
G01 X11.69970 Y12.58923
G01 X11.62444 Y12.60419
G01 X11.43000 Y12.62146
G01 X11.23554 Y12.60419
G01 X11.16028 Y12.58923
G01 X11.01021 Y12.54371
G01 X10.93930 Y12.51433
G01 X10.80099 Y12.44041
G01 X10.73719 Y12.39777
G01 X10.61596 Y12.29827
G01 X10.55527 Y12.23620
G01 X10.55530 Y12.06993
G01 X10.51260 Y12.00925
G01 X10.42667 Y11.84557
G01 X10.36488 Y11.64186
G01 X10.34539 Y11.45802
G01 X10.34539 Y11.40196
G01 X10.36488 Y11.21811
G01 X10.42667 Y11.01441
G01 X10.51260 Y10.85073
G01 X10.54374 Y10.80412
G01 X10.64323 Y10.68288
G01 X10.68288 Y10.64323
G01 X10.82665 Y10.52703
G01 X10.98903 Y10.43866
G01 X11.04082 Y10.41723
G01 X11.21811 Y10.36488
G01 X11.40196 Y10.34539
G01 X11.45802 Y10.34539
G01 X11.56073 Y10.35550
G01 X11.64186 Y10.36488
G01 X11.66906 Y10.37168
G01 X11.84557 Y10.42667
G01 X12.00925 Y10.51260
G01 X12.05586 Y10.54374
G01 X12.17709 Y10.64323
G01 X12.21674 Y10.68288
G01 X12.33294 Y10.82665
G01 X12.43330 Y11.01441
G01 X12.49510 Y11.21811
G01 X12.51458 Y11.40196
G01 X12.51458 Y11.45802
G01 X12.49921 Y11.61410
G01 X12.48829 Y11.66906
G01 X12.44275 Y11.81915
G01 X12.42131 Y11.87094
G01 X12.33294 Y12.03333
G01 X12.21674 Y12.17709
G01 X12.17709 Y12.21674
G01 X12.03333 Y12.33294
G01 X11.84557 Y12.43330
G01 X11.64186 Y12.49510
G01 X11.45802 Y12.51458
G01 X11.40196 Y12.51458
G01 X11.24588 Y12.49921
G01 X11.19091 Y12.48829
G01 X11.01441 Y12.43330
G01 X10.82665 Y12.33294
G01 X10.68288 Y12.21674
G01 X10.64323 Y12.17709
G01 X10.55530 Y12.06993
G01 X10.55530 Y11.86538
G01 X10.51817 Y11.78852
G01 X10.47265 Y11.63846
G01 X10.46574 Y11.60376
G01 X10.45037 Y11.44768
G01 X10.45037 Y11.41230
G01 X10.46833 Y11.23871
G01 X10.51817 Y11.07145
G01 X10.53170 Y11.03876
G01 X10.61474 Y10.88525
G01 X10.72477 Y10.74979
G01 X10.74979 Y10.72477
G01 X10.88525 Y10.61474
G01 X11.03876 Y10.53170
G01 X11.07145 Y10.51817
G01 X11.23871 Y10.46833
G01 X11.41230 Y10.45037
G01 X11.44768 Y10.45037
G01 X11.62126 Y10.46833
G01 X11.78852 Y10.51817
G01 X11.82121 Y10.53170
G01 X11.95951 Y10.60564
G01 X11.98895 Y10.62530
G01 X12.12329 Y10.73668
G01 X12.24524 Y10.88525
G01 X12.32827 Y11.03876
G01 X12.34181 Y11.07145
G01 X12.39164 Y11.23871
G01 X12.40960 Y11.41230
G01 X12.40960 Y11.44768
G01 X12.39164 Y11.62126
G01 X12.34181 Y11.78852
G01 X12.32827 Y11.82121
G01 X12.25433 Y11.95951
G01 X12.23467 Y11.98895
G01 X12.13521 Y12.11019
G01 X12.11019 Y12.13521
G01 X11.97473 Y12.24524
G01 X11.82121 Y12.32827
G01 X11.78852 Y12.34181
G01 X11.62126 Y12.39164
G01 X11.44768 Y12.40960
G01 X11.41230 Y12.40960
G01 X11.23871 Y12.39164
G01 X11.07145 Y12.34181
G01 X11.03876 Y12.32827
G01 X10.88525 Y12.24524
G01 X10.73668 Y12.12329
G01 X10.61474 Y11.97473
G01 X10.55530 Y11.86538
G01 X10.55535 Y11.42263
G01 X10.57181 Y11.25929
G01 X10.62159 Y11.09515
G01 X10.69866 Y10.95017
G01 X10.80633 Y10.81672
G01 X10.95017 Y10.69866
G01 X11.10206 Y10.61910
G01 X11.25929 Y10.57181
G01 X11.42263 Y10.55535
G01 X11.60069 Y10.57181
G01 X11.76482 Y10.62159
G01 X11.90981 Y10.69866
G01 X12.04326 Y10.80633
G01 X12.16132 Y10.95017
G01 X12.23838 Y11.09515
G01 X12.28926 Y11.26658
G01 X12.30462 Y11.43734
G01 X12.28816 Y11.60069
G01 X12.23838 Y11.76482
G01 X12.15314 Y11.92202
G01 X12.04326 Y12.05365
G01 X11.90981 Y12.16132
G01 X11.76482 Y12.23838
G01 X11.60069 Y12.28816
G01 X11.43734 Y12.30462
G01 X11.25929 Y12.28816
G01 X11.09515 Y12.23838
G01 X10.95017 Y12.16132
G01 X10.81672 Y12.05365
G01 X10.69866 Y11.90981
G01 X10.62159 Y11.76482
G01 X10.57359 Y11.60783
G01 X10.55535 Y11.42263
G01 X10.13541 Y11.38128
G01 X5.45630 Y11.37722
G01 X5.45640 Y11.48273
G01 X5.12864 Y11.48273
G01 X4.95165 Y11.58004
G01 X4.78368 Y11.71478
G01 X4.71480 Y11.78367
G01 X4.58003 Y11.95167
G01 X4.47642 Y12.14044
G01 X4.43913 Y12.23046
G01 X4.39077 Y12.38989
G01 X4.37175 Y12.48545
G01 X4.35541 Y12.65128
G01 X4.35541 Y12.74867
G01 X4.56540 Y12.72799
G01 X4.56540 Y12.67196
G01 X4.58584 Y12.47836
G01 X4.64104 Y12.29169
G01 X4.66247 Y12.23990
G01 X4.75546 Y12.06886
G01 X4.87789 Y11.91753
G01 X4.91752 Y11.87788
G01 X5.04632 Y11.77216
G01 X5.09295 Y11.74102
G01 X5.23989 Y11.66249
G01 X5.29168 Y11.64102
G01 X5.45114 Y11.59266
G01 X5.50614 Y11.58171
G01 X5.69999 Y11.56401
G01 X7.02803 Y11.56538
G01 X7.22160 Y11.58583
G01 X7.40829 Y11.64102
G01 X7.46008 Y11.66249
G01 X7.63110 Y11.75545
G01 X7.78246 Y11.87788
G01 X7.82208 Y11.91753
G01 X7.94451 Y12.06886
G01 X8.03750 Y12.23990
G01 X8.05894 Y12.29169
G01 X8.10732 Y12.45116
G01 X8.11825 Y12.50612
G01 X8.13598 Y12.70000
G01 X8.11825 Y12.89385
G01 X8.10732 Y12.94882
G01 X8.04949 Y13.13467
G01 X7.95894 Y13.30703
G01 X7.92780 Y13.35364
G01 X7.82208 Y13.48245
G01 X7.78246 Y13.52210
G01 X7.65365 Y13.62781
G01 X7.60702 Y13.65895
G01 X7.46008 Y13.73749
G01 X7.40829 Y13.75895
G01 X7.22160 Y13.81415
G01 X6.99999 Y13.83596
G01 X5.69999 Y13.83596
G01 X5.50614 Y13.81826
G01 X5.45114 Y13.80731
G01 X5.29168 Y13.75895
G01 X5.23989 Y13.73749
G01 X5.09295 Y13.65895
G01 X5.04632 Y13.62781
G01 X4.89674 Y13.50325
G01 X4.75546 Y13.33111
G01 X4.66247 Y13.16007
G01 X4.64104 Y13.10828
G01 X4.58584 Y12.92161
G01 X4.56540 Y12.72799
G01 X4.67037 Y12.71768
G01 X4.67037 Y12.68230
G01 X4.68671 Y12.51646
G01 X4.69359 Y12.48176
G01 X4.74198 Y12.32230
G01 X4.75551 Y12.28961
G01 X4.83405 Y12.14267
G01 X4.85371 Y12.11326
G01 X4.95943 Y11.98446
G01 X4.98445 Y11.95944
G01 X5.11325 Y11.85372
G01 X5.14266 Y11.83406
G01 X5.28963 Y11.75550
G01 X5.32232 Y11.74196
G01 X5.49895 Y11.68931
G01 X5.69999 Y11.66950
G01 X6.99999 Y11.66950
G01 X7.18350 Y11.68669
G01 X7.21820 Y11.69360
G01 X7.37766 Y11.74196
G01 X7.41035 Y11.75550
G01 X7.55731 Y11.83406
G01 X7.58673 Y11.85372
G01 X7.71553 Y11.95944
G01 X7.74055 Y11.98446
G01 X7.85680 Y12.12748
G01 X7.94446 Y12.28961
G01 X7.95800 Y12.32230
G01 X8.00638 Y12.48176
G01 X8.01327 Y12.51646
G01 X8.03049 Y12.70000
G01 X8.01068 Y12.90102
G01 X7.95203 Y13.09433
G01 X7.86592 Y13.25730
G01 X7.84626 Y13.28671
G01 X7.74055 Y13.41552
G01 X7.71553 Y13.44054
G01 X7.57250 Y13.55682
G01 X7.41035 Y13.64447
G01 X7.37766 Y13.65801
G01 X7.20103 Y13.71067
G01 X6.99999 Y13.73048
G01 X5.69999 Y13.73048
G01 X5.51647 Y13.71328
G01 X5.48178 Y13.70637
G01 X5.32232 Y13.65801
G01 X5.28963 Y13.64447
G01 X5.14266 Y13.56591
G01 X5.11325 Y13.54625
G01 X4.97131 Y13.42865
G01 X4.85371 Y13.28671
G01 X4.83405 Y13.25730
G01 X4.75551 Y13.11034
G01 X4.74198 Y13.07767
G01 X4.69359 Y12.91821
G01 X4.68671 Y12.88352
G01 X4.67037 Y12.71768
G01 X4.77500 Y12.70000
G01 X4.79275 Y12.51953
G01 X4.84292 Y12.35293
G01 X4.93088 Y12.18608
G01 X5.04096 Y12.05136
G01 X5.18018 Y11.93526
G01 X5.34601 Y11.84539
G01 X5.51952 Y11.79276
G01 X5.69999 Y11.77498
G01 X6.99999 Y11.77498
G01 X7.18045 Y11.79276
G01 X7.34705 Y11.84293
G01 X7.50758 Y11.92710
G01 X7.65901 Y12.05136
G01 X7.76910 Y12.18608
G01 X7.85706 Y12.35293
G01 X7.90722 Y12.51953
G01 X7.92462 Y12.69263
G01 X7.90542 Y12.88758
G01 X7.85457 Y13.05395
G01 X7.77288 Y13.20757
G01 X7.65406 Y13.35405
G01 X7.51980 Y13.46472
G01 X7.34705 Y13.55705
G01 X7.18045 Y13.60721
G01 X6.99999 Y13.62499
G01 X5.69999 Y13.62499
G01 X5.51238 Y13.60543
G01 X5.33936 Y13.55143
G01 X5.18610 Y13.46909
G01 X5.05137 Y13.35900
G01 X4.93527 Y13.21979
G01 X4.84292 Y13.04704
G01 X4.79275 Y12.88044
G01 X4.77500 Y12.70000
G01 X4.67037 Y12.71768
G01 X4.35541 Y12.74867
G01 X4.37175 Y12.91450
G01 X4.39077 Y13.01008
G01 X4.45557 Y13.21544
G01 X4.55496 Y13.40648
G01 X4.60908 Y13.48748
G01 X4.71480 Y13.61630
G01 X4.78368 Y13.68519
G01 X4.95165 Y13.81994
G01 X5.14045 Y13.92357
G01 X5.23044 Y13.96086
G01 X5.38991 Y14.00922
G01 X5.48546 Y14.02822
G01 X5.69999 Y14.04694
G01 X6.99999 Y14.04694
G01 X7.26277 Y14.02105
G01 X7.46953 Y13.96086
G01 X7.55952 Y13.92357
G01 X7.74832 Y13.81994
G01 X7.91629 Y13.68519
G01 X7.98518 Y13.61630
G01 X8.09089 Y13.48748
G01 X8.14502 Y13.40648
G01 X8.24441 Y13.21544
G01 X8.30920 Y13.01008
G01 X8.32823 Y12.91450
G01 X8.34456 Y12.74867
G01 X8.34456 Y12.65128
G01 X8.32823 Y12.48545
G01 X8.30920 Y12.38989
G01 X8.26084 Y12.23046
G01 X8.22355 Y12.14044
G01 X8.11995 Y11.95167
G01 X7.98518 Y11.78367
G01 X7.91629 Y11.71478
G01 X7.78749 Y11.60910
G01 X7.70649 Y11.55497
G01 X7.57133 Y11.48273
G01 X5.45640 Y11.48273
G01 X5.26108 Y11.54008
G01 X5.19016 Y11.56945
G01 X5.01028 Y11.66774
G01 X4.85061 Y11.79634
G01 X4.79633 Y11.85060
G01 X4.66773 Y12.01026
G01 X4.56943 Y12.19017
G01 X4.54007 Y12.26106
G01 X4.49171 Y12.42052
G01 X4.47672 Y12.49578
G01 X4.45851 Y12.70000
G01 X4.47672 Y12.90419
G01 X4.49171 Y12.97943
G01 X4.54007 Y13.13889
G01 X4.56943 Y13.20978
G01 X4.64800 Y13.35677
G01 X4.69062 Y13.42057
G01 X4.82214 Y13.57785
G01 X4.97942 Y13.70935
G01 X5.04322 Y13.75199
G01 X5.19016 Y13.83053
G01 X5.26108 Y13.85989
G01 X5.42051 Y13.90828
G01 X5.49580 Y13.92324
G01 X5.69999 Y13.94145
G01 X6.99999 Y13.94145
G01 X7.20418 Y13.92324
G01 X7.27946 Y13.90828
G01 X7.43890 Y13.85989
G01 X7.50981 Y13.83053
G01 X7.68970 Y13.73223
G01 X7.87784 Y13.57785
G01 X8.00936 Y13.42057
G01 X8.05198 Y13.35677
G01 X8.13054 Y13.20978
G01 X8.15990 Y13.13889
G01 X8.20826 Y12.97943
G01 X8.22325 Y12.90419
G01 X8.24146 Y12.70000
G01 X8.22325 Y12.49578
G01 X8.20826 Y12.42052
G01 X8.15990 Y12.26106
G01 X8.13054 Y12.19017
G01 X8.03224 Y12.01026
G01 X7.90364 Y11.85060
G01 X7.84936 Y11.79634
G01 X7.68970 Y11.66774
G01 X7.50981 Y11.56945
G01 X7.43890 Y11.54008
G01 X7.24357 Y11.48273
G01 X5.45640 Y11.48273
G01 X5.45630 Y11.37722
G01 X5.12859 Y11.37724
G01 X4.99349 Y11.30501
G01 X4.91249 Y11.25088
G01 X4.78368 Y11.14519
G01 X4.71480 Y11.07630
G01 X4.60908 Y10.94748
G01 X4.55496 Y10.86648
G01 X4.47642 Y10.71954
G01 X4.43913 Y10.62952
G01 X4.39077 Y10.47008
G01 X4.37175 Y10.37453
G01 X4.35541 Y10.20869
G01 X4.35541 Y10.11128
G01 X4.56540 Y10.13196
G01 X4.56540 Y10.18802
G01 X4.58173 Y10.35385
G01 X4.59265 Y10.40882
G01 X4.65049 Y10.59470
G01 X4.74104 Y10.76703
G01 X4.77218 Y10.81364
G01 X4.89674 Y10.96325
G01 X5.04632 Y11.08781
G01 X5.09295 Y11.11895
G01 X5.23989 Y11.19749
G01 X5.29168 Y11.21895
G01 X5.47837 Y11.27415
G01 X5.69999 Y11.29596
G01 X6.99999 Y11.29596
G01 X7.22160 Y11.27415
G01 X7.40829 Y11.21895
G01 X7.46008 Y11.19749
G01 X7.63110 Y11.10452
G01 X7.78246 Y10.98210
G01 X7.82208 Y10.94245
G01 X7.94451 Y10.79111
G01 X8.03750 Y10.62007
G01 X8.05894 Y10.56828
G01 X8.10732 Y10.40882
G01 X8.11825 Y10.35385
G01 X8.13598 Y10.16000
G01 X8.11825 Y9.96612
G01 X8.10732 Y9.91116
G01 X8.05894 Y9.75169
G01 X8.03750 Y9.69990
G01 X7.95894 Y9.55294
G01 X7.92780 Y9.50633
G01 X7.82208 Y9.37753
G01 X7.78246 Y9.33788
G01 X7.63110 Y9.21545
G01 X7.46008 Y9.12249
G01 X7.40829 Y9.10102
G01 X7.24883 Y9.05266
G01 X7.19384 Y9.04171
G01 X6.99999 Y9.02401
G01 X5.67195 Y9.02538
G01 X5.47837 Y9.04583
G01 X5.29168 Y9.10102
G01 X5.23989 Y9.12249
G01 X5.06887 Y9.21545
G01 X4.91752 Y9.33788
G01 X4.87789 Y9.37753
G01 X4.77218 Y9.50633
G01 X4.74104 Y9.55294
G01 X4.66247 Y9.69990
G01 X4.64104 Y9.75169
G01 X4.59265 Y9.91116
G01 X4.58173 Y9.96612
G01 X4.56540 Y10.13196
G01 X4.67037 Y10.14230
G01 X4.67037 Y10.17768
G01 X4.68671 Y10.34352
G01 X4.69359 Y10.37821
G01 X4.74795 Y10.55433
G01 X4.83405 Y10.71730
G01 X4.85371 Y10.74671
G01 X4.95943 Y10.87552
G01 X4.98445 Y10.90054
G01 X5.11325 Y11.00625
G01 X5.14266 Y11.02591
G01 X5.28963 Y11.10447
G01 X5.32232 Y11.11801
G01 X5.49895 Y11.17067
G01 X5.69999 Y11.19048
G01 X6.99999 Y11.19048
G01 X7.20103 Y11.17067
G01 X7.37766 Y11.11801
G01 X7.41035 Y11.10447
G01 X7.57250 Y11.01682
G01 X7.71553 Y10.90054
G01 X7.74055 Y10.87552
G01 X7.84626 Y10.74671
G01 X7.86592 Y10.71730
G01 X7.94446 Y10.57036
G01 X7.95800 Y10.53767
G01 X8.00638 Y10.37821
G01 X8.01327 Y10.34352
G01 X8.03049 Y10.16000
G01 X8.01327 Y9.97646
G01 X8.00638 Y9.94176
G01 X7.95800 Y9.78230
G01 X7.94446 Y9.74961
G01 X7.85680 Y9.58748
G01 X7.74055 Y9.44446
G01 X7.71553 Y9.41944
G01 X7.58673 Y9.31372
G01 X7.55731 Y9.29406
G01 X7.41035 Y9.21550
G01 X7.37766 Y9.20196
G01 X7.21820 Y9.15360
G01 X7.18350 Y9.14669
G01 X6.99999 Y9.12950
G01 X5.69999 Y9.12950
G01 X5.49895 Y9.14931
G01 X5.32232 Y9.20196
G01 X5.28963 Y9.21550
G01 X5.14266 Y9.29406
G01 X5.11325 Y9.31372
G01 X4.98445 Y9.41944
G01 X4.95943 Y9.44446
G01 X4.84317 Y9.58748
G01 X4.75551 Y9.74961
G01 X4.74198 Y9.78230
G01 X4.68930 Y9.95896
G01 X4.67037 Y10.14230
G01 X4.77535 Y10.15263
G01 X4.79275 Y10.34044
G01 X4.84292 Y10.50704
G01 X4.93527 Y10.67981
G01 X5.04591 Y10.81405
G01 X5.18018 Y10.92472
G01 X5.34601 Y11.01458
G01 X5.51952 Y11.06721
G01 X5.69999 Y11.08499
G01 X6.99999 Y11.08499
G01 X7.18045 Y11.06721
G01 X7.34705 Y11.01705
G01 X7.51980 Y10.92472
G01 X7.65901 Y10.80861
G01 X7.76910 Y10.67389
G01 X7.85142 Y10.52063
G01 X7.90542 Y10.34758
G01 X7.92462 Y10.15263
G01 X7.90722 Y9.97953
G01 X7.85142 Y9.79935
G01 X7.76910 Y9.64608
G01 X7.64860 Y9.50097
G01 X7.51388 Y9.39089
G01 X7.34705 Y9.30293
G01 X7.18045 Y9.25276
G01 X6.99999 Y9.23498
G01 X5.69999 Y9.23498
G01 X5.51952 Y9.25276
G01 X5.35292 Y9.30293
G01 X5.18018 Y9.39526
G01 X5.04096 Y9.51136
G01 X4.93088 Y9.64608
G01 X4.84292 Y9.81293
G01 X4.79275 Y9.97953
G01 X4.77535 Y10.15263
G01 X4.35541 Y10.11128
G01 X4.37891 Y9.89721
G01 X4.43913 Y9.69046
G01 X4.47642 Y9.60044
G01 X4.58003 Y9.41167
G01 X4.71480 Y9.24367
G01 X4.78368 Y9.17478
G01 X4.91249 Y9.06910
G01 X4.99349 Y9.01497
G01 X5.14045 Y8.93641
G01 X5.23044 Y8.89912
G01 X5.43720 Y8.83892
G01 X5.69999 Y8.81304
G01 X6.99999 Y8.81304
G01 X7.26277 Y8.83892
G01 X7.46953 Y8.89912
G01 X7.55952 Y8.93641
G01 X7.70649 Y9.01497
G01 X7.78749 Y9.06910
G01 X7.91629 Y9.17478
G01 X7.98518 Y9.24367
G01 X8.11995 Y9.41167
G01 X8.22355 Y9.60044
G01 X8.26084 Y9.69046
G01 X8.30920 Y9.84989
G01 X8.32823 Y9.94545
G01 X8.34456 Y10.11128
G01 X8.34456 Y10.20869
G01 X8.32823 Y10.37453
G01 X8.30920 Y10.47008
G01 X8.26084 Y10.62952
G01 X8.22355 Y10.71954
G01 X8.11995 Y10.90831
G01 X7.98518 Y11.07630
G01 X7.91629 Y11.14519
G01 X7.74832 Y11.27994
G01 X7.57138 Y11.37722
G01 X5.45630 Y11.37722
G01 X5.26108 Y11.31989
G01 X5.19016 Y11.29053
G01 X5.04322 Y11.21199
G01 X4.97942 Y11.16935
G01 X4.82214 Y11.03785
G01 X4.69062 Y10.88057
G01 X4.64800 Y10.81677
G01 X4.56943 Y10.66980
G01 X4.54007 Y10.59891
G01 X4.49171 Y10.43945
G01 X4.47672 Y10.36419
G01 X4.45851 Y10.16000
G01 X4.47672 Y9.95578
G01 X4.49171 Y9.88052
G01 X4.54007 Y9.72106
G01 X4.56943 Y9.65017
G01 X4.64800 Y9.50321
G01 X4.69062 Y9.43940
G01 X4.79633 Y9.31060
G01 X4.85061 Y9.25634
G01 X5.01028 Y9.12774
G01 X5.19016 Y9.02945
G01 X5.26108 Y9.00008
G01 X5.42051 Y8.95170
G01 X5.49580 Y8.93674
G01 X5.69999 Y8.91852
G01 X6.99999 Y8.91852
G01 X7.24218 Y8.94237
G01 X7.43890 Y9.00008
G01 X7.50981 Y9.02945
G01 X7.68970 Y9.12774
G01 X7.84936 Y9.25634
G01 X7.90364 Y9.31060
G01 X8.00936 Y9.43940
G01 X8.05198 Y9.50321
G01 X8.13054 Y9.65017
G01 X8.15990 Y9.72106
G01 X8.20826 Y9.88052
G01 X8.22325 Y9.95578
G01 X8.24146 Y10.16000
G01 X8.22325 Y10.36419
G01 X8.20826 Y10.43945
G01 X8.15990 Y10.59891
G01 X8.13054 Y10.66980
G01 X8.03224 Y10.84971
G01 X7.90364 Y11.00938
G01 X7.84936 Y11.06363
G01 X7.68970 Y11.19223
G01 X7.50981 Y11.29053
G01 X7.43890 Y11.31989
G01 X7.24367 Y11.37722
G01 X10.25588 Y10.66432
G01 X10.41865 Y9.69599
G01 X10.35162 Y9.61055
G01 X10.32652 Y9.56871
G01 X10.25261 Y9.43041
G01 X10.21532 Y9.34039
G01 X10.15794 Y9.14301
G01 X10.13541 Y8.93869
G01 X10.13541 Y8.84128
G01 X10.24042 Y8.85162
G01 X10.24042 Y8.92835
G01 X10.26142 Y9.12244
G01 X10.31626 Y9.30976
G01 X10.34565 Y9.38068
G01 X10.41956 Y9.51898
G01 X10.46221 Y9.58278
G01 X10.56170 Y9.70402
G01 X10.61596 Y9.75827
G01 X10.73719 Y9.85777
G01 X10.80099 Y9.90041
G01 X10.93930 Y9.97433
G01 X11.01021 Y10.00371
G01 X11.16028 Y10.04923
G01 X11.23554 Y10.06419
G01 X11.43000 Y10.08146
G01 X11.66244 Y10.05855
G01 X11.84976 Y10.00371
G01 X11.92068 Y9.97433
G01 X12.05898 Y9.90041
G01 X12.12278 Y9.85777
G01 X12.24402 Y9.75827
G01 X12.29827 Y9.70402
G01 X12.39777 Y9.58278
G01 X12.44041 Y9.51898
G01 X12.51433 Y9.38068
G01 X12.54371 Y9.30976
G01 X12.59855 Y9.12244
G01 X12.61956 Y8.92835
G01 X12.61956 Y8.85162
G01 X12.60419 Y8.69554
G01 X12.58923 Y8.62028
G01 X12.54371 Y8.47021
G01 X12.51433 Y8.39930
G01 X12.44041 Y8.26099
G01 X12.39777 Y8.19719
G01 X12.29827 Y8.07596
G01 X12.24402 Y8.02170
G01 X12.12278 Y7.92221
G01 X12.05898 Y7.87956
G01 X11.92068 Y7.80565
G01 X11.84976 Y7.77626
G01 X11.66244 Y7.72142
G01 X11.43000 Y7.69851
G01 X11.23554 Y7.71578
G01 X11.16028 Y7.73074
G01 X11.01021 Y7.77626
G01 X10.93930 Y7.80565
G01 X10.80099 Y7.87956
G01 X10.73719 Y7.92221
G01 X10.61596 Y8.02170
G01 X10.56170 Y8.07596
G01 X10.46221 Y8.19719
G01 X10.41956 Y8.26099
G01 X10.34565 Y8.39930
G01 X10.31626 Y8.47021
G01 X10.27074 Y8.62028
G01 X10.25578 Y8.69554
G01 X10.24042 Y8.85162
G01 X10.34539 Y8.86196
G01 X10.34539 Y8.91802
G01 X10.36076 Y9.07410
G01 X10.37168 Y9.12906
G01 X10.42667 Y9.30557
G01 X10.52703 Y9.49333
G01 X10.64323 Y9.63709
G01 X10.68288 Y9.67674
G01 X10.82665 Y9.79294
G01 X11.01441 Y9.89330
G01 X11.19091 Y9.94829
G01 X11.24588 Y9.95921
G01 X11.40196 Y9.97458
G01 X11.45802 Y9.97458
G01 X11.64186 Y9.95510
G01 X11.84557 Y9.89330
G01 X12.00925 Y9.80737
G01 X12.05586 Y9.77623
G01 X12.17709 Y9.67674
G01 X12.21674 Y9.63709
G01 X12.33294 Y9.49333
G01 X12.42131 Y9.33094
G01 X12.44275 Y9.27915
G01 X12.49510 Y9.10186
G01 X12.51458 Y8.91802
G01 X12.51458 Y8.86196
G01 X12.49510 Y8.67811
G01 X12.44275 Y8.50082
G01 X12.42131 Y8.44903
G01 X12.33294 Y8.28665
G01 X12.21674 Y8.14288
G01 X12.17709 Y8.10323
G01 X12.03333 Y7.98703
G01 X11.87094 Y7.89866
G01 X11.81915 Y7.87723
G01 X11.66906 Y7.83168
G01 X11.61410 Y7.82076
G01 X11.45802 Y7.80539
G01 X11.40196 Y7.80539
G01 X11.24588 Y7.82076
G01 X11.19091 Y7.83168
G01 X11.01441 Y7.88667
G01 X10.85073 Y7.97260
G01 X10.80412 Y8.00374
G01 X10.68288 Y8.10323
G01 X10.64323 Y8.14288
G01 X10.52703 Y8.28665
G01 X10.47402 Y8.38284
G01 X10.42667 Y8.47441
G01 X10.37168 Y8.65091
G01 X10.36076 Y8.70588
G01 X10.34539 Y8.86196
G01 X10.45037 Y8.87230
G01 X10.45037 Y8.90768
G01 X10.46833 Y9.08126
G01 X10.51817 Y9.24852
G01 X10.53170 Y9.28121
G01 X10.61474 Y9.43473
G01 X10.73668 Y9.58329
G01 X10.88525 Y9.70524
G01 X11.03876 Y9.78827
G01 X11.07145 Y9.80181
G01 X11.23871 Y9.85164
G01 X11.41230 Y9.86960
G01 X11.44768 Y9.86960
G01 X11.62126 Y9.85164
G01 X11.78852 Y9.80181
G01 X11.82121 Y9.78827
G01 X11.97473 Y9.70524
G01 X12.11019 Y9.59521
G01 X12.13521 Y9.57019
G01 X12.24524 Y9.43473
G01 X12.32827 Y9.28121
G01 X12.34181 Y9.24852
G01 X12.38733 Y9.09846
G01 X12.39423 Y9.06376
G01 X12.40960 Y8.90768
G01 X12.40960 Y8.87230
G01 X12.39164 Y8.69871
G01 X12.34181 Y8.53145
G01 X12.32827 Y8.49876
G01 X12.24524 Y8.34525
G01 X12.12329 Y8.19668
G01 X11.97473 Y8.07474
G01 X11.82121 Y7.99170
G01 X11.78852 Y7.97817
G01 X11.63846 Y7.93265
G01 X11.60376 Y7.92574
G01 X11.44768 Y7.91037
G01 X11.41230 Y7.91037
G01 X11.25621 Y7.92574
G01 X11.22152 Y7.93265
G01 X11.07145 Y7.97817
G01 X11.03876 Y7.99170
G01 X10.88525 Y8.07474
G01 X10.73668 Y8.19668
G01 X10.62530 Y8.33102
G01 X10.60564 Y8.36046
G01 X10.53170 Y8.49876
G01 X10.51817 Y8.53145
G01 X10.47265 Y8.68152
G01 X10.46574 Y8.71621
G01 X10.45037 Y8.87230
G01 X10.55535 Y8.88263
G01 X10.13541 Y8.84128
G01 X10.15794 Y8.63697
G01 X10.21532 Y8.43958
G01 X10.25261 Y8.34956
G01 X10.35162 Y8.16943
G01 X10.48014 Y8.00903
G01 X10.54903 Y7.94014
G01 X10.67026 Y7.84065
G01 X10.75126 Y7.78652
G01 X10.88956 Y7.71261
G01 X10.97958 Y7.67532
G01 X10.98817 Y7.67273
G01 X11.87181 Y7.67273
G01 X11.88039 Y7.67532
G01 X11.97041 Y7.71261
G01 X12.10871 Y7.78652
G01 X12.18971 Y7.84065
G01 X12.31095 Y7.94014
G01 X12.37983 Y8.00903
G01 X12.47932 Y8.13026
G01 X12.53345 Y8.21126
G01 X12.60737 Y8.34956
G01 X12.64465 Y8.43958
G01 X12.70201 Y8.63697
G01 X12.72695 Y8.89000
G01 X12.70201 Y9.14301
G01 X12.64465 Y9.34039
G01 X12.60737 Y9.43041
G01 X12.50836 Y9.61055
G01 X12.37983 Y9.77095
G01 X12.31095 Y9.83983
G01 X12.18971 Y9.93932
G01 X12.10871 Y9.99345
G01 X11.97041 Y10.06737
G01 X11.87188 Y10.10722
G01 X10.98809 Y10.10722
G01 X10.88956 Y10.06737
G01 X10.70943 Y9.96836
G01 X10.54903 Y9.83983
G01 X10.48014 Y9.77095
G01 X10.41865 Y9.69599
G01 X10.55535 Y8.88263
G01 X10.57181 Y8.71929
G01 X10.62159 Y8.55515
G01 X10.69866 Y8.41017
G01 X10.80633 Y8.27672
G01 X10.93795 Y8.16684
G01 X11.09515 Y8.08159
G01 X11.25929 Y8.03181
G01 X11.43734 Y8.01535
G01 X11.60069 Y8.03181
G01 X11.75791 Y8.07911
G01 X11.90981 Y8.15866
G01 X12.04326 Y8.26633
G01 X12.16132 Y8.41017
G01 X12.24087 Y8.56206
G01 X12.28816 Y8.71929
G01 X12.30462 Y8.88263
G01 X12.28639 Y9.06783
G01 X12.23838 Y9.22482
G01 X12.16132 Y9.36981
G01 X12.04326 Y9.51365
G01 X11.90981 Y9.62132
G01 X11.76482 Y9.69838
G01 X11.59340 Y9.74926
G01 X11.42263 Y9.76462
G01 X11.25929 Y9.74816
G01 X11.09515 Y9.69838
G01 X10.95017 Y9.62132
G01 X10.80633 Y9.50326
G01 X10.69866 Y9.36981
G01 X10.62474 Y9.23148
G01 X10.57181 Y9.06069
G01 X10.55535 Y8.88263
G01 X10.13541 Y6.30128
G01 X10.24042 Y6.31162
G01 X10.24042 Y6.38835
G01 X10.26142 Y6.58244
G01 X10.31626 Y6.76976
G01 X10.34565 Y6.84068
G01 X10.41956 Y6.97898
G01 X10.46221 Y7.04278
G01 X10.56170 Y7.16402
G01 X10.61596 Y7.21827
G01 X10.73719 Y7.31777
G01 X10.80099 Y7.36041
G01 X10.93930 Y7.43433
G01 X11.01021 Y7.46371
G01 X11.19754 Y7.51855
G01 X11.43000 Y7.54146
G01 X11.66244 Y7.51855
G01 X11.84976 Y7.46371
G01 X11.92068 Y7.43433
G01 X12.05898 Y7.36041
G01 X12.12278 Y7.31777
G01 X12.24402 Y7.21827
G01 X12.29827 Y7.16402
G01 X12.39777 Y7.04278
G01 X12.44041 Y6.97898
G01 X12.51433 Y6.84068
G01 X12.54371 Y6.76976
G01 X12.59855 Y6.58244
G01 X12.62146 Y6.35000
G01 X12.59855 Y6.11754
G01 X12.54371 Y5.93021
G01 X12.51433 Y5.85930
G01 X12.42065 Y5.68805
G01 X12.29827 Y5.53596
G01 X12.24402 Y5.48170
G01 X12.12278 Y5.38221
G01 X12.05898 Y5.33956
G01 X11.92068 Y5.26565
G01 X11.84976 Y5.23626
G01 X11.66244 Y5.18142
G01 X11.43000 Y5.15851
G01 X11.19754 Y5.18142
G01 X11.01021 Y5.23626
G01 X10.93930 Y5.26565
G01 X10.80099 Y5.33956
G01 X10.73719 Y5.38221
G01 X10.61596 Y5.48170
G01 X10.56170 Y5.53596
G01 X10.43932 Y5.68805
G01 X10.34565 Y5.85930
G01 X10.31626 Y5.93021
G01 X10.26142 Y6.11754
G01 X10.24042 Y6.31162
G01 X10.34539 Y6.32196
G01 X10.34539 Y6.37802
G01 X10.36076 Y6.53407
G01 X10.37168 Y6.58904
G01 X10.42667 Y6.76557
G01 X10.51260 Y6.92925
G01 X10.54374 Y6.97586
G01 X10.64323 Y7.09709
G01 X10.68288 Y7.13674
G01 X10.80412 Y7.23623
G01 X10.85073 Y7.26737
G01 X11.01441 Y7.35330
G01 X11.19091 Y7.40829
G01 X11.24588 Y7.41921
G01 X11.40196 Y7.43458
G01 X11.45802 Y7.43458
G01 X11.64186 Y7.41510
G01 X11.81915 Y7.36275
G01 X11.87094 Y7.34131
G01 X12.03333 Y7.25294
G01 X12.17709 Y7.13674
G01 X12.21674 Y7.09709
G01 X12.33294 Y6.95333
G01 X12.42131 Y6.79094
G01 X12.44275 Y6.73915
G01 X12.49510 Y6.56186
G01 X12.51458 Y6.37802
G01 X12.51458 Y6.32196
G01 X12.49510 Y6.13811
G01 X12.44275 Y5.96082
G01 X12.42131 Y5.90903
G01 X12.33294 Y5.74665
G01 X12.21674 Y5.60288
G01 X12.17709 Y5.56323
G01 X12.03333 Y5.44703
G01 X11.84557 Y5.34667
G01 X11.64186 Y5.28488
G01 X11.45802 Y5.26539
G01 X11.40196 Y5.26539
G01 X11.24588 Y5.28076
G01 X11.19091 Y5.29168
G01 X11.01441 Y5.34667
G01 X10.85073 Y5.43260
G01 X10.80412 Y5.46374
G01 X10.66208 Y5.58208
G01 X10.54374 Y5.72412
G01 X10.51260 Y5.77073
G01 X10.43866 Y5.90903
G01 X10.41723 Y5.96082
G01 X10.37168 Y6.11091
G01 X10.36076 Y6.16588
G01 X10.34539 Y6.32196
G01 X10.45037 Y6.33230
G01 X10.45037 Y6.36765
G01 X10.46833 Y6.54124
G01 X10.51817 Y6.70852
G01 X10.53170 Y6.74121
G01 X10.60564 Y6.87951
G01 X10.62530 Y6.90895
G01 X10.72477 Y7.03019
G01 X10.74979 Y7.05521
G01 X10.88525 Y7.16524
G01 X11.03876 Y7.24827
G01 X11.07145 Y7.26181
G01 X11.23871 Y7.31164
G01 X11.41230 Y7.32960
G01 X11.44768 Y7.32960
G01 X11.62126 Y7.31164
G01 X11.78852 Y7.26181
G01 X11.82121 Y7.24827
G01 X11.95951 Y7.17433
G01 X11.98895 Y7.15467
G01 X12.11019 Y7.05521
G01 X12.13521 Y7.03019
G01 X12.24524 Y6.89473
G01 X12.32827 Y6.74121
G01 X12.34181 Y6.70852
G01 X12.39164 Y6.54124
G01 X12.40960 Y6.36765
G01 X12.40960 Y6.33230
G01 X12.39423 Y6.17621
G01 X12.38733 Y6.14152
G01 X12.34181 Y5.99145
G01 X12.32827 Y5.95876
G01 X12.24524 Y5.80525
G01 X12.13521 Y5.66979
G01 X12.11019 Y5.64477
G01 X11.97473 Y5.53474
G01 X11.82121 Y5.45170
G01 X11.78852 Y5.43817
G01 X11.62126 Y5.38833
G01 X11.44768 Y5.37037
G01 X11.41230 Y5.37037
G01 X11.23871 Y5.38833
G01 X11.07145 Y5.43817
G01 X11.03876 Y5.45170
G01 X10.90046 Y5.52564
G01 X10.87102 Y5.54530
G01 X10.73668 Y5.65668
G01 X10.62530 Y5.79102
G01 X10.60564 Y5.82046
G01 X10.53170 Y5.95876
G01 X10.51817 Y5.99145
G01 X10.46833 Y6.15871
G01 X10.45037 Y6.33230
G01 X10.55535 Y6.34263
G01 X10.57359 Y6.52780
G01 X10.62159 Y6.68482
G01 X10.69866 Y6.82981
G01 X10.80633 Y6.96326
G01 X10.95017 Y7.08132
G01 X11.10206 Y7.16087
G01 X11.25929 Y7.20816
G01 X11.42263 Y7.22462
G01 X11.60069 Y7.20816
G01 X11.77148 Y7.15523
G01 X11.90981 Y7.08132
G01 X12.04326 Y6.97365
G01 X12.16132 Y6.82981
G01 X12.24087 Y6.67791
G01 X12.28816 Y6.52069
G01 X12.30462 Y6.35732
G01 X12.28639 Y6.17215
G01 X12.23838 Y6.01515
G01 X12.15753 Y5.86387
G01 X12.04326 Y5.72633
G01 X11.90981 Y5.61866
G01 X11.77148 Y5.54474
G01 X11.60069 Y5.49181
G01 X11.43734 Y5.47535
G01 X11.25929 Y5.49181
G01 X11.09515 Y5.54159
G01 X10.93795 Y5.62684
G01 X10.80633 Y5.73672
G01 X10.70244 Y5.86387
G01 X10.61910 Y6.02206
G01 X10.57072 Y6.18658
G01 X10.55535 Y6.34263
G01 X10.13541 Y6.30128
G01 X10.13541 Y3.76128
G01 X10.15794 Y3.55697
G01 X10.21532 Y3.35958
G01 X10.25261 Y3.26956
G01 X10.35162 Y3.08943
G01 X10.51291 Y2.89291
G01 X10.67026 Y2.76065
G01 X10.75126 Y2.70652
G01 X10.88956 Y2.63261
G01 X10.97958 Y2.59532
G01 X11.12964 Y2.54980
G01 X11.22520 Y2.53081
G01 X11.43000 Y2.51303
G01 X11.63477 Y2.53081
G01 X11.73033 Y2.54980
G01 X11.92632 Y2.61176
G01 X12.10871 Y2.70652
G01 X12.18971 Y2.76065
G01 X12.34707 Y2.89291
G01 X12.47932 Y3.05026
G01 X12.53345 Y3.13126
G01 X12.60737 Y3.26956
G01 X12.64465 Y3.35958
G01 X12.69017 Y3.50964
G01 X12.70914 Y3.60520
G01 X12.72456 Y3.76128
G01 X12.72456 Y3.85869
G01 X12.70201 Y4.06301
G01 X12.64465 Y4.26039
G01 X12.60737 Y4.35041
G01 X12.53345 Y4.48871
G01 X12.47932 Y4.56971
G01 X12.37983 Y4.69095
G01 X12.31095 Y4.75983
G01 X12.18971 Y4.85932
G01 X12.10871 Y4.91345
G01 X11.97041 Y4.98737
G01 X11.92632 Y5.00822
G01 X11.87188 Y5.02722
G01 X10.98809 Y5.02722
G01 X10.97958 Y5.02465
G01 X10.88956 Y4.98737
G01 X10.75126 Y4.91345
G01 X10.67026 Y4.85932
G01 X10.54903 Y4.75983
G01 X10.48014 Y4.69095
G01 X10.38065 Y4.56971
G01 X10.32652 Y4.48871
G01 X10.25261 Y4.35041
G01 X10.21532 Y4.26039
G01 X10.16980 Y4.11033
G01 X10.15081 Y4.01477
G01 X10.13541 Y3.85869
G01 X10.24042 Y3.84835
G01 X10.24042 Y3.77162
G01 X10.26142 Y3.57754
G01 X10.31626 Y3.39021
G01 X10.34565 Y3.31925
G01 X10.41956 Y3.18097
G01 X10.46221 Y3.11719
G01 X10.58748 Y2.96748
G01 X10.73719 Y2.84221
G01 X10.80099 Y2.79956
G01 X10.93930 Y2.72565
G01 X11.01021 Y2.69626
G01 X11.16028 Y2.65074
G01 X11.23554 Y2.63578
G01 X11.43000 Y2.61851
G01 X11.62444 Y2.63578
G01 X11.69970 Y2.65074
G01 X11.84976 Y2.69626
G01 X11.92068 Y2.72565
G01 X12.05898 Y2.79956
G01 X12.12278 Y2.84221
G01 X12.24402 Y2.94170
G01 X12.29827 Y2.99596
G01 X12.42065 Y3.14805
G01 X12.51433 Y3.31925
G01 X12.54371 Y3.39021
G01 X12.58923 Y3.54028
G01 X12.60419 Y3.61554
G01 X12.61956 Y3.77162
G01 X12.61956 Y3.84835
G01 X12.60419 Y4.00444
G01 X12.58923 Y4.07970
G01 X12.54371 Y4.22976
G01 X12.51433 Y4.30068
G01 X12.44041 Y4.43898
G01 X12.39777 Y4.50278
G01 X12.29827 Y4.62402
G01 X12.24402 Y4.67827
G01 X12.12278 Y4.77777
G01 X12.05898 Y4.82041
G01 X11.92068 Y4.89433
G01 X11.84976 Y4.92371
G01 X11.69970 Y4.96923
G01 X11.62444 Y4.98419
G01 X11.43000 Y5.00146
G01 X11.23554 Y4.98419
G01 X11.16028 Y4.96923
G01 X11.01021 Y4.92371
G01 X10.93930 Y4.89433
G01 X10.80099 Y4.82041
G01 X10.73719 Y4.77777
G01 X10.61596 Y4.67827
G01 X10.56170 Y4.62402
G01 X10.46221 Y4.50278
G01 X10.41956 Y4.43898
G01 X10.34565 Y4.30068
G01 X10.31626 Y4.22976
G01 X10.27074 Y4.07970
G01 X10.25578 Y4.00444
G01 X10.24042 Y3.84835
G01 X10.34539 Y3.83802
G01 X10.34539 Y3.78196
G01 X10.36076 Y3.62588
G01 X10.37168 Y3.57091
G01 X10.41723 Y3.42082
G01 X10.43866 Y3.36903
G01 X10.52703 Y3.20665
G01 X10.66208 Y3.04208
G01 X10.80412 Y2.92374
G01 X10.85073 Y2.89260
G01 X10.98903 Y2.81866
G01 X11.04082 Y2.79723
G01 X11.21811 Y2.74488
G01 X11.40196 Y2.72539
G01 X11.45802 Y2.72539
G01 X11.64186 Y2.74488
G01 X11.81915 Y2.79723
G01 X11.87094 Y2.81866
G01 X12.00925 Y2.89260
G01 X12.05586 Y2.92374
G01 X12.19789 Y3.04208
G01 X12.33294 Y3.20665
G01 X12.42131 Y3.36903
G01 X12.44275 Y3.42082
G01 X12.48829 Y3.57091
G01 X12.49921 Y3.62588
G01 X12.51458 Y3.78196
G01 X12.51458 Y3.83802
G01 X12.49510 Y4.02186
G01 X12.44275 Y4.19915
G01 X12.42131 Y4.25094
G01 X12.33294 Y4.41333
G01 X12.19789 Y4.57789
G01 X12.05586 Y4.69623
G01 X12.00925 Y4.72737
G01 X11.84557 Y4.81330
G01 X11.64186 Y4.87510
G01 X11.45802 Y4.89458
G01 X11.40196 Y4.89458
G01 X11.21811 Y4.87510
G01 X11.01441 Y4.81330
G01 X10.85073 Y4.72737
G01 X10.80412 Y4.69623
G01 X10.66208 Y4.57789
G01 X10.52703 Y4.41333
G01 X10.43866 Y4.25094
G01 X10.41723 Y4.19915
G01 X10.36488 Y4.02186
G01 X10.34539 Y3.83802
G01 X10.44951 Y3.81000
G01 X10.46833 Y3.61871
G01 X10.51817 Y3.45145
G01 X10.53170 Y3.41876
G01 X10.60564 Y3.28041
G01 X10.62530 Y3.25102
G01 X10.72477 Y3.12979
G01 X10.74979 Y3.10477
G01 X10.87102 Y3.00530
G01 X10.90046 Y2.98564
G01 X11.03876 Y2.91170
G01 X11.07145 Y2.89817
G01 X11.22152 Y2.85265
G01 X11.25621 Y2.84574
G01 X11.41230 Y2.83037
G01 X11.44768 Y2.83037
G01 X11.60376 Y2.84574
G01 X11.63846 Y2.85265
G01 X11.80521 Y2.90413
G01 X11.95951 Y2.98564
G01 X11.98895 Y3.00530
G01 X12.11019 Y3.10477
G01 X12.13521 Y3.12979
G01 X12.24524 Y3.26525
G01 X12.32827 Y3.41876
G01 X12.34181 Y3.45145
G01 X12.38733 Y3.60152
G01 X12.39423 Y3.63621
G01 X12.41047 Y3.81000
G01 X12.39423 Y3.98376
G01 X12.38733 Y4.01846
G01 X12.34181 Y4.16852
G01 X12.32827 Y4.20121
G01 X12.25433 Y4.33951
G01 X12.23467 Y4.36895
G01 X12.13521 Y4.49019
G01 X12.11019 Y4.51521
G01 X11.98895 Y4.61467
G01 X11.95951 Y4.63433
G01 X11.82121 Y4.70827
G01 X11.78852 Y4.72181
G01 X11.62126 Y4.77164
G01 X11.44768 Y4.78960
G01 X11.41230 Y4.78960
G01 X11.23871 Y4.77164
G01 X11.07145 Y4.72181
G01 X11.03876 Y4.70827
G01 X10.90046 Y4.63433
G01 X10.87102 Y4.61467
G01 X10.73668 Y4.50329
G01 X10.62530 Y4.36895
G01 X10.60564 Y4.33951
G01 X10.53170 Y4.20121
G01 X10.51817 Y4.16852
G01 X10.47265 Y4.01846
G01 X10.46574 Y3.98376
G01 X10.44951 Y3.81000
G01 X10.55500 Y3.81000
G01 X10.57072 Y3.97340
G01 X10.61910 Y4.13791
G01 X10.70684 Y4.30202
G01 X10.81672 Y4.43365
G01 X10.93795 Y4.53314
G01 X11.08850 Y4.61523
G01 X11.25929 Y4.66816
G01 X11.43734 Y4.68462
G01 X11.60069 Y4.66816
G01 X11.75791 Y4.62087
G01 X11.90981 Y4.54132
G01 X12.04326 Y4.43365
G01 X12.16132 Y4.28981
G01 X12.23838 Y4.14482
G01 X12.28639 Y3.98783
G01 X12.30462 Y3.80263
G01 X12.28926 Y3.64658
G01 X12.24087 Y3.48206
G01 X12.15753 Y3.32387
G01 X12.04326 Y3.18633
G01 X11.90981 Y3.07866
G01 X11.77148 Y3.00474
G01 X11.60069 Y2.95181
G01 X11.43734 Y2.93535
G01 X11.25929 Y2.95181
G01 X11.08850 Y3.00474
G01 X10.95017 Y3.07866
G01 X10.81672 Y3.18633
G01 X10.70244 Y3.32387
G01 X10.61910 Y3.48206
G01 X10.57072 Y3.64658
G01 X10.55500 Y3.81000
G01 X10.44951 Y3.81000
G01 X10.34539 Y3.83802
G01 X10.13541 Y3.85869
G01 X10.13541 Y6.39869
G01 X10.15794 Y6.60301
G01 X10.21532 Y6.80039
G01 X10.25261 Y6.89041
G01 X10.32652 Y7.02871
G01 X10.38065 Y7.10971
G01 X10.48014 Y7.23095
G01 X10.54903 Y7.29983
G01 X10.70943 Y7.42836
G01 X10.88956 Y7.52737
G01 X10.97958 Y7.56465
G01 X10.98809 Y7.56722
G01 X11.87188 Y7.56722
G01 X11.97041 Y7.52737
G01 X12.10871 Y7.45345
G01 X12.18971 Y7.39932
G01 X12.31095 Y7.29983
G01 X12.37983 Y7.23095
G01 X12.50836 Y7.07055
G01 X12.60737 Y6.89041
G01 X12.64465 Y6.80039
G01 X12.70201 Y6.60301
G01 X12.72456 Y6.39869
G01 X12.72456 Y6.30128
G01 X12.70914 Y6.14520
G01 X12.69017 Y6.04964
G01 X12.64465 Y5.89958
G01 X12.60737 Y5.80956
G01 X12.50836 Y5.62943
G01 X12.37983 Y5.46903
G01 X12.31095 Y5.40014
G01 X12.18971 Y5.30065
G01 X12.10871 Y5.24652
G01 X11.97041 Y5.17261
G01 X11.88039 Y5.13532
G01 X11.87181 Y5.13273
G01 X10.98817 Y5.13273
G01 X10.97958 Y5.13532
G01 X10.88956 Y5.17261
G01 X10.75126 Y5.24652
G01 X10.67026 Y5.30065
G01 X10.54903 Y5.40014
G01 X10.48014 Y5.46903
G01 X10.38065 Y5.59026
G01 X10.32652 Y5.67126
G01 X10.25261 Y5.80956
G01 X10.21532 Y5.89958
G01 X10.15794 Y6.09697
G01 X10.13541 Y6.30128
G01 X10.55535 Y8.88263
G01 X10.25588 Y10.66432
G01 X17.75303 Y8.89000
G01 X17.77081 Y8.68520
G01 X17.78980 Y8.58964
G01 X17.83532 Y8.43958
G01 X17.87261 Y8.34956
G01 X17.94652 Y8.21126
G01 X18.00065 Y8.13026
G01 X18.10014 Y8.00903
G01 X18.16903 Y7.94014
G01 X18.29026 Y7.84065
G01 X18.37126 Y7.78652
G01 X18.50956 Y7.71261
G01 X18.60817 Y7.67273
G01 X19.49181 Y7.67273
G01 X19.59041 Y7.71261
G01 X19.77055 Y7.81162
G01 X19.93095 Y7.94014
G01 X19.99983 Y8.00903
G01 X20.09932 Y8.13026
G01 X20.15345 Y8.21126
G01 X20.22737 Y8.34956
G01 X20.26465 Y8.43958
G01 X20.31017 Y8.58964
G01 X20.32917 Y8.68520
G01 X20.34456 Y8.84128
G01 X20.34456 Y8.93869
G01 X20.32917 Y9.09477
G01 X20.31017 Y9.19033
G01 X20.24822 Y9.38632
G01 X20.15345 Y9.56871
G01 X20.09932 Y9.64971
G01 X19.99983 Y9.77095
G01 X19.93095 Y9.83983
G01 X19.77055 Y9.96836
G01 X19.59041 Y10.06737
G01 X19.49188 Y10.10722
G01 X18.60809 Y10.10722
G01 X18.50956 Y10.06737
G01 X18.37126 Y9.99345
G01 X18.29026 Y9.93932
G01 X18.16903 Y9.83983
G01 X18.10014 Y9.77095
G01 X17.97162 Y9.61055
G01 X17.87261 Y9.43041
G01 X17.83532 Y9.34039
G01 X17.78980 Y9.19033
G01 X17.77081 Y9.09477
G01 X17.75303 Y8.89000
G01 X17.85851 Y8.89000
G01 X17.87578 Y8.69554
G01 X17.89074 Y8.62028
G01 X17.93626 Y8.47021
G01 X17.96565 Y8.39930
G01 X18.03956 Y8.26099
G01 X18.08221 Y8.19719
G01 X18.20748 Y8.04748
G01 X18.35719 Y7.92221
G01 X18.42099 Y7.87956
G01 X18.55930 Y7.80565
G01 X18.63021 Y7.77626
G01 X18.78028 Y7.73074
G01 X18.85554 Y7.71578
G01 X19.01162 Y7.70042
G01 X19.08835 Y7.70042
G01 X19.28244 Y7.72142
G01 X19.46976 Y7.77626
G01 X19.54068 Y7.80565
G01 X19.67898 Y7.87956
G01 X19.74279 Y7.92221
G01 X19.89249 Y8.04748
G01 X20.01777 Y8.19719
G01 X20.06041 Y8.26099
G01 X20.15076 Y8.43404
G01 X20.20923 Y8.62028
G01 X20.22419 Y8.69554
G01 X20.24146 Y8.89000
G01 X20.22419 Y9.08444
G01 X20.20923 Y9.15970
G01 X20.15076 Y9.34593
G01 X20.06041 Y9.51898
G01 X20.01777 Y9.58278
G01 X19.91827 Y9.70402
G01 X19.86402 Y9.75827
G01 X19.71192 Y9.88065
G01 X19.54068 Y9.97433
G01 X19.46976 Y10.00371
G01 X19.31970 Y10.04923
G01 X19.24444 Y10.06419
G01 X19.08835 Y10.07956
G01 X19.01162 Y10.07956
G01 X18.85554 Y10.06419
G01 X18.78028 Y10.04923
G01 X18.63021 Y10.00371
G01 X18.55930 Y9.97433
G01 X18.42099 Y9.90041
G01 X18.35719 Y9.85777
G01 X18.23596 Y9.75827
G01 X18.18170 Y9.70402
G01 X18.05932 Y9.55192
G01 X17.96565 Y9.38068
G01 X17.93626 Y9.30976
G01 X17.89074 Y9.15970
G01 X17.87578 Y9.08444
G01 X17.85851 Y8.89000
G01 X17.96400 Y8.89000
G01 X17.98076 Y8.70588
G01 X17.99168 Y8.65091
G01 X18.04667 Y8.47441
G01 X18.13260 Y8.31073
G01 X18.16374 Y8.26412
G01 X18.26323 Y8.14288
G01 X18.30288 Y8.10323
G01 X18.44665 Y7.98703
G01 X18.60903 Y7.89866
G01 X18.66082 Y7.87723
G01 X18.83811 Y7.82488
G01 X19.02196 Y7.80539
G01 X19.07802 Y7.80539
G01 X19.23410 Y7.82076
G01 X19.28906 Y7.83168
G01 X19.43915 Y7.87723
G01 X19.49094 Y7.89866
G01 X19.62925 Y7.97260
G01 X19.67586 Y8.00374
G01 X19.81789 Y8.12208
G01 X19.93623 Y8.26412
G01 X19.96737 Y8.31073
G01 X20.05330 Y8.47441
G01 X20.10829 Y8.65091
G01 X20.11921 Y8.70588
G01 X20.13598 Y8.89000
G01 X20.11921 Y9.07410
G01 X20.10829 Y9.12906
G01 X20.06275 Y9.27915
G01 X20.04131 Y9.33094
G01 X19.96737 Y9.46925
G01 X19.93623 Y9.51586
G01 X19.81789 Y9.65789
G01 X19.65333 Y9.79294
G01 X19.49094 Y9.88131
G01 X19.43915 Y9.90275
G01 X19.26186 Y9.95510
G01 X19.05000 Y9.97598
G01 X18.83811 Y9.95510
G01 X18.66082 Y9.90275
G01 X18.60903 Y9.88131
G01 X18.44665 Y9.79294
G01 X18.30288 Y9.67674
G01 X18.26323 Y9.63709
G01 X18.14703 Y9.49333
G01 X18.05866 Y9.33094
G01 X18.03723 Y9.27915
G01 X17.99168 Y9.12906
G01 X17.98076 Y9.07410
G01 X17.96400 Y8.89000
G01 X18.06951 Y8.89000
G01 X18.08574 Y8.71621
G01 X18.09265 Y8.68152
G01 X18.14413 Y8.51477
G01 X18.22564 Y8.36046
G01 X18.24530 Y8.33102
G01 X18.34477 Y8.20979
G01 X18.36979 Y8.18477
G01 X18.50525 Y8.07474
G01 X18.65876 Y7.99170
G01 X18.69145 Y7.97817
G01 X18.85871 Y7.92833
G01 X19.03230 Y7.91037
G01 X19.06768 Y7.91037
G01 X19.24126 Y7.92833
G01 X19.40852 Y7.97817
G01 X19.44121 Y7.99170
G01 X19.59473 Y8.07474
G01 X19.73019 Y8.18477
G01 X19.75521 Y8.20979
G01 X19.85467 Y8.33102
G01 X19.87433 Y8.36046
G01 X19.94827 Y8.49876
G01 X19.96181 Y8.53145
G01 X20.00733 Y8.68152
G01 X20.01423 Y8.71621
G01 X20.03047 Y8.89000
G01 X20.01423 Y9.06376
G01 X20.00733 Y9.09846
G01 X19.95584 Y9.26521
G01 X19.87433 Y9.41951
G01 X19.85467 Y9.44895
G01 X19.75521 Y9.57019
G01 X19.73019 Y9.59521
G01 X19.59473 Y9.70524
G01 X19.44121 Y9.78827
G01 X19.40852 Y9.80181
G01 X19.24126 Y9.85164
G01 X19.06768 Y9.86960
G01 X19.03230 Y9.86960
G01 X18.85871 Y9.85164
G01 X18.69145 Y9.80181
G01 X18.65876 Y9.78827
G01 X18.50525 Y9.70524
G01 X18.36979 Y9.59521
G01 X18.34477 Y9.57019
G01 X18.23474 Y9.43473
G01 X18.15170 Y9.28121
G01 X18.13817 Y9.24852
G01 X18.09265 Y9.09846
G01 X18.08574 Y9.06376
G01 X18.06951 Y8.89000
G01 X18.17500 Y8.89000
G01 X18.19072 Y9.05340
G01 X18.23910 Y9.21791
G01 X18.32684 Y9.38202
G01 X18.43672 Y9.51365
G01 X18.56387 Y9.61753
G01 X18.70850 Y9.69523
G01 X18.87215 Y9.74639
G01 X19.05734 Y9.76462
G01 X19.22069 Y9.74816
G01 X19.37791 Y9.70087
G01 X19.53611 Y9.61753
G01 X19.67365 Y9.50326
G01 X19.78132 Y9.36981
G01 X19.85523 Y9.23148
G01 X19.90926 Y9.05340
G01 X19.92498 Y8.89000
G01 X19.90926 Y8.72658
G01 X19.85838 Y8.55515
G01 X19.77314 Y8.39795
G01 X19.66326 Y8.26633
G01 X19.53611 Y8.16244
G01 X19.39148 Y8.08474
G01 X19.22783 Y8.03359
G01 X19.04263 Y8.01535
G01 X18.87929 Y8.03181
G01 X18.70850 Y8.08474
G01 X18.56387 Y8.16244
G01 X18.42633 Y8.27672
G01 X18.31866 Y8.41017
G01 X18.24159 Y8.55515
G01 X18.19072 Y8.72658
G01 X18.17500 Y8.89000
G01 X17.75303 Y8.89000
G01 X10.25588 Y10.66432
G01 X10.13541 Y11.38128
G01 X10.13541 Y11.47869
G01 X10.15794 Y11.68301
G01 X10.21532 Y11.88039
G01 X10.25261 Y11.97041
G01 X10.35162 Y12.15055
G01 X10.48014 Y12.31095
G01 X10.54903 Y12.37983
G01 X10.70943 Y12.50836
G01 X10.88956 Y12.60737
G01 X10.98809 Y12.64722
G01 X11.87188 Y12.64722
G01 X11.97041 Y12.60737
G01 X12.10871 Y12.53345
G01 X12.18971 Y12.47932
G01 X12.31095 Y12.37983
G01 X12.37983 Y12.31095
G01 X12.50836 Y12.15055
G01 X12.60737 Y11.97041
G01 X12.64465 Y11.88039
G01 X12.70201 Y11.68301
G01 X12.72695 Y11.43000
G01 X12.70914 Y11.22520
G01 X12.69017 Y11.12964
G01 X12.64465 Y10.97958
G01 X12.60737 Y10.88956
G01 X12.53345 Y10.75126
G01 X12.47932 Y10.67026
G01 X12.37983 Y10.54903
G01 X12.31095 Y10.48014
G01 X12.15055 Y10.35162
G01 X11.97041 Y10.25261
G01 X11.87181 Y10.21273
G01 X10.98817 Y10.21273
G01 X10.88956 Y10.25261
G01 X10.75126 Y10.32652
G01 X10.67026 Y10.38065
G01 X10.54903 Y10.48014
G01 X10.48014 Y10.54903
G01 X10.38065 Y10.67026
G01 X10.32652 Y10.75126
G01 X10.25261 Y10.88956
G01 X10.21532 Y10.97958
G01 X10.18751 Y11.07123
G01 X10.15794 Y11.17697
G01 X10.13541 Y11.38128
G01 X3.53931 Y19.16102
G01 X3.39021 Y19.20626
G01 X3.31925 Y19.23565
G01 X3.14805 Y19.32932
G01 X2.99596 Y19.45170
G01 X2.94170 Y19.50596
G01 X2.84221 Y19.62719
G01 X2.79956 Y19.69099
G01 X2.72565 Y19.82930
G01 X2.69626 Y19.90021
G01 X2.65074 Y20.05028
G01 X2.63578 Y20.12554
G01 X2.62451 Y20.23999
G01 X2.62042 Y20.28162
G01 X2.62042 Y20.35835
G01 X2.51541 Y20.36869
G01 X2.72539 Y20.34802
G01 X2.72539 Y20.29196
G01 X2.74488 Y20.10811
G01 X2.79723 Y19.93082
G01 X2.81866 Y19.87903
G01 X2.90703 Y19.71665
G01 X3.02324 Y19.57288
G01 X3.06288 Y19.53323
G01 X3.18412 Y19.43374
G01 X3.23073 Y19.40260
G01 X3.36903 Y19.32866
G01 X3.41241 Y19.31068
G01 X3.57091 Y19.26168
G01 X3.62588 Y19.25076
G01 X3.78196 Y19.23539
G01 X3.83802 Y19.23539
G01 X3.99410 Y19.25076
G01 X4.04906 Y19.26168
G01 X4.22557 Y19.31667
G01 X4.38925 Y19.40260
G01 X4.43586 Y19.43374
G01 X4.55709 Y19.53323
G01 X4.59674 Y19.57288
G01 X4.71294 Y19.71665
G01 X4.80131 Y19.87903
G01 X4.82275 Y19.93082
G01 X4.86829 Y20.08091
G01 X4.87921 Y20.13588
G01 X4.89598 Y20.32000
G01 X4.87921 Y20.50410
G01 X4.86829 Y20.55906
G01 X4.82275 Y20.70915
G01 X4.80131 Y20.76094
G01 X4.71294 Y20.92333
G01 X4.59674 Y21.06709
G01 X4.55709 Y21.10674
G01 X4.41333 Y21.22294
G01 X4.25094 Y21.31131
G01 X4.19915 Y21.33275
G01 X4.04906 Y21.37829
G01 X3.99410 Y21.38921
G01 X3.81000 Y21.40598
G01 X3.62588 Y21.38921
G01 X3.57091 Y21.37829
G01 X3.39441 Y21.32330
G01 X3.23073 Y21.23737
G01 X3.18412 Y21.20623
G01 X3.06288 Y21.10674
G01 X3.02324 Y21.06709
G01 X2.90703 Y20.92333
G01 X2.81866 Y20.76094
G01 X2.79723 Y20.70915
G01 X2.74488 Y20.53186
G01 X2.72539 Y20.34802
G01 X2.83037 Y20.33768
G01 X2.83037 Y20.30230
G01 X2.84833 Y20.12871
G01 X2.89817 Y19.96145
G01 X2.95145 Y19.85437
G01 X3.00530 Y19.76102
G01 X3.10477 Y19.63979
G01 X3.12979 Y19.61477
G01 X3.21137 Y19.54779
G01 X3.26525 Y19.50474
G01 X3.41876 Y19.42170
G01 X3.45145 Y19.40817
G01 X3.60152 Y19.36265
G01 X3.63621 Y19.35574
G01 X3.79230 Y19.34037
G01 X3.82768 Y19.34037
G01 X3.98376 Y19.35574
G01 X4.01846 Y19.36265
G01 X4.16852 Y19.40817
G01 X4.20121 Y19.42170
G01 X4.33951 Y19.49564
G01 X4.36895 Y19.51530
G01 X4.49019 Y19.61477
G01 X4.51521 Y19.63979
G01 X4.62524 Y19.77525
G01 X4.70827 Y19.92876
G01 X4.72181 Y19.96145
G01 X4.77164 Y20.12871
G01 X4.78960 Y20.30230
G01 X4.78960 Y20.33768
G01 X4.77164 Y20.51126
G01 X4.72181 Y20.67852
G01 X4.70827 Y20.71121
G01 X4.62524 Y20.86473
G01 X4.51521 Y21.00019
G01 X4.49019 Y21.02521
G01 X4.35473 Y21.13524
G01 X4.20121 Y21.21827
G01 X4.16852 Y21.23181
G01 X4.01846 Y21.27733
G01 X3.98376 Y21.28423
G01 X3.82768 Y21.29960
G01 X3.79230 Y21.29960
G01 X3.63621 Y21.28423
G01 X3.60152 Y21.27733
G01 X3.45145 Y21.23181
G01 X3.41876 Y21.21827
G01 X3.28041 Y21.14433
G01 X3.25102 Y21.12467
G01 X3.11668 Y21.01329
G01 X3.00530 Y20.87895
G01 X2.98564 Y20.84951
G01 X2.91170 Y20.71121
G01 X2.89817 Y20.67852
G01 X2.84833 Y20.51126
G01 X2.83037 Y20.33768
G01 X2.93500 Y20.32000
G01 X2.95181 Y20.14929
G01 X2.99910 Y19.99206
G01 X3.08684 Y19.82795
G01 X3.18633 Y19.70672
G01 X3.31795 Y19.59684
G01 X3.46850 Y19.51474
G01 X3.64658 Y19.46072
G01 X3.81734 Y19.44535
G01 X3.97340 Y19.46072
G01 X4.13791 Y19.50910
G01 X4.28981 Y19.58866
G01 X4.42326 Y19.69633
G01 X4.54132 Y19.84017
G01 X4.62087 Y19.99206
G01 X4.66639 Y20.14215
G01 X4.68462 Y20.32734
G01 X4.66816 Y20.49069
G01 X4.62087 Y20.64791
G01 X4.53753 Y20.80611
G01 X4.42326 Y20.94365
G01 X4.29611 Y21.04753
G01 X4.15148 Y21.12523
G01 X3.98783 Y21.17639
G01 X3.81000 Y21.19498
G01 X3.63215 Y21.17639
G01 X3.46850 Y21.12523
G01 X3.33017 Y21.05132
G01 X3.19672 Y20.94365
G01 X3.08244 Y20.80611
G01 X2.99910 Y20.64791
G01 X2.95181 Y20.49069
G01 X2.93500 Y20.32000
G01 X2.83037 Y20.33768
G01 X2.62042 Y20.35835
G01 X2.63578 Y20.51444
G01 X2.65074 Y20.58970
G01 X2.69626 Y20.73976
G01 X2.72565 Y20.81068
G01 X2.79956 Y20.94898
G01 X2.84221 Y21.01278
G01 X2.96748 Y21.16249
G01 X3.11719 Y21.28777
G01 X3.18097 Y21.33041
G01 X3.35404 Y21.42076
G01 X3.54028 Y21.47923
G01 X3.61554 Y21.49419
G01 X3.81000 Y21.51146
G01 X4.00444 Y21.49419
G01 X4.07970 Y21.47923
G01 X4.22976 Y21.43371
G01 X4.30068 Y21.40433
G01 X4.43898 Y21.33041
G01 X4.50278 Y21.28777
G01 X4.62402 Y21.18827
G01 X4.67827 Y21.13402
G01 X4.80065 Y20.98192
G01 X4.89433 Y20.81068
G01 X4.92371 Y20.73976
G01 X4.97855 Y20.55244
G01 X4.99956 Y20.35835
G01 X4.99956 Y20.28162
G01 X4.97855 Y20.08754
G01 X4.92371 Y19.90021
G01 X4.89433 Y19.82930
G01 X4.82041 Y19.69099
G01 X4.77777 Y19.62719
G01 X4.65249 Y19.47748
G01 X4.50278 Y19.35221
G01 X4.43898 Y19.30956
G01 X4.26593 Y19.21921
G01 X4.07970 Y19.16074
G01 X4.00444 Y19.14578
G01 X3.81000 Y19.12851
G01 X3.61554 Y19.14578
G01 X3.53931 Y19.16102
G01 X2.51541 Y20.36869
G01 X2.53081 Y20.52477
G01 X2.54980 Y20.62033
G01 X2.59532 Y20.77039
G01 X2.63261 Y20.86041
G01 X2.73162 Y21.04055
G01 X2.86014 Y21.20095
G01 X2.92903 Y21.26983
G01 X3.05026 Y21.36932
G01 X3.13126 Y21.42345
G01 X3.26956 Y21.49737
G01 X3.35958 Y21.53465
G01 X3.50964 Y21.58017
G01 X3.60520 Y21.59917
G01 X3.76128 Y21.61456
G01 X3.85869 Y21.61456
G01 X4.01477 Y21.59917
G01 X4.11033 Y21.58017
G01 X4.26039 Y21.53465
G01 X4.35041 Y21.49737
G01 X4.48871 Y21.42345
G01 X4.56971 Y21.36932
G01 X4.69095 Y21.26983
G01 X4.75983 Y21.20095
G01 X4.85932 Y21.07971
G01 X4.91094 Y21.00288
G01 X4.94789 Y20.85530
G01 X4.96700 Y20.75955
G01 X4.98986 Y20.60534
G01 X4.99857 Y20.51708
G01 X5.00616 Y20.36298
G01 X5.00616 Y20.27700
G01 X4.99857 Y20.12287
G01 X4.98986 Y20.03461
G01 X4.96700 Y19.88038
G01 X4.94789 Y19.78464
G01 X4.91094 Y19.63710
G01 X4.85932 Y19.56026
G01 X4.75983 Y19.43903
G01 X4.69095 Y19.37014
G01 X4.56971 Y19.27065
G01 X4.48871 Y19.21652
G01 X4.35041 Y19.14261
G01 X4.26039 Y19.10532
G01 X4.11033 Y19.05980
G01 X4.01477 Y19.04081
G01 X3.81000 Y19.02303
G01 X3.60520 Y19.04081
G01 X3.50964 Y19.05980
G01 X3.35958 Y19.10532
G01 X3.26956 Y19.14261
G01 X3.08943 Y19.24162
G01 X2.92903 Y19.37014
G01 X2.86014 Y19.43903
G01 X2.76065 Y19.56026
G01 X2.70652 Y19.64126
G01 X2.63261 Y19.77956
G01 X2.59532 Y19.86958
G01 X2.53794 Y20.06697
G01 X2.51541 Y20.27128
G01 X2.51541 Y20.36869
G01 X9.72716 Y28.36540
G01 X9.66584 Y28.16161
G01 X9.64540 Y27.96802
G01 X9.43541 Y27.98869
G01 X9.64540 Y27.96802
G01 X9.74949 Y27.94000
G01 X9.76671 Y27.75646
G01 X9.77359 Y27.72176
G01 X9.82198 Y27.56230
G01 X9.83551 Y27.52961
G01 X9.91405 Y27.38267
G01 X9.93371 Y27.35326
G01 X10.03943 Y27.22446
G01 X10.06445 Y27.19944
G01 X10.20747 Y27.08316
G01 X10.36963 Y26.99550
G01 X10.40232 Y26.98196
G01 X10.56178 Y26.93360
G01 X10.59647 Y26.92669
G01 X10.77999 Y26.90950
G01 X12.07999 Y26.90950
G01 X12.28103 Y26.92931
G01 X12.45766 Y26.98196
G01 X12.49035 Y26.99550
G01 X12.63731 Y27.07406
G01 X12.66673 Y27.09372
G01 X12.79553 Y27.19944
G01 X12.82055 Y27.22446
G01 X12.92626 Y27.35326
G01 X12.94590 Y27.38267
G01 X13.02443 Y27.52961
G01 X13.03797 Y27.56230
G01 X13.08638 Y27.72176
G01 X13.09327 Y27.75646
G01 X13.11049 Y27.94000
G01 X13.09327 Y28.12351
G01 X13.08638 Y28.15821
G01 X13.03797 Y28.31767
G01 X13.02443 Y28.35036
G01 X12.93678 Y28.51249
G01 X12.82055 Y28.65552
G01 X12.79553 Y28.68054
G01 X12.65250 Y28.79682
G01 X12.49035 Y28.88447
G01 X12.45766 Y28.89801
G01 X12.28103 Y28.95067
G01 X12.09769 Y28.96961
G01 X10.77999 Y28.97048
G01 X10.57895 Y28.95067
G01 X10.40232 Y28.89801
G01 X10.36963 Y28.88447
G01 X10.22266 Y28.80591
G01 X10.19325 Y28.78625
G01 X10.05131 Y28.66865
G01 X9.93371 Y28.52671
G01 X9.91405 Y28.49730
G01 X9.83551 Y28.35036
G01 X9.82198 Y28.31767
G01 X9.77359 Y28.15821
G01 X9.76671 Y28.12351
G01 X9.74949 Y27.94000
G01 X9.85500 Y27.94000
G01 X9.87275 Y28.12044
G01 X9.92856 Y28.30063
G01 X10.01527 Y28.45981
G01 X10.13137 Y28.59900
G01 X10.27239 Y28.71287
G01 X10.42601 Y28.79458
G01 X10.59952 Y28.84721
G01 X10.77999 Y28.86499
G01 X12.07999 Y28.86499
G01 X12.26045 Y28.84721
G01 X12.43396 Y28.79458
G01 X12.59980 Y28.70472
G01 X12.73406 Y28.59405
G01 X12.84910 Y28.45389
G01 X12.93706 Y28.28704
G01 X12.98722 Y28.12044
G01 X13.00462 Y27.94734
G01 X12.98542 Y27.75240
G01 X12.93142 Y27.57935
G01 X12.84910 Y27.42608
G01 X12.73406 Y27.28592
G01 X12.59980 Y27.17526
G01 X12.43396 Y27.08539
G01 X12.26045 Y27.03276
G01 X12.07999 Y27.01498
G01 X10.77999 Y27.01498
G01 X10.59952 Y27.03276
G01 X10.42601 Y27.08539
G01 X10.27239 Y27.16710
G01 X10.13137 Y27.28097
G01 X10.01088 Y27.42608
G01 X9.92856 Y27.57935
G01 X9.87275 Y27.75953
G01 X9.85500 Y27.94000
G01 X9.74949 Y27.94000
G01 X9.64540 Y27.96802
G01 X9.64540 Y27.91196
G01 X9.66173 Y27.74612
G01 X9.67265 Y27.69116
G01 X9.72104 Y27.53169
G01 X9.74247 Y27.47990
G01 X9.83546 Y27.30886
G01 X9.95789 Y27.15753
G01 X9.99752 Y27.11788
G01 X10.14887 Y26.99545
G01 X10.31989 Y26.90249
G01 X10.37168 Y26.88102
G01 X10.55837 Y26.82583
G01 X10.77999 Y26.80401
G01 X12.07999 Y26.80401
G01 X12.30160 Y26.82583
G01 X12.48829 Y26.88102
G01 X12.54008 Y26.90249
G01 X12.71110 Y26.99545
G01 X12.86243 Y27.11788
G01 X12.90206 Y27.15753
G01 X13.02451 Y27.30886
G01 X13.11750 Y27.47990
G01 X13.13894 Y27.53169
G01 X13.18732 Y27.69116
G01 X13.19822 Y27.74612
G01 X13.21458 Y27.91196
G01 X13.21458 Y27.96802
G01 X13.19413 Y28.16161
G01 X13.13894 Y28.34828
G01 X13.11750 Y28.40007
G01 X13.02451 Y28.57111
G01 X12.90206 Y28.72245
G01 X12.86243 Y28.76210
G01 X12.71110 Y28.88452
G01 X12.54008 Y28.97749
G01 X12.48829 Y28.99895
G01 X12.30160 Y29.05415
G01 X12.07999 Y29.07596
G01 X10.77999 Y29.07596
G01 X10.55837 Y29.05415
G01 X10.37168 Y28.99895
G01 X10.31989 Y28.97749
G01 X10.17295 Y28.89895
G01 X10.12632 Y28.86781
G01 X9.99752 Y28.76210
G01 X9.95789 Y28.72245
G01 X9.85218 Y28.59364
G01 X9.82104 Y28.54703
G01 X9.72716 Y28.36540
G01 X10.53640 Y29.26273
G01 X12.65133 Y29.26273
G01 X12.82830 Y29.36004
G01 X12.99629 Y29.49478
G01 X13.06518 Y29.56367
G01 X13.19995 Y29.73167
G01 X13.28224 Y29.88053
G01 X13.28224 Y31.07944
G01 X13.19995 Y31.22831
G01 X13.06518 Y31.39630
G01 X12.99629 Y31.46519
G01 X12.82830 Y31.59994
G01 X12.63952 Y31.70357
G01 X12.54953 Y31.74086
G01 X12.39007 Y31.78922
G01 X12.29451 Y31.80822
G01 X12.07999 Y31.82694
G01 X10.77999 Y31.82694
G01 X10.56546 Y31.80822
G01 X10.46991 Y31.78922
G01 X10.31044 Y31.74086
G01 X10.22045 Y31.70357
G01 X10.07349 Y31.62501
G01 X9.99249 Y31.57088
G01 X9.82754 Y31.43242
G01 X9.68908 Y31.26748
G01 X9.63496 Y31.18648
G01 X9.55642 Y31.03954
G01 X9.51913 Y30.94952
G01 X9.47077 Y30.79008
G01 X9.45175 Y30.69453
G01 X9.43541 Y30.52869
G01 X9.64540 Y30.50802
G01 X9.64540 Y30.45196
G01 X9.66173 Y30.28612
G01 X9.67265 Y30.23116
G01 X9.72104 Y30.07169
G01 X9.74247 Y30.01990
G01 X9.83546 Y29.84886
G01 X9.95789 Y29.69753
G01 X9.99752 Y29.65788
G01 X10.12632 Y29.55216
G01 X10.17295 Y29.52102
G01 X10.31989 Y29.44249
G01 X10.37168 Y29.42102
G01 X10.55837 Y29.36583
G01 X10.77999 Y29.34401
G01 X12.07999 Y29.34401
G01 X12.30160 Y29.36583
G01 X12.48829 Y29.42102
G01 X12.54008 Y29.44249
G01 X12.68702 Y29.52102
G01 X12.73366 Y29.55216
G01 X12.86243 Y29.65788
G01 X12.90206 Y29.69753
G01 X13.02451 Y29.84886
G01 X13.11750 Y30.01990
G01 X13.13894 Y30.07169
G01 X13.18732 Y30.23116
G01 X13.19822 Y30.28612
G01 X13.21458 Y30.45196
G01 X13.21458 Y30.50802
G01 X13.19413 Y30.70162
G01 X13.13894 Y30.88828
G01 X13.11750 Y30.94007
G01 X13.02451 Y31.11111
G01 X12.90206 Y31.26245
G01 X12.86243 Y31.30210
G01 X12.73366 Y31.40781
G01 X12.68702 Y31.43895
G01 X12.54008 Y31.51749
G01 X12.48829 Y31.53895
G01 X12.30160 Y31.59415
G01 X12.07999 Y31.61596
G01 X10.77999 Y31.61596
G01 X10.55837 Y31.59415
G01 X10.37168 Y31.53895
G01 X10.31989 Y31.51749
G01 X10.17295 Y31.43895
G01 X10.12632 Y31.40781
G01 X9.97674 Y31.28325
G01 X9.85218 Y31.13364
G01 X9.82104 Y31.08703
G01 X9.74247 Y30.94007
G01 X9.72104 Y30.88828
G01 X9.66584 Y30.70162
G01 X9.64540 Y30.50802
G01 X9.74949 Y30.48000
G01 X9.76671 Y30.29646
G01 X9.77359 Y30.26176
G01 X9.82198 Y30.10230
G01 X9.83551 Y30.06961
G01 X9.91405 Y29.92267
G01 X9.93371 Y29.89326
G01 X10.03943 Y29.76446
G01 X10.06445 Y29.73944
G01 X10.19325 Y29.63372
G01 X10.22266 Y29.61406
G01 X10.36963 Y29.53550
G01 X10.40232 Y29.52196
G01 X10.57895 Y29.46931
G01 X10.77999 Y29.44950
G01 X12.07999 Y29.44950
G01 X12.28103 Y29.46931
G01 X12.45766 Y29.52196
G01 X12.49035 Y29.53550
G01 X12.63731 Y29.61406
G01 X12.66673 Y29.63372
G01 X12.79553 Y29.73944
G01 X12.82055 Y29.76446
G01 X12.93678 Y29.90748
G01 X13.02443 Y30.06961
G01 X13.03797 Y30.10230
G01 X13.08638 Y30.26176
G01 X13.09327 Y30.29646
G01 X13.10960 Y30.46230
G01 X13.10960 Y30.49768
G01 X13.09327 Y30.66351
G01 X13.08638 Y30.69821
G01 X13.03797 Y30.85767
G01 X13.02443 Y30.89036
G01 X12.93678 Y31.05249
G01 X12.82055 Y31.19552
G01 X12.79553 Y31.22054
G01 X12.66673 Y31.32625
G01 X12.63731 Y31.34591
G01 X12.49035 Y31.42447
G01 X12.45766 Y31.43801
G01 X12.28103 Y31.49067
G01 X12.07999 Y31.51048
G01 X10.77999 Y31.51048
G01 X10.57895 Y31.49067
G01 X10.40232 Y31.43801
G01 X10.36963 Y31.42447
G01 X10.22266 Y31.34591
G01 X10.19325 Y31.32625
G01 X10.05131 Y31.20865
G01 X9.93371 Y31.06671
G01 X9.91405 Y31.03730
G01 X9.83551 Y30.89036
G01 X9.82198 Y30.85767
G01 X9.77359 Y30.69821
G01 X9.76671 Y30.66351
G01 X9.74949 Y30.48000
G01 X9.85500 Y30.48000
G01 X9.87275 Y30.66044
G01 X9.92292 Y30.82704
G01 X10.01527 Y30.99981
G01 X10.12591 Y31.13405
G01 X10.26018 Y31.24472
G01 X10.42601 Y31.33458
G01 X10.59952 Y31.38721
G01 X10.77999 Y31.40499
G01 X12.07999 Y31.40499
G01 X12.26045 Y31.38721
G01 X12.43396 Y31.33458
G01 X12.59980 Y31.24472
G01 X12.73406 Y31.13405
G01 X12.84910 Y30.99389
G01 X12.93706 Y30.82704
G01 X12.98722 Y30.66044
G01 X13.00462 Y30.47263
G01 X12.98722 Y30.29953
G01 X12.93706 Y30.13293
G01 X12.84910 Y29.96608
G01 X12.73406 Y29.82592
G01 X12.59980 Y29.71526
G01 X12.43396 Y29.62539
G01 X12.26045 Y29.57276
G01 X12.07999 Y29.55498
G01 X10.77999 Y29.55498
G01 X10.59952 Y29.57276
G01 X10.42601 Y29.62539
G01 X10.26018 Y29.71526
G01 X10.12591 Y29.82592
G01 X10.01088 Y29.96608
G01 X9.92292 Y30.13293
G01 X9.87275 Y30.29953
G01 X9.85500 Y30.48000
G01 X9.74949 Y30.48000
G01 X9.64540 Y30.50802
G01 X9.43541 Y30.52869
G01 X9.43541 Y30.43128
G01 X9.45175 Y30.26545
G01 X9.47077 Y30.16989
G01 X9.51913 Y30.01046
G01 X9.55642 Y29.92044
G01 X9.66003 Y29.73167
G01 X9.79480 Y29.56367
G01 X9.86368 Y29.49478
G01 X10.03165 Y29.36004
G01 X10.20864 Y29.26273
G01 X12.32357 Y29.26273
G01 X12.51890 Y29.32008
G01 X12.58981 Y29.34945
G01 X12.76967 Y29.44774
G01 X12.92936 Y29.57634
G01 X12.98364 Y29.63060
G01 X13.11222 Y29.79026
G01 X13.21054 Y29.97017
G01 X13.23990 Y30.04106
G01 X13.28222 Y30.18064
G01 X13.28222 Y30.77934
G01 X13.23990 Y30.91891
G01 X13.21054 Y30.98980
G01 X13.13198 Y31.13677
G01 X13.08936 Y31.20057
G01 X12.98364 Y31.32938
G01 X12.92936 Y31.38363
G01 X12.76967 Y31.51223
G01 X12.58981 Y31.61053
G01 X12.51890 Y31.63989
G01 X12.35946 Y31.68828
G01 X12.28418 Y31.70324
G01 X12.07999 Y31.72145
G01 X10.77999 Y31.72145
G01 X10.53780 Y31.69760
G01 X10.34108 Y31.63989
G01 X10.27016 Y31.61053
G01 X10.12322 Y31.53199
G01 X10.05942 Y31.48935
G01 X9.90214 Y31.35785
G01 X9.77062 Y31.20057
G01 X9.72800 Y31.13677
G01 X9.63303 Y30.95508
G01 X9.57171 Y30.75945
G01 X9.55672 Y30.68419
G01 X9.54039 Y30.51835
G01 X9.54039 Y30.44162
G01 X9.55672 Y30.27578
G01 X9.57171 Y30.20052
G01 X9.62007 Y30.04106
G01 X9.64943 Y29.97017
G01 X9.74773 Y29.79026
G01 X9.87633 Y29.63060
G01 X9.93061 Y29.57634
G01 X10.09028 Y29.44774
G01 X10.27016 Y29.34945
G01 X10.34108 Y29.32008
G01 X10.53640 Y29.26273
G01 X10.53630 Y29.15722
G01 X10.34108 Y29.09989
G01 X10.27016 Y29.07053
G01 X10.12322 Y28.99199
G01 X10.05942 Y28.94935
G01 X9.90214 Y28.81785
G01 X9.77062 Y28.66057
G01 X9.72800 Y28.59677
G01 X9.63303 Y28.41508
G01 X9.57171 Y28.21945
G01 X9.55672 Y28.14419
G01 X9.54039 Y27.97835
G01 X9.54039 Y27.90162
G01 X9.55672 Y27.73578
G01 X9.57171 Y27.66052
G01 X9.62007 Y27.50106
G01 X9.64943 Y27.43017
G01 X9.72800 Y27.28321
G01 X9.77062 Y27.21940
G01 X9.87633 Y27.09060
G01 X9.93061 Y27.03634
G01 X10.05942 Y26.93063
G01 X10.12322 Y26.88798
G01 X10.27016 Y26.80945
G01 X10.34108 Y26.78008
G01 X10.53780 Y26.72237
G01 X10.77999 Y26.69852
G01 X12.11837 Y26.70040
G01 X12.32217 Y26.72237
G01 X12.51890 Y26.78008
G01 X12.58981 Y26.80945
G01 X12.76967 Y26.90774
G01 X12.92936 Y27.03634
G01 X12.98364 Y27.09060
G01 X13.11222 Y27.25026
G01 X13.21054 Y27.43017
G01 X13.23990 Y27.50106
G01 X13.28222 Y27.64061
G01 X13.28222 Y28.53944
G01 X13.19995 Y28.68831
G01 X13.06518 Y28.85630
G01 X12.99629 Y28.92519
G01 X12.82830 Y29.05994
G01 X12.65138 Y29.15722
G01 X10.20859 Y29.15722
G01 X10.07349 Y29.08501
G01 X9.99249 Y29.03088
G01 X9.86368 Y28.92519
G01 X9.79480 Y28.85630
G01 X9.68908 Y28.72748
G01 X9.63496 Y28.64648
G01 X9.53557 Y28.45544
G01 X9.47077 Y28.25008
G01 X9.45175 Y28.15453
G01 X9.43303 Y27.94000
G01 X9.45175 Y27.72545
G01 X9.47077 Y27.62989
G01 X9.51913 Y27.47046
G01 X9.55642 Y27.38044
G01 X9.66003 Y27.19167
G01 X9.79480 Y27.02367
G01 X9.86368 Y26.95478
G01 X10.03165 Y26.82004
G01 X10.22045 Y26.71641
G01 X10.31044 Y26.67912
G01 X10.51720 Y26.61892
G01 X10.77999 Y26.59304
G01 X12.07999 Y26.59304
G01 X12.34277 Y26.61892
G01 X12.54953 Y26.67912
G01 X12.63952 Y26.71641
G01 X12.82830 Y26.82004
G01 X12.99629 Y26.95478
G01 X13.06518 Y27.02367
G01 X13.17089 Y27.15250
G01 X13.22499 Y27.23350
G01 X13.28222 Y27.34053
G01 X13.28222 Y28.23936
G01 X13.23990 Y28.37891
G01 X13.21054 Y28.44980
G01 X13.13198 Y28.59677
G01 X13.08936 Y28.66057
G01 X12.98364 Y28.78938
G01 X12.92936 Y28.84363
G01 X12.80056 Y28.94935
G01 X12.73675 Y28.99199
G01 X12.58981 Y29.07053
G01 X12.51890 Y29.09989
G01 X12.32367 Y29.15722
G01 X16.46138 Y29.15722
G01 X16.63832 Y29.05994
G01 X16.80629 Y28.92519
G01 X16.87518 Y28.85630
G01 X16.98089 Y28.72748
G01 X17.03502 Y28.64648
G01 X17.12565 Y28.47401
G01 X17.06964 Y28.24025
G01 X17.04508 Y28.15892
G01 X16.96194 Y27.93472
G01 X16.86875 Y27.74218
G01 X16.78175 Y27.59707
G01 X16.65470 Y27.42016
G01 X16.53860 Y27.28097
G01 X16.40980 Y27.17526
G01 X16.32339 Y27.11356
G01 X16.27449 Y27.10132
G01 X16.39019 Y27.16314
G01 X16.23705 Y27.08293
G01 X16.07759 Y27.03454
G01 X15.89733 Y27.01534
G01 X14.58265 Y27.01534
G01 X14.40952 Y27.03276
G01 X14.24292 Y27.08293
G01 X14.07018 Y27.17526
G01 X13.93096 Y27.29136
G01 X13.82527 Y27.42016
G01 X13.73856 Y27.57935
G01 X13.68275 Y27.75953
G01 X13.66500 Y27.94000
G01 X13.55949 Y27.94000
G01 X13.45540 Y27.96802
G01 X13.38773 Y28.23926
G01 X13.45540 Y27.96802
G01 X13.55949 Y27.94000
G01 X13.66500 Y27.94000
G01 X13.68275 Y28.12044
G01 X13.73292 Y28.28704
G01 X13.82088 Y28.45389
G01 X13.93096 Y28.58861
G01 X14.08239 Y28.71287
G01 X14.24292 Y28.79705
G01 X14.40952 Y28.84721
G01 X14.58999 Y28.86499
G01 X15.88999 Y28.86499
G01 X16.07045 Y28.84721
G01 X16.23705 Y28.79705
G01 X16.40388 Y28.70909
G01 X16.54901 Y28.58861
G01 X16.66288 Y28.44757
G01 X16.74706 Y28.28704
G01 X16.79722 Y28.12044
G01 X16.81462 Y27.93263
G01 X16.79542 Y27.75240
G01 X16.74706 Y27.59293
G01 X16.66684 Y27.43980
G01 X16.78175 Y27.59707
G01 X16.86875 Y27.74218
G01 X16.91002 Y27.82496
G01 X16.92049 Y27.94000
G01 X16.90327 Y28.12351
G01 X16.89638 Y28.15821
G01 X16.84203 Y28.33433
G01 X16.75592 Y28.49730
G01 X16.73626 Y28.52671
G01 X16.63055 Y28.65552
G01 X16.60553 Y28.68054
G01 X16.46250 Y28.79682
G01 X16.30035 Y28.88447
G01 X16.26766 Y28.89801
G01 X16.09103 Y28.95067
G01 X15.90769 Y28.96961
G01 X14.58999 Y28.97048
G01 X14.38895 Y28.95067
G01 X14.21232 Y28.89801
G01 X14.17963 Y28.88447
G01 X14.03266 Y28.80591
G01 X14.00325 Y28.78625
G01 X13.86131 Y28.66865
G01 X13.74371 Y28.52671
G01 X13.72405 Y28.49730
G01 X13.64551 Y28.35036
G01 X13.63198 Y28.31767
G01 X13.58359 Y28.15821
G01 X13.57671 Y28.12351
G01 X13.55949 Y27.94000
G01 X13.57671 Y27.75646
G01 X13.58359 Y27.72176
G01 X13.63795 Y27.54564
G01 X13.72405 Y27.38267
G01 X13.74371 Y27.35326
G01 X13.84943 Y27.22446
G01 X13.88364 Y27.19189
G01 X14.05435 Y27.13916
G01 X14.20548 Y27.10129
G01 X14.05435 Y27.13916
G01 X13.91196 Y27.18483
G01 X13.74064 Y27.22557
G01 X13.67318 Y27.23896
G01 X13.42324 Y27.27411
G01 X13.38773 Y27.34059
G01 X13.38773 Y28.53939
G01 X13.44496 Y28.64648
G01 X13.49908 Y28.72748
G01 X13.63754 Y28.89242
G01 X13.80249 Y29.03088
G01 X13.88349 Y29.08501
G01 X14.01859 Y29.15722
G01 X16.13367 Y29.15722
G01 X16.16946 Y29.14828
G01 X16.32890 Y29.09989
G01 X16.39981 Y29.07053
G01 X16.54675 Y28.99199
G01 X16.61056 Y28.94935
G01 X16.73936 Y28.84363
G01 X16.79364 Y28.78938
G01 X16.92224 Y28.62971
G01 X17.03695 Y28.41508
G01 X17.07972 Y28.28056
G01 X17.04508 Y28.15892
G01 X17.01424 Y28.07279
G01 X17.00825 Y28.13385
G01 X16.99732 Y28.18882
G01 X16.93949 Y28.37470
G01 X16.84894 Y28.54703
G01 X16.81780 Y28.59364
G01 X16.71208 Y28.72245
G01 X16.67246 Y28.76210
G01 X16.54366 Y28.86781
G01 X16.49702 Y28.89895
G01 X16.35008 Y28.97749
G01 X16.29829 Y28.99895
G01 X16.13883 Y29.04731
G01 X16.08384 Y29.05826
G01 X15.88999 Y29.07596
G01 X14.58999 Y29.07596
G01 X14.39614 Y29.05826
G01 X14.34114 Y29.04731
G01 X14.18168 Y28.99895
G01 X14.12989 Y28.97749
G01 X13.98295 Y28.89895
G01 X13.93632 Y28.86781
G01 X13.78674 Y28.74325
G01 X13.66218 Y28.59364
G01 X13.63104 Y28.54703
G01 X13.55247 Y28.40007
G01 X13.53104 Y28.34828
G01 X13.48265 Y28.18882
G01 X13.47173 Y28.13385
G01 X13.45540 Y27.96802
G01 X13.45540 Y27.91196
G01 X13.47173 Y27.74612
G01 X13.48265 Y27.69116
G01 X13.54049 Y27.50528
G01 X13.63104 Y27.33294
G01 X13.66218 Y27.28633
G01 X13.70640 Y27.23241
G01 X13.55446 Y27.25575
G01 X13.44303 Y27.46489
G01 X13.38773 Y27.64071
G01 X13.38773 Y28.23926
G01 X13.43007 Y28.37891
G01 X13.45943 Y28.44980
G01 X13.55773 Y28.62971
G01 X13.71214 Y28.81785
G01 X13.86942 Y28.94935
G01 X13.93322 Y28.99199
G01 X14.08016 Y29.07053
G01 X14.15108 Y29.09989
G01 X14.34630 Y29.15722
G01 X14.34640 Y29.26273
G01 X14.15108 Y29.32008
G01 X14.08016 Y29.34945
G01 X13.90028 Y29.44774
G01 X13.74061 Y29.57634
G01 X13.68633 Y29.63060
G01 X13.55773 Y29.79026
G01 X13.44303 Y30.00489
G01 X13.38773 Y30.18071
G01 X13.38773 Y30.77926
G01 X13.45540 Y30.50802
G01 X13.45540 Y30.45196
G01 X13.47173 Y30.28612
G01 X13.48265 Y30.23116
G01 X13.54049 Y30.04528
G01 X13.63104 Y29.87294
G01 X13.66218 Y29.82633
G01 X13.76789 Y29.69753
G01 X13.80752 Y29.65788
G01 X13.95887 Y29.53545
G01 X14.12989 Y29.44249
G01 X14.18168 Y29.42102
G01 X14.34114 Y29.37266
G01 X14.39614 Y29.36171
G01 X14.58999 Y29.34401
G01 X15.88999 Y29.34401
G01 X16.11160 Y29.36583
G01 X16.29829 Y29.42102
G01 X16.35008 Y29.44249
G01 X16.49702 Y29.52102
G01 X16.54366 Y29.55216
G01 X16.67246 Y29.65788
G01 X16.71208 Y29.69753
G01 X16.81780 Y29.82633
G01 X16.84894 Y29.87294
G01 X16.93949 Y30.04528
G01 X16.99732 Y30.23116
G01 X17.00825 Y30.28612
G01 X17.02458 Y30.45196
G01 X17.02458 Y30.50802
G01 X17.00825 Y30.67385
G01 X16.99732 Y30.72882
G01 X16.94894 Y30.88828
G01 X16.92750 Y30.94007
G01 X16.84894 Y31.08703
G01 X16.81780 Y31.13364
G01 X16.71208 Y31.26245
G01 X16.67246 Y31.30210
G01 X16.52110 Y31.42452
G01 X16.35008 Y31.51749
G01 X16.29829 Y31.53895
G01 X16.11160 Y31.59415
G01 X15.88999 Y31.61596
G01 X14.58999 Y31.61596
G01 X14.39614 Y31.59826
G01 X14.34114 Y31.58731
G01 X14.18168 Y31.53895
G01 X14.12989 Y31.51749
G01 X13.98295 Y31.43895
G01 X13.93632 Y31.40781
G01 X13.78674 Y31.28325
G01 X13.66218 Y31.13364
G01 X13.63104 Y31.08703
G01 X13.55247 Y30.94007
G01 X13.53104 Y30.88828
G01 X13.47584 Y30.70162
G01 X13.45540 Y30.50802
G01 X13.55949 Y30.48000
G01 X13.57671 Y30.29646
G01 X13.58359 Y30.26176
G01 X13.63198 Y30.10230
G01 X13.64551 Y30.06961
G01 X13.72405 Y29.92267
G01 X13.74371 Y29.89326
G01 X13.84943 Y29.76446
G01 X13.87445 Y29.73944
G01 X14.00325 Y29.63372
G01 X14.03266 Y29.61406
G01 X14.17963 Y29.53550
G01 X14.21232 Y29.52196
G01 X14.38895 Y29.46931
G01 X14.58999 Y29.44950
G01 X15.88999 Y29.44950
G01 X16.09103 Y29.46931
G01 X16.26766 Y29.52196
G01 X16.30035 Y29.53550
G01 X16.44731 Y29.61406
G01 X16.47673 Y29.63372
G01 X16.60553 Y29.73944
G01 X16.63055 Y29.76446
G01 X16.73626 Y29.89326
G01 X16.75592 Y29.92267
G01 X16.84203 Y30.08564
G01 X16.89638 Y30.26176
G01 X16.90327 Y30.29646
G01 X16.91960 Y30.46230
G01 X16.91960 Y30.49768
G01 X16.90327 Y30.66351
G01 X16.89638 Y30.69821
G01 X16.84800 Y30.85767
G01 X16.83446 Y30.89036
G01 X16.75592 Y31.03730
G01 X16.73626 Y31.06671
G01 X16.63055 Y31.19552
G01 X16.60553 Y31.22054
G01 X16.47673 Y31.32625
G01 X16.44731 Y31.34591
G01 X16.30035 Y31.42447
G01 X16.26766 Y31.43801
G01 X16.09103 Y31.49067
G01 X15.88999 Y31.51048
G01 X14.58999 Y31.51048
G01 X14.38895 Y31.49067
G01 X14.21232 Y31.43801
G01 X14.17963 Y31.42447
G01 X14.03266 Y31.34591
G01 X14.00325 Y31.32625
G01 X13.86131 Y31.20865
G01 X13.74371 Y31.06671
G01 X13.72405 Y31.03730
G01 X13.64551 Y30.89036
G01 X13.63198 Y30.85767
G01 X13.58359 Y30.69821
G01 X13.57671 Y30.66351
G01 X13.55949 Y30.48000
G01 X13.66500 Y30.48000
G01 X13.68275 Y30.66044
G01 X13.73856 Y30.84063
G01 X13.82088 Y30.99389
G01 X13.94137 Y31.13900
G01 X14.08239 Y31.25287
G01 X14.24292 Y31.33705
G01 X14.40952 Y31.38721
G01 X14.58999 Y31.40499
G01 X15.88999 Y31.40499
G01 X16.07045 Y31.38721
G01 X16.25062 Y31.33143
G01 X16.40388 Y31.24909
G01 X16.53860 Y31.13900
G01 X16.66288 Y30.98757
G01 X16.74706 Y30.82704
G01 X16.79542 Y30.66758
G01 X16.81498 Y30.48000
G01 X16.79722 Y30.29953
G01 X16.74706 Y30.13293
G01 X16.65470 Y29.96016
G01 X16.54901 Y29.83136
G01 X16.40980 Y29.71526
G01 X16.23705 Y29.62293
G01 X16.07045 Y29.57276
G01 X15.88999 Y29.55498
G01 X14.58999 Y29.55498
G01 X14.40952 Y29.57276
G01 X14.22936 Y29.62854
G01 X14.07018 Y29.71526
G01 X13.93096 Y29.83136
G01 X13.82527 Y29.96016
G01 X13.73292 Y30.13293
G01 X13.68275 Y30.29953
G01 X13.66500 Y30.48000
G01 X13.55949 Y30.48000
G01 X13.45540 Y30.50802
G01 X13.38773 Y30.77926
G01 X13.38773 Y31.07939
G01 X13.44496 Y31.18648
G01 X13.49908 Y31.26748
G01 X13.60480 Y31.39630
G01 X13.67368 Y31.46519
G01 X13.80249 Y31.57088
G01 X13.88349 Y31.62501
G01 X14.03045 Y31.70357
G01 X14.12044 Y31.74086
G01 X14.32720 Y31.80105
G01 X14.54127 Y31.82455
G01 X15.88999 Y31.82694
G01 X16.10451 Y31.80822
G01 X16.20007 Y31.78922
G01 X16.35953 Y31.74086
G01 X16.44952 Y31.70357
G01 X16.63832 Y31.59994
G01 X16.80629 Y31.46519
G01 X16.87518 Y31.39630
G01 X16.98089 Y31.26748
G01 X17.03502 Y31.18648
G01 X17.11355 Y31.03954
G01 X17.15084 Y30.94952
G01 X17.19920 Y30.79008
G01 X17.21823 Y30.69453
G01 X17.23695 Y30.48000
G01 X17.21823 Y30.26545
G01 X17.19920 Y30.16989
G01 X17.13441 Y29.96453
G01 X17.03502 Y29.77350
G01 X16.98089 Y29.69250
G01 X16.87518 Y29.56367
G01 X16.80629 Y29.49478
G01 X16.63832 Y29.36004
G01 X16.46133 Y29.26273
G01 X14.01864 Y29.26273
G01 X13.88349 Y29.33497
G01 X13.80249 Y29.38910
G01 X13.67368 Y29.49478
G01 X13.60480 Y29.56367
G01 X13.49908 Y29.69250
G01 X13.44496 Y29.77350
G01 X13.38773 Y29.88059
G01 X13.38773 Y30.77926
G01 X13.43007 Y30.91891
G01 X13.45943 Y30.98980
G01 X13.55773 Y31.16971
G01 X13.68633 Y31.32938
G01 X13.74061 Y31.38363
G01 X13.86942 Y31.48935
G01 X13.93322 Y31.53199
G01 X14.08016 Y31.61053
G01 X14.15108 Y31.63989
G01 X14.34780 Y31.69760
G01 X14.58999 Y31.72145
G01 X15.92837 Y31.71957
G01 X16.13218 Y31.69760
G01 X16.32890 Y31.63989
G01 X16.39981 Y31.61053
G01 X16.57970 Y31.51223
G01 X16.73936 Y31.38363
G01 X16.79364 Y31.32938
G01 X16.89936 Y31.20057
G01 X16.94198 Y31.13677
G01 X17.03695 Y30.95508
G01 X17.09826 Y30.75945
G01 X17.11325 Y30.68419
G01 X17.12958 Y30.51835
G01 X17.12958 Y30.44162
G01 X17.11325 Y30.27578
G01 X17.09826 Y30.20052
G01 X17.04990 Y30.04106
G01 X17.02054 Y29.97017
G01 X16.92224 Y29.79026
G01 X16.79364 Y29.63060
G01 X16.73936 Y29.57634
G01 X16.61056 Y29.47063
G01 X16.54675 Y29.42798
G01 X16.39981 Y29.34945
G01 X16.32890 Y29.32008
G01 X16.13357 Y29.26273
G04 P0 ( dwell for no time -- G64 should not smooth over this point )
G00 Z0.63500 ( retract )

G00 X12.22499 Y22.86000 ( rapid move to begin. )
G01 F30.00000
( Mill infeed pass 1/1 )
G01 Z-0.14000
G04 P0 ( dwell for no time -- G64 should not smooth over this point )
G01 F500.00000
G01 X12.22499 Y22.86000
G01 X12.23589 Y22.76018
G01 X12.26429 Y22.67156
G01 X12.30125 Y22.60239
G01 X12.36411 Y22.52411
G01 X12.43609 Y22.46503
G01 X12.52515 Y22.41867
G01 X12.60018 Y22.39589
G01 X12.69263 Y22.38535
G01 X12.79266 Y22.39411
G01 X12.88842 Y22.42429
G01 X12.96388 Y22.46503
G01 X13.03040 Y22.51916
G01 X13.09494 Y22.59609
G01 X13.13884 Y22.67821
G01 X13.16408 Y22.76018
G01 X13.17445 Y22.86917
G01 X14.10627 Y23.80099
G01 X14.67749 Y23.80099
G01 X14.67749 Y23.67374
G01 X14.68361 Y23.61156
G01 X14.69926 Y23.55868
G01 X14.72743 Y23.50295
G01 X14.77084 Y23.44834
G01 X14.81323 Y23.41308
G01 X14.87427 Y23.37925
G01 X14.93406 Y23.36112
G01 X14.99624 Y23.35500
G01 X15.49108 Y23.35535
G01 X15.54592 Y23.36112
G01 X15.59880 Y23.37676
G01 X15.66675 Y23.41308
G01 X15.70914 Y23.44834
G01 X15.75255 Y23.50295
G01 X15.78072 Y23.55868
G01 X15.79636 Y23.61156
G01 X15.80213 Y23.66637
G01 X15.80248 Y24.58623
G01 X15.79636 Y24.64841
G01 X15.77508 Y24.71486
G01 X15.74439 Y24.76924
G01 X15.70914 Y24.81163
G01 X15.66675 Y24.84689
G01 X15.60571 Y24.88072
G01 X15.54592 Y24.89886
G01 X15.48374 Y24.90498
G01 X14.99624 Y24.90498
G01 X14.93406 Y24.89886
G01 X14.87427 Y24.88072
G01 X14.81323 Y24.84689
G01 X14.77084 Y24.81163
G01 X14.72743 Y24.75702
G01 X14.69926 Y24.70130
G01 X14.68361 Y24.64841
G01 X14.67749 Y24.58623
G01 X14.67749 Y24.45898
G01 X13.96263 Y24.45863
G01 X13.91308 Y24.45375
G01 X13.85103 Y24.43643
G01 X13.78130 Y24.39916
G01 X13.73736 Y24.36261
G01 X12.70914 Y23.33445
G01 X12.61461 Y23.32693
G01 X12.51821 Y23.29884
G01 X12.43609 Y23.25494
G01 X12.36957 Y23.20082
G01 X12.30503 Y23.12388
G01 X12.26429 Y23.04842
G01 X12.23411 Y22.95266
G01 X12.22499 Y22.86000
G01 X12.11951 Y22.86000
G01 X12.13066 Y22.97323
G01 X12.15771 Y23.06546
G01 X12.17125 Y23.09815
G01 X12.21732 Y23.18248
G01 X12.28951 Y23.27046
G01 X12.36325 Y23.33208
G01 X12.39269 Y23.35174
G01 X12.47785 Y23.39630
G01 X12.56955 Y23.42502
G01 X12.66327 Y23.43772
G01 X12.66538 Y23.43391
G01 X12.66327 Y23.43772
G01 X13.66276 Y24.43721
G01 X13.71437 Y24.48070
G01 X13.74379 Y24.50036
G01 X13.82039 Y24.53737
G01 X13.90274 Y24.55873
G01 X13.95230 Y24.56360
G01 X14.57201 Y24.56447
G01 X14.59652 Y24.53737
G01 X14.57201 Y24.56447
G01 X14.58016 Y24.66901
G01 X14.59832 Y24.73190
G01 X14.61186 Y24.76459
G01 X14.64351 Y24.82192
G01 X14.69626 Y24.88621
G01 X14.74633 Y24.92842
G01 X14.77574 Y24.94808
G01 X14.83388 Y24.97818
G01 X14.89629 Y24.99802
G01 X14.93098 Y25.00493
G01 X14.99624 Y25.01047
G01 X15.48374 Y25.01047
G01 X15.54899 Y25.00493
G01 X15.58369 Y24.99802
G01 X15.66210 Y24.97061
G01 X15.70424 Y24.94808
G01 X15.77061 Y24.89812
G01 X15.79562 Y24.87310
G01 X15.83647 Y24.82192
G01 X15.86812 Y24.76459
G01 X15.88165 Y24.73190
G01 X15.89982 Y24.66901
G01 X15.90797 Y24.58623
G01 X15.90711 Y23.65604
G01 X15.89982 Y23.59096
G01 X15.88165 Y23.52807
G01 X15.86812 Y23.49538
G01 X15.83647 Y23.43805
G01 X15.79562 Y23.38687
G01 X15.77061 Y23.36185
G01 X15.70424 Y23.31189
G01 X15.66210 Y23.28936
G01 X15.62941 Y23.27582
G01 X15.54899 Y23.25505
G01 X15.48374 Y23.24951
G01 X14.99624 Y23.24951
G01 X14.93098 Y23.25505
G01 X14.89629 Y23.26196
G01 X14.83388 Y23.28179
G01 X14.77574 Y23.31189
G01 X14.74633 Y23.33155
G01 X14.69626 Y23.37377
G01 X14.64351 Y23.43805
G01 X14.61186 Y23.49538
G01 X14.59832 Y23.52807
G01 X14.58016 Y23.59096
G01 X14.57201 Y23.69551
G01 X14.59654 Y23.72269
G01 X14.57201 Y23.69551
G01 X14.14996 Y23.69551
G01 X14.14663 Y23.70353
G01 X14.14996 Y23.69551
G01 X13.27772 Y22.82327
G01 X13.27419 Y22.82525
G01 X13.27772 Y22.82327
G01 X13.26932 Y22.74674
G01 X13.24224 Y22.65451
G01 X13.22870 Y22.62182
G01 X13.18263 Y22.53750
G01 X13.11044 Y22.44951
G01 X13.02248 Y22.37732
G01 X12.93815 Y22.33125
G01 X12.83043 Y22.29495
G01 X12.79571 Y22.28804
G01 X12.68230 Y22.28037
G01 X12.56955 Y22.29495
G01 X12.47785 Y22.32368
G01 X12.39269 Y22.36823
G01 X12.36325 Y22.38789
G01 X12.27762 Y22.46264
G01 X12.21732 Y22.53750
G01 X12.17125 Y22.62182
G01 X12.15771 Y22.65451
G01 X12.13066 Y22.74674
G01 X12.11951 Y22.86000
G01 X12.01400 Y22.86000
G01 X12.02306 Y22.96604
G01 X12.03401 Y23.02104
G01 X12.05677 Y23.09607
G01 X12.07823 Y23.14786
G01 X12.12962 Y23.24110
G01 X12.19609 Y23.32426
G01 X12.23571 Y23.36389
G01 X12.31887 Y23.43036
G01 X12.41212 Y23.48174
G01 X12.46391 Y23.50320
G01 X12.53894 Y23.52596
G01 X12.59393 Y23.53691
G01 X12.61537 Y23.53902
G01 X12.61730 Y23.53561
G01 X12.61537 Y23.53902
G01 X13.58816 Y24.51181
G01 X13.64745 Y24.56226
G01 X13.69405 Y24.59340
G01 X13.76335 Y24.62886
G01 X13.83741 Y24.65278
G01 X13.89240 Y24.66370
G01 X13.97000 Y24.66998
G01 X14.47378 Y24.66995
G01 X14.48882 Y24.64958
G01 X14.47378 Y24.66995
G01 X14.47668 Y24.68959
G01 X14.49738 Y24.76254
G01 X14.51884 Y24.81433
G01 X14.55577 Y24.88054
G01 X14.62166 Y24.96081
G01 X14.67940 Y25.00998
G01 X14.76814 Y25.06365
G01 X14.81993 Y25.08509
G01 X14.92065 Y25.10991
G01 X14.99624 Y25.11598
G01 X15.48374 Y25.11598
G01 X15.55933 Y25.10991
G01 X15.61429 Y25.09896
G01 X15.68646 Y25.07564
G01 X15.71183 Y25.06365
G01 X15.80058 Y25.00998
G01 X15.85831 Y24.96081
G01 X15.87716 Y24.94001
G01 X15.92420 Y24.88054
G01 X15.96113 Y24.81433
G01 X15.98259 Y24.76254
G01 X16.00330 Y24.68959
G01 X16.01346 Y24.58623
G01 X16.01208 Y23.64570
G01 X16.00330 Y23.57039
G01 X15.99646 Y23.54316
G01 X15.96113 Y23.44565
G01 X15.92420 Y23.37943
G01 X15.90746 Y23.35690
G01 X15.85831 Y23.29917
G01 X15.83751 Y23.28032
G01 X15.80058 Y23.24999
G01 X15.75397 Y23.21885
G01 X15.68646 Y23.18433
G01 X15.61429 Y23.16102
G01 X15.55933 Y23.15007
G01 X15.48374 Y23.14400
G01 X14.99624 Y23.14400
G01 X14.92065 Y23.15007
G01 X14.81993 Y23.17488
G01 X14.76814 Y23.19632
G01 X14.67940 Y23.24999
G01 X14.62166 Y23.29917
G01 X14.55577 Y23.37943
G01 X14.51884 Y23.44565
G01 X14.49738 Y23.49744
G01 X14.47668 Y23.57039
G01 X14.47378 Y23.59002
G01 X14.48887 Y23.61052
G01 X14.47378 Y23.59002
G01 X14.19365 Y23.59000
G01 X14.19032 Y23.59805
G01 X14.19365 Y23.59000
G01 X13.37902 Y22.77537
G01 X13.37539 Y22.77740
G01 X13.37902 Y22.77537
G01 X13.37691 Y22.75393
G01 X13.36596 Y22.69894
G01 X13.33376 Y22.59747
G01 X13.28478 Y22.50295
G01 X13.25362 Y22.45634
G01 X13.18504 Y22.37494
G01 X13.10363 Y22.30633
G01 X13.05700 Y22.27519
G01 X12.98786 Y22.23823
G01 X12.93607 Y22.21677
G01 X12.86104 Y22.19401
G01 X12.80605 Y22.18306
G01 X12.72799 Y22.17539
G01 X12.67196 Y22.17539
G01 X12.59393 Y22.18306
G01 X12.53894 Y22.19401
G01 X12.43747 Y22.22622
G01 X12.34295 Y22.27519
G01 X12.29634 Y22.30633
G01 X12.21494 Y22.37494
G01 X12.14633 Y22.45634
G01 X12.11519 Y22.50295
G01 X12.07823 Y22.57212
G01 X12.05677 Y22.62391
G01 X12.03401 Y22.69894
G01 X12.02306 Y22.75393
G01 X12.01400 Y22.86000
G01 X11.90851 Y22.86000
G01 X11.92373 Y23.01441
G01 X11.95583 Y23.12670
G01 X11.98519 Y23.19759
G01 X12.04191 Y23.29970
G01 X12.11453 Y23.39116
G01 X12.16881 Y23.44544
G01 X12.22941 Y23.49518
G01 X12.29322 Y23.53782
G01 X12.36238 Y23.57478
G01 X12.43327 Y23.60414
G01 X12.50831 Y23.62690
G01 X12.56546 Y23.63828
G01 X12.56708 Y23.63559
G01 X12.56546 Y23.63828
G01 X13.51356 Y24.58641
G01 X13.58052 Y24.64379
G01 X13.64435 Y24.68641
G01 X13.72298 Y24.72632
G01 X13.80681 Y24.75372
G01 X13.88207 Y24.76868
G01 X13.97000 Y24.77546
G01 X14.39106 Y24.77546
G01 X14.40142 Y24.75918
G01 X14.39106 Y24.77546
G01 X14.39644 Y24.79314
G01 X14.42580 Y24.86406
G01 X14.44833 Y24.90620
G01 X14.49095 Y24.97000
G01 X14.54706 Y25.03541
G01 X14.57554 Y25.06121
G01 X14.61247 Y25.09152
G01 X14.67627 Y25.13416
G01 X14.75316 Y25.17310
G01 X14.83505 Y25.19992
G01 X14.91031 Y25.21488
G01 X14.95786 Y25.21956
G01 X15.52212 Y25.21956
G01 X15.56967 Y25.21488
G01 X15.64493 Y25.19992
G01 X15.72682 Y25.17310
G01 X15.80370 Y25.13416
G01 X15.86751 Y25.09152
G01 X15.93291 Y25.03541
G01 X16.01191 Y24.93914
G01 X16.05417 Y24.86406
G01 X16.08353 Y24.79314
G01 X16.10675 Y24.71016
G01 X16.11897 Y24.58623
G01 X16.11897 Y23.67374
G01 X16.10675 Y23.54981
G01 X16.08353 Y23.46683
G01 X16.05417 Y23.39591
G01 X16.01191 Y23.32083
G01 X15.93291 Y23.22457
G01 X15.86751 Y23.16846
G01 X15.80370 Y23.12581
G01 X15.72682 Y23.08687
G01 X15.64493 Y23.06005
G01 X15.56967 Y23.04509
G01 X15.52212 Y23.04042
G01 X14.99624 Y23.03851
G01 X14.91031 Y23.04509
G01 X14.83505 Y23.06005
G01 X14.75316 Y23.08687
G01 X14.67627 Y23.12581
G01 X14.61247 Y23.16846
G01 X14.54706 Y23.22457
G01 X14.46807 Y23.32083
G01 X14.42580 Y23.39591
G01 X14.39106 Y23.48451
G01 X14.40150 Y23.50094
G01 X14.39106 Y23.48451
G01 X14.23736 Y23.48451
G01 X14.23403 Y23.49256
G01 X14.23736 Y23.48451
G01 X13.47828 Y22.72546
G01 X13.47521 Y22.72723
G01 X13.47828 Y22.72546
G01 X13.46690 Y22.66831
G01 X13.44414 Y22.59327
G01 X13.41478 Y22.52238
G01 X13.37782 Y22.45322
G01 X13.33518 Y22.38941
G01 X13.25961 Y22.30034
G01 X13.17056 Y22.22480
G01 X13.10676 Y22.18215
G01 X13.00287 Y22.12876
G01 X12.89167 Y22.09307
G01 X12.81638 Y22.07809
G01 X12.73835 Y22.07042
G01 X12.66162 Y22.07042
G01 X12.58359 Y22.07809
G01 X12.50831 Y22.09307
G01 X12.39710 Y22.12876
G01 X12.29322 Y22.18215
G01 X12.22941 Y22.22480
G01 X12.16881 Y22.27453
G01 X12.11453 Y22.32881
G01 X12.06480 Y22.38941
G01 X12.02215 Y22.45322
G01 X11.98519 Y22.52238
G01 X11.95583 Y22.59327
G01 X11.92373 Y22.70557
G01 X11.90851 Y22.86000
G01 X11.80302 Y22.86000
G01 X11.82027 Y23.03498
G01 X11.85487 Y23.15733
G01 X11.89215 Y23.24732
G01 X11.92911 Y23.31649
G01 X11.95421 Y23.35832
G01 X12.03300 Y23.45809
G01 X12.10188 Y23.52698
G01 X12.16249 Y23.57674
G01 X12.24349 Y23.63086
G01 X12.35674 Y23.68867
G01 X12.47770 Y23.72787
G01 X12.51283 Y23.73485
G01 X12.51455 Y23.73196
G01 X12.51283 Y23.73485
G01 X13.43899 Y24.66099
G01 X13.51361 Y24.72533
G01 X13.59461 Y24.77945
G01 X13.63853 Y24.80292
G01 X13.68260 Y24.82378
G01 X13.77617 Y24.85466
G01 X13.87173 Y24.87366
G01 X13.92128 Y24.87856
G01 X14.31917 Y24.88095
G01 X14.32712 Y24.86739
G01 X14.31917 Y24.88095
G01 X14.33276 Y24.91379
G01 X14.38036 Y24.99774
G01 X14.47249 Y25.11001
G01 X14.54554 Y25.17305
G01 X14.62656 Y25.22718
G01 X14.71277 Y25.27056
G01 X14.80442 Y25.30086
G01 X14.89997 Y25.31986
G01 X14.94752 Y25.32456
G01 X15.48374 Y25.32695
G01 X15.58000 Y25.31986
G01 X15.67556 Y25.30086
G01 X15.72128 Y25.28700
G01 X15.76720 Y25.27056
G01 X15.85341 Y25.22718
G01 X15.93444 Y25.17305
G01 X15.97137 Y25.14275
G01 X16.04025 Y25.07386
G01 X16.09961 Y24.99774
G01 X16.12468 Y24.95593
G01 X16.12468 Y23.30404
G01 X16.07055 Y23.22304
G01 X16.00749 Y23.14997
G01 X15.93444 Y23.08692
G01 X15.85341 Y23.03280
G01 X15.81127 Y23.01027
G01 X15.76720 Y22.98941
G01 X15.67556 Y22.95911
G01 X15.58000 Y22.94011
G01 X15.53246 Y22.93541
G01 X14.99624 Y22.93302
G01 X14.89997 Y22.94011
G01 X14.80442 Y22.95911
G01 X14.71277 Y22.98941
G01 X14.66870 Y23.01027
G01 X14.62656 Y23.03280
G01 X14.54554 Y23.08692
G01 X14.47249 Y23.14997
G01 X14.38036 Y23.26223
G01 X14.33276 Y23.34618
G01 X14.31917 Y23.37902
G01 X14.32730 Y23.39315
G01 X14.31917 Y23.37902
G01 X14.28105 Y23.37902
G01 X14.27772 Y23.38705
G01 X14.28105 Y23.37902
G01 X13.57727 Y22.67527
G01 X13.57452 Y22.67692
G01 X13.57727 Y22.67527
G01 X13.56787 Y22.63770
G01 X13.54511 Y22.56264
G01 X13.50782 Y22.47265
G01 X13.47086 Y22.40349
G01 X13.41674 Y22.32249
G01 X13.33424 Y22.22574
G01 X13.23749 Y22.14324
G01 X13.15649 Y22.08911
G01 X13.04323 Y22.03130
G01 X12.87498 Y21.98027
G01 X12.74867 Y21.96541
G01 X12.65128 Y21.96541
G01 X12.57323 Y21.97311
G01 X12.47770 Y21.99211
G01 X12.35674 Y22.03130
G01 X12.24349 Y22.08911
G01 X12.16249 Y22.14324
G01 X12.06574 Y22.22574
G01 X11.98324 Y22.32249
G01 X11.92911 Y22.40349
G01 X11.89215 Y22.47265
G01 X11.85487 Y22.56264
G01 X11.82027 Y22.68499
G01 X11.80302 Y22.86000
G04 P0 ( dwell for no time -- G64 should not smooth over this point )
G00 Z0.63500 ( retract )

G00 X10.13303 Y18.24998 ( rapid move to begin. )
G01 F30.00000
( Mill infeed pass 1/1 )
G01 Z-0.14000
G04 P0 ( dwell for no time -- G64 should not smooth over this point )
G01 F500.00000
G01 X10.13303 Y18.24998
G01 X10.14258 Y18.15302
G01 X10.17085 Y18.05981
G01 X10.21679 Y17.97390
G01 X10.27859 Y17.89859
G01 X10.35390 Y17.83679
G01 X10.43981 Y17.79085
G01 X10.53302 Y17.76258
G01 X10.62998 Y17.75303
G01 X10.79538 Y17.75303
G01 X10.96508 Y17.79024
G01 X11.12446 Y17.81411
G01 X11.22431 Y17.82381
G01 X11.38375 Y17.83171
G01 X11.47882 Y17.83151
G01 X11.63564 Y17.82381
G01 X11.73292 Y17.81426
G01 X11.89487 Y17.79024
G01 X12.06457 Y17.75303
G01 X12.23000 Y17.75303
G01 X12.32695 Y17.76258
G01 X12.42017 Y17.79085
G01 X12.50607 Y17.83679
G01 X12.58138 Y17.89859
G01 X12.64318 Y17.97390
G01 X12.68913 Y18.05981
G01 X12.71740 Y18.15302
G01 X12.72695 Y18.24998
G01 X12.72695 Y19.49442
G01 X12.41135 Y19.81004
G01 X12.31486 Y19.88241
G01 X12.29459 Y19.88746
G01 X12.31486 Y19.88241
G01 X12.41047 Y19.81068
G01 X12.41047 Y18.24998
G01 X12.40701 Y18.21477
G01 X12.39675 Y18.18091
G01 X12.38006 Y18.14972
G01 X12.35761 Y18.12237
G01 X12.33025 Y18.09991
G01 X12.29906 Y18.08323
G01 X12.26520 Y18.07296
G01 X12.23000 Y18.06951
G01 X10.62998 Y18.06951
G01 X10.59477 Y18.07296
G01 X10.56091 Y18.08323
G01 X10.52972 Y18.09991
G01 X10.50237 Y18.12237
G01 X10.47991 Y18.14972
G01 X10.46323 Y18.18091
G01 X10.45296 Y18.21477
G01 X10.44951 Y18.24998
G01 X10.44951 Y19.85000
G01 X10.45296 Y19.88520
G01 X10.46323 Y19.91906
G01 X10.47991 Y19.95025
G01 X10.50237 Y19.97761
G01 X10.52972 Y20.00006
G01 X10.56091 Y20.01675
G01 X10.59477 Y20.02701
G01 X10.62998 Y20.03047
G01 X10.96716 Y20.03047
G01 X11.12878 Y19.96407
G01 X11.25657 Y19.92498
G01 X10.62998 Y19.92498
G01 X10.61535 Y19.92356
G01 X10.58832 Y19.91236
G01 X10.56762 Y19.89165
G01 X10.56068 Y19.87870
G01 X10.55500 Y19.85000
G01 X10.55500 Y18.24998
G01 X10.56068 Y18.22127
G01 X10.57697 Y18.19697
G01 X10.60127 Y18.18069
G01 X10.62998 Y18.17500
G01 X12.23000 Y18.17500
G01 X12.25870 Y18.18069
G01 X12.28301 Y18.19697
G01 X12.29929 Y18.22127
G01 X12.30498 Y18.24998
G01 X12.30498 Y19.85000
G01 X12.29929 Y19.87870
G01 X12.28301 Y19.90301
G01 X12.25870 Y19.91929
G01 X12.23000 Y19.92498
G01 X11.25657 Y19.92498
G01 X11.18098 Y19.94548
G01 X11.12754 Y19.96453
G01 X10.61189 Y20.17763
G01 X10.49228 Y20.21530
G01 X10.61189 Y20.17763
G01 X10.71245 Y20.13598
G01 X10.62998 Y20.13598
G01 X10.57420 Y20.13047
G01 X10.52055 Y20.11421
G01 X10.47110 Y20.08777
G01 X10.42777 Y20.05221
G01 X10.39221 Y20.00888
G01 X10.36577 Y19.95942
G01 X10.34951 Y19.90578
G01 X10.34400 Y19.85000
G01 X10.34400 Y18.24998
G01 X10.34951 Y18.19420
G01 X10.36577 Y18.14055
G01 X10.39221 Y18.09110
G01 X10.42777 Y18.04777
G01 X10.47110 Y18.01221
G01 X10.52055 Y17.98577
G01 X10.57420 Y17.96951
G01 X10.62998 Y17.96400
G01 X12.23000 Y17.96400
G01 X12.28578 Y17.96951
G01 X12.33942 Y17.98577
G01 X12.38888 Y18.01221
G01 X12.43221 Y18.04777
G01 X12.46777 Y18.09110
G01 X12.49421 Y18.14055
G01 X12.51047 Y18.19420
G01 X12.51598 Y18.24998
G01 X12.51598 Y19.70540
G01 X12.62146 Y19.59991
G01 X12.62146 Y18.24998
G01 X12.61394 Y18.17362
G01 X12.59167 Y18.10017
G01 X12.55547 Y18.03250
G01 X12.50681 Y17.97317
G01 X12.44747 Y17.92450
G01 X12.37981 Y17.88831
G01 X12.30635 Y17.86603
G01 X12.23000 Y17.85851
G01 X10.62998 Y17.85851
G01 X10.55362 Y17.86603
G01 X10.48017 Y17.88831
G01 X10.41250 Y17.92450
G01 X10.35317 Y17.97317
G01 X10.30450 Y18.03250
G01 X10.26831 Y18.10017
G01 X10.24603 Y18.17362
G01 X10.23851 Y18.24998
G01 X10.23851 Y19.85000
G01 X10.24603 Y19.92635
G01 X10.26831 Y19.99981
G01 X10.30450 Y20.06747
G01 X10.35317 Y20.12681
G01 X10.41250 Y20.17547
G01 X10.49228 Y20.21530
G01 X10.47062 Y20.22216
G01 X10.33023 Y20.24377
G01 X10.27859 Y20.20138
G01 X10.21679 Y20.12607
G01 X10.17085 Y20.04017
G01 X10.14258 Y19.94695
G01 X10.13303 Y19.85000
G01 X10.13303 Y18.24998
G01 X10.55500 Y18.24998
G04 P0 ( dwell for no time -- G64 should not smooth over this point )
G00 Z0.63500 ( retract )

G00 X16.55249 Y23.67374 ( rapid move to begin. )
G01 F30.00000
( Mill infeed pass 1/1 )
G01 Z-0.14000
G04 P0 ( dwell for no time -- G64 should not smooth over this point )
G01 F500.00000
G01 X16.55249 Y23.67374
G01 X16.55249 Y24.58623
G01 X16.55752 Y24.64115
G01 X16.57675 Y24.70821
G01 X16.61058 Y24.76924
G01 X16.64584 Y24.81163
G01 X16.70047 Y24.85504
G01 X16.74927 Y24.88072
G01 X16.80192 Y24.89708
G01 X16.87124 Y24.90498
G01 X17.35874 Y24.90498
G01 X17.42092 Y24.89886
G01 X17.48071 Y24.88072
G01 X17.54175 Y24.84689
G01 X17.58412 Y24.81163
G01 X17.61940 Y24.76924
G01 X17.65008 Y24.71486
G01 X17.67243 Y24.64115
G01 X17.67749 Y24.58623
G01 X17.67749 Y24.49276
G01 X18.57553 Y25.39081
G01 X18.58305 Y25.48537
G01 X18.61429 Y25.58839
G01 X18.65125 Y25.65758
G01 X18.70916 Y25.73038
G01 X18.79239 Y25.79873
G01 X18.86821 Y25.83884
G01 X18.95018 Y25.86406
G01 X19.04263 Y25.87462
G01 X19.14266 Y25.86584
G01 X19.23176 Y25.83884
G01 X19.31980 Y25.79055
G01 X19.39082 Y25.73038
G01 X19.44055 Y25.66977
G01 X19.48884 Y25.58174
G01 X19.51693 Y25.48537
G01 X19.52462 Y25.39263
G01 X19.51586 Y25.30732
G01 X19.49130 Y25.22515
G01 X19.44494 Y25.13609
G01 X19.38586 Y25.06411
G01 X19.31388 Y25.00503
G01 X19.23176 Y24.96114
G01 X19.14266 Y24.93411
G01 X19.04081 Y24.92553
G01 X18.01261 Y23.89736
G01 X17.96867 Y23.86081
G01 X17.91254 Y23.82919
G01 X17.84416 Y23.80732
G01 X17.78000 Y23.80099
G01 X17.67749 Y23.80099
G01 X17.67749 Y23.67374
G01 X17.67136 Y23.61156
G01 X17.65323 Y23.55177
G01 X17.62755 Y23.50295
G01 X17.58412 Y23.44834
G01 X17.54175 Y23.41308
G01 X17.48071 Y23.37925
G01 X17.42092 Y23.36112
G01 X17.35874 Y23.35500
G01 X16.87124 Y23.35500
G01 X16.80906 Y23.36112
G01 X16.75618 Y23.37676
G01 X16.68823 Y23.41308
G01 X16.64584 Y23.44834
G01 X16.61058 Y23.49073
G01 X16.57426 Y23.55868
G01 X16.55862 Y23.61156
G01 X16.55249 Y23.67374
G01 X16.44701 Y23.67374
G01 X16.44701 Y24.58623
G01 X16.45255 Y24.65149
G01 X16.45945 Y24.68618
G01 X16.47929 Y24.74859
G01 X16.50939 Y24.80673
G01 X16.52905 Y24.83617
G01 X16.57126 Y24.88621
G01 X16.62133 Y24.92842
G01 X16.65074 Y24.94808
G01 X16.72557 Y24.98415
G01 X16.80599 Y25.00493
G01 X16.85354 Y25.00960
G01 X17.35874 Y25.01047
G01 X17.42399 Y25.00493
G01 X17.45869 Y24.99802
G01 X17.52110 Y24.97818
G01 X17.57924 Y24.94808
G01 X17.60865 Y24.92842
G01 X17.65871 Y24.88621
G01 X17.70093 Y24.83617
G01 X17.74312 Y24.76459
G01 X17.75917 Y24.72362
G01 X17.74543 Y24.64618
G01 X17.75917 Y24.72362
G01 X18.47225 Y25.43668
G01 X18.47626 Y25.43452
G01 X18.47225 Y25.43668
G01 X18.48495 Y25.53040
G01 X18.51368 Y25.62212
G01 X18.55823 Y25.70729
G01 X18.62762 Y25.79733
G01 X18.65264 Y25.82235
G01 X18.72750 Y25.88265
G01 X18.81182 Y25.92873
G01 X18.91955 Y25.96502
G01 X18.95427 Y25.97191
G01 X19.06768 Y25.97958
G01 X19.16323 Y25.96929
G01 X19.25546 Y25.94226
G01 X19.28815 Y25.92873
G01 X19.37248 Y25.88265
G01 X19.44733 Y25.82235
G01 X19.47235 Y25.79733
G01 X19.54174 Y25.70729
G01 X19.58630 Y25.62212
G01 X19.61502 Y25.53040
G01 X19.62193 Y25.49571
G01 X19.62960 Y25.41768
G01 X19.62193 Y25.30427
G01 X19.59226 Y25.19451
G01 X19.57873 Y25.16182
G01 X19.53265 Y25.07750
G01 X19.46046 Y24.98951
G01 X19.37248 Y24.91732
G01 X19.28815 Y24.87125
G01 X19.25546 Y24.85771
G01 X19.16323 Y24.83066
G01 X19.08670 Y24.82225
G01 X19.08472 Y24.82578
G01 X19.08670 Y24.82225
G01 X18.08721 Y23.82276
G01 X18.03560 Y23.77928
G01 X17.96227 Y23.73615
G01 X17.88193 Y23.70816
G01 X17.78297 Y23.69563
G01 X17.76359 Y23.71354
G01 X17.78297 Y23.69563
G01 X17.77743 Y23.60849
G01 X17.77053 Y23.57379
G01 X17.75069 Y23.51138
G01 X17.72059 Y23.45324
G01 X17.70093 Y23.42380
G01 X17.65871 Y23.37377
G01 X17.60865 Y23.33155
G01 X17.57924 Y23.31189
G01 X17.52110 Y23.28179
G01 X17.45869 Y23.26196
G01 X17.42399 Y23.25505
G01 X17.35874 Y23.24951
G01 X16.87124 Y23.24951
G01 X16.80599 Y23.25505
G01 X16.77129 Y23.26196
G01 X16.70888 Y23.28179
G01 X16.65074 Y23.31189
G01 X16.62133 Y23.33155
G01 X16.57126 Y23.37377
G01 X16.52905 Y23.42380
G01 X16.48686 Y23.49538
G01 X16.47332 Y23.52807
G01 X16.45255 Y23.60849
G01 X16.44701 Y23.67374
G01 X16.34150 Y23.67374
G01 X16.34150 Y24.58623
G01 X16.34757 Y24.66183
G01 X16.35851 Y24.71682
G01 X16.38183 Y24.78895
G01 X16.41635 Y24.85647
G01 X16.44749 Y24.90307
G01 X16.49667 Y24.96081
G01 X16.51747 Y24.97966
G01 X16.55440 Y25.00998
G01 X16.60101 Y25.04112
G01 X16.66852 Y25.07564
G01 X16.74066 Y25.09896
G01 X16.79565 Y25.10991
G01 X16.84320 Y25.11458
G01 X17.35874 Y25.11598
G01 X17.43433 Y25.10991
G01 X17.48930 Y25.09896
G01 X17.56146 Y25.07564
G01 X17.62897 Y25.04112
G01 X17.67558 Y25.00998
G01 X17.73331 Y24.96081
G01 X17.78246 Y24.90307
G01 X17.78526 Y24.89891
G01 X17.78401 Y24.85118
G01 X17.78526 Y24.89891
G01 X18.37096 Y25.48461
G01 X18.37436 Y25.48268
G01 X18.37096 Y25.48461
G01 X18.37306 Y25.50605
G01 X18.38401 Y25.56104
G01 X18.41622 Y25.66251
G01 X18.46519 Y25.75702
G01 X18.49633 Y25.80363
G01 X18.56494 Y25.88504
G01 X18.64634 Y25.95364
G01 X18.69295 Y25.98478
G01 X18.76212 Y26.02174
G01 X18.81391 Y26.04320
G01 X18.88894 Y26.06596
G01 X18.94393 Y26.07691
G01 X19.02196 Y26.08458
G01 X19.07802 Y26.08458
G01 X19.18381 Y26.07280
G01 X19.31251 Y26.03376
G01 X19.43110 Y25.97033
G01 X19.53504 Y25.88504
G01 X19.60364 Y25.80363
G01 X19.63478 Y25.75702
G01 X19.68376 Y25.66251
G01 X19.71596 Y25.56104
G01 X19.72691 Y25.50605
G01 X19.73458 Y25.42802
G01 X19.73458 Y25.37196
G01 X19.72691 Y25.29393
G01 X19.71596 Y25.23894
G01 X19.69320 Y25.16391
G01 X19.67174 Y25.11212
G01 X19.63478 Y25.04295
G01 X19.60364 Y24.99634
G01 X19.53504 Y24.91494
G01 X19.45363 Y24.84633
G01 X19.40702 Y24.81519
G01 X19.33786 Y24.77823
G01 X19.28607 Y24.75677
G01 X19.21104 Y24.73401
G01 X19.15604 Y24.72306
G01 X19.13461 Y24.72096
G01 X19.13283 Y24.72400
G01 X19.13461 Y24.72096
G01 X18.14101 Y23.72931
G01 X18.10253 Y23.69772
G01 X18.05592 Y23.66658
G01 X18.01200 Y23.64311
G01 X17.96021 Y23.62167
G01 X17.91256 Y23.60719
