( pcb2gcode 2.5.0 )
( Software-independent Gcode )

G94 ( Millimeters per minute feed rate. )
G21 ( Units == Millimeters. )

G90 ( Absolute coordinates. )
G00 S10000 ( RPM spindle speed. )
G64 P0.01016 ( set maximum deviation from commanded toolpath )
G01 F500.00000 ( Feedrate. )


G00 Z17.83500 (Retract to tool change height)
T1
M5      (Spindle stop.)
G04 P1.00000 (Wait for spindle to stop)
(MSG, Change tool bit to mill diameter 0.80000mm)
M6      (Tool change.)
M0      (Temporary machine stop.)
M3 ( Spindle on clockwise. )
G04 P1.00000 (Wait for spindle to get up to speed)
G04 P0 ( dwell for no time -- G64 should not smooth over this point )
G00 Z0.63500 ( retract )

G00 X4.85727 Y11.77983 ( rapid move to begin. )
G01 F30.00000
( Mill infeed pass 1/1 )
G01 Z-0.14000
G04 P0 ( dwell for no time -- G64 should not smooth over this point )
G01 F500.00000
G01 X4.85727 Y11.77983
G01 X3.98569 Y11.77983
G01 X3.94482 Y11.85631
G01 X3.86232 Y12.05547
G01 X3.81396 Y12.21494
G01 X3.78772 Y12.31961
G01 X3.77190 Y12.42637
G01 X3.75557 Y12.59220
G01 X3.75026 Y12.70000
G01 X4.44998 Y12.70000
G01 X3.75026 Y12.70000
G01 X3.75557 Y12.80777
G01 X3.77190 Y12.97361
G01 X3.78772 Y13.08034
G01 X3.81396 Y13.18504
G01 X3.86232 Y13.34450
G01 X3.94482 Y13.54366
G01 X4.02336 Y13.69063
G01 X4.07886 Y13.78318
G01 X4.14315 Y13.86987
G01 X4.24886 Y13.99868
G01 X4.40129 Y14.15113
G01 X4.53009 Y14.25684
G01 X4.70934 Y14.37660
G01 X4.85630 Y14.45514
G01 X5.05546 Y14.53764
G01 X5.21492 Y14.58603
G01 X5.42638 Y14.62809
G01 X5.59219 Y14.64442
G01 X5.69999 Y14.64970
G01 X6.99999 Y14.64970
G01 X7.10778 Y14.64442
G01 X7.27359 Y14.62809
G01 X7.38035 Y14.61224
G01 X7.48505 Y14.58603
G01 X7.64451 Y14.53764
G01 X7.84367 Y14.45514
G01 X7.99064 Y14.37660
G01 X8.08319 Y14.32113
G01 X8.16988 Y14.25684
G01 X8.29869 Y14.15113
G01 X8.37865 Y14.07864
G01 X8.45111 Y13.99868
G01 X8.55683 Y13.86987
G01 X8.67661 Y13.69063
G01 X8.75515 Y13.54366
G01 X8.80130 Y13.44613
G01 X8.83765 Y13.34450
G01 X8.88601 Y13.18504
G01 X8.92807 Y12.97361
G01 X8.94441 Y12.80777
G01 X8.94972 Y12.70000
G01 X8.94441 Y12.59220
G01 X8.92807 Y12.42637
G01 X8.88601 Y12.21494
G01 X8.83765 Y12.05547
G01 X8.75515 Y11.85631
G01 X8.71428 Y11.77983
G01 X7.84271 Y11.77983
G01 X7.69445 Y11.66066
G01 X7.51383 Y11.56193
G01 X7.44139 Y11.53190
G01 X7.24385 Y11.47402
G01 X7.03920 Y11.45192
G01 X5.69999 Y11.44999
G01 X5.45612 Y11.47402
G01 X5.25859 Y11.53190
G01 X5.18615 Y11.56193
G01 X5.03918 Y11.64046
G01 X4.97401 Y11.68403
G01 X4.84518 Y11.78974
G01 X4.78975 Y11.84519
G01 X4.66065 Y12.00551
G01 X4.56192 Y12.18616
G01 X4.53192 Y12.25860
G01 X4.48353 Y12.41803
G01 X4.46824 Y12.49495
G01 X4.44998 Y12.70000
G01 X4.47401 Y12.94384
G01 X4.53192 Y13.14138
G01 X4.56192 Y13.21382
G01 X4.64048 Y13.36078
G01 X4.68404 Y13.42598
G01 X4.78975 Y13.55479
G01 X4.84518 Y13.61023
G01 X4.97401 Y13.71595
G01 X5.03918 Y13.75951
G01 X5.18615 Y13.83805
G01 X5.25859 Y13.86807
G01 X5.41805 Y13.91643
G01 X5.49496 Y13.93172
G01 X5.69999 Y13.94998
G01 X6.99999 Y13.94998
G01 X7.20501 Y13.93172
G01 X7.28193 Y13.91643
G01 X7.44139 Y13.86807
G01 X7.51383 Y13.83805
G01 X7.69445 Y13.73932
G01 X7.85480 Y13.61023
G01 X7.91022 Y13.55479
G01 X8.01594 Y13.42598
G01 X8.05950 Y13.36078
G01 X8.15485 Y13.17831
G01 X8.21644 Y12.98194
G01 X8.23173 Y12.90500
G01 X8.25000 Y12.70000
G01 X8.23173 Y12.49495
G01 X8.21644 Y12.41803
G01 X8.16806 Y12.25860
G01 X8.13806 Y12.18616
G01 X8.03933 Y12.00551
G01 X7.91022 Y11.84519
G01 X7.84271 Y11.77983
G01 X7.84273 Y11.08011
G01 X8.71428 Y11.08011
G01 X8.75515 Y11.00366
G01 X8.83765 Y10.80450
G01 X8.88601 Y10.64504
G01 X8.92807 Y10.43361
G01 X8.94441 Y10.26777
G01 X8.94972 Y10.16000
G01 X8.94441 Y10.05220
G01 X8.92807 Y9.88637
G01 X8.88601 Y9.67494
G01 X8.83765 Y9.51547
G01 X8.75515 Y9.31631
G01 X8.67661 Y9.16935
G01 X8.62112 Y9.07679
G01 X8.55683 Y8.99010
G01 X8.45111 Y8.86130
G01 X8.29869 Y8.70885
G01 X8.16988 Y8.60313
G01 X8.08319 Y8.53885
G01 X7.99064 Y8.48337
G01 X7.84367 Y8.40483
G01 X7.64451 Y8.32234
G01 X7.48505 Y8.27395
G01 X7.38035 Y8.24774
G01 X7.27359 Y8.23189
G01 X7.10778 Y8.21555
G01 X6.99999 Y8.21027
G01 X5.69999 Y8.21027
G01 X5.59219 Y8.21555
G01 X5.42638 Y8.23189
G01 X5.31962 Y8.24774
G01 X5.21492 Y8.27395
G01 X5.05546 Y8.32234
G01 X4.85630 Y8.40483
G01 X4.70934 Y8.48337
G01 X4.61678 Y8.53885
G01 X4.53009 Y8.60313
G01 X4.40129 Y8.70885
G01 X4.24886 Y8.86130
G01 X4.14315 Y8.99010
G01 X4.07886 Y9.07679
G01 X4.02336 Y9.16935
G01 X3.94482 Y9.31631
G01 X3.86232 Y9.51547
G01 X3.81396 Y9.67494
G01 X3.78772 Y9.77961
G01 X3.77190 Y9.88637
G01 X3.75557 Y10.05220
G01 X3.75026 Y10.16000
G01 X4.44998 Y10.16000
G01 X3.75026 Y10.16000
G01 X3.75557 Y10.26777
G01 X3.77190 Y10.43361
G01 X3.81396 Y10.64504
G01 X3.86232 Y10.80450
G01 X3.89867 Y10.90612
G01 X3.98569 Y11.08011
G01 X4.85722 Y11.08011
G01 X4.97401 Y11.17595
G01 X5.03918 Y11.21951
G01 X5.18615 Y11.29805
G01 X5.25859 Y11.32807
G01 X5.45612 Y11.38596
G01 X5.69999 Y11.40998
G01 X6.99999 Y11.40998
G01 X7.24385 Y11.38596
G01 X7.44139 Y11.32807
G01 X7.51383 Y11.29805
G01 X7.69445 Y11.19932
G01 X7.85480 Y11.07023
G01 X7.91022 Y11.01479
G01 X8.03933 Y10.85446
G01 X8.13806 Y10.67382
G01 X8.16806 Y10.60138
G01 X8.21644 Y10.44194
G01 X8.23173 Y10.36503
G01 X8.25000 Y10.16000
G01 X8.23173 Y9.95495
G01 X8.21644 Y9.87803
G01 X8.16806 Y9.71860
G01 X8.13806 Y9.64616
G01 X8.03933 Y9.46551
G01 X7.91022 Y9.30519
G01 X7.85480 Y9.24974
G01 X7.69445 Y9.12066
G01 X7.51383 Y9.02193
G01 X7.44139 Y8.99190
G01 X7.24385 Y8.93402
G01 X6.99999 Y8.90999
G01 X5.69999 Y8.90999
G01 X5.45612 Y8.93402
G01 X5.25859 Y8.99190
G01 X5.18615 Y9.02193
G01 X5.00553 Y9.12066
G01 X4.84518 Y9.24974
G01 X4.78975 Y9.30519
G01 X4.68404 Y9.43399
G01 X4.64048 Y9.49919
G01 X4.56192 Y9.64616
G01 X4.53192 Y9.71860
G01 X4.48353 Y9.87803
G01 X4.46824 Y9.95495
G01 X4.44998 Y10.16000
G01 X4.46824 Y10.36503
G01 X4.48353 Y10.44194
G01 X4.53192 Y10.60138
G01 X4.56192 Y10.67382
G01 X4.64048 Y10.82078
G01 X4.68404 Y10.88598
G01 X4.81609 Y11.04387
G01 X4.97401 Y11.17595
G01 X5.03918 Y11.21951
G01 X5.18615 Y11.29805
G01 X5.25859 Y11.32807
G01 X5.45612 Y11.38596
G01 X5.69999 Y11.40998
G01 X6.99999 Y11.40998
G01 X7.24385 Y11.38596
G01 X7.44139 Y11.32807
G01 X7.51383 Y11.29805
G01 X7.69445 Y11.19932
G01 X7.84273 Y11.08011
G01 X10.66569 Y10.50983
G01 X10.76330 Y10.43221
G01 X10.93528 Y10.33810
G01 X11.00772 Y10.30811
G01 X11.19589 Y10.25304
G01 X11.43000 Y10.22998
G01 X11.62528 Y10.24727
G01 X11.70216 Y10.26259
G01 X11.85225 Y10.30811
G01 X11.92469 Y10.33810
G01 X12.09667 Y10.43221
G01 X12.24943 Y10.55510
G01 X12.30488 Y10.61055
G01 X12.42776 Y10.76330
G01 X12.52187 Y10.93528
G01 X12.55187 Y11.00772
G01 X12.59738 Y11.15781
G01 X12.61270 Y11.23470
G01 X12.63000 Y11.43000
G01 X12.61270 Y11.62528
G01 X12.59738 Y11.70216
G01 X12.55187 Y11.85225
G01 X12.52187 Y11.92469
G01 X12.42776 Y12.09667
G01 X12.30488 Y12.24943
G01 X12.24943 Y12.30488
G01 X12.09667 Y12.42776
G01 X11.92469 Y12.52187
G01 X11.85225 Y12.55187
G01 X11.70216 Y12.59738
G01 X11.62528 Y12.61270
G01 X11.43000 Y12.63000
G01 X11.23470 Y12.61270
G01 X11.15781 Y12.59738
G01 X11.00772 Y12.55187
G01 X10.93528 Y12.52187
G01 X10.76330 Y12.42776
G01 X10.61055 Y12.30488
G01 X10.55510 Y12.24943
G01 X10.43221 Y12.09667
G01 X10.32134 Y11.88921
G01 X10.25304 Y11.66409
G01 X10.22998 Y11.43000
G01 X9.53557 Y11.53777
G01 X10.22998 Y11.43000
G01 X10.25304 Y11.19589
G01 X10.30811 Y11.00772
G01 X10.33810 Y10.93528
G01 X10.41204 Y10.79698
G01 X10.45561 Y10.73178
G01 X10.55510 Y10.61055
G01 X10.61055 Y10.55510
G01 X10.66569 Y10.50983
G01 X10.66566 Y9.81011
G01 X10.61055 Y9.76488
G01 X10.55510 Y9.70943
G01 X10.45561 Y9.58820
G01 X10.41204 Y9.52299
G01 X10.33810 Y9.38469
G01 X10.30811 Y9.31225
G01 X10.25304 Y9.12409
G01 X10.22998 Y8.89000
G01 X9.53557 Y8.99777
G01 X10.22998 Y8.89000
G01 X10.25304 Y8.65589
G01 X10.32134 Y8.43077
G01 X10.43221 Y8.22330
G01 X10.55510 Y8.07055
G01 X10.61055 Y8.01510
G01 X10.66569 Y7.96983
G01 X10.73178 Y7.91561
G01 X10.79698 Y7.87204
G01 X10.93528 Y7.79810
G01 X11.00772 Y7.76811
G01 X11.19589 Y7.71304
G01 X11.43000 Y7.68998
G01 X11.62528 Y7.70727
G01 X11.70216 Y7.72259
G01 X11.85225 Y7.76811
G01 X11.92469 Y7.79810
G01 X12.09667 Y7.89221
G01 X12.24943 Y8.01510
G01 X12.30488 Y8.07055
G01 X12.42776 Y8.22330
G01 X12.53863 Y8.43077
G01 X12.59738 Y8.61781
G01 X12.61270 Y8.69470
G01 X12.63000 Y8.89000
G01 X12.61270 Y9.08528
G01 X12.59738 Y9.16216
G01 X12.53863 Y9.34921
G01 X12.42776 Y9.55667
G01 X12.30488 Y9.70943
G01 X12.24943 Y9.76488
G01 X12.09667 Y9.88776
G01 X11.92469 Y9.98187
G01 X11.85225 Y10.01187
G01 X11.66409 Y10.06693
G01 X11.46919 Y10.08807
G01 X11.39078 Y10.08807
G01 X11.19589 Y10.06693
G01 X11.00772 Y10.01187
G01 X10.93528 Y9.98187
G01 X10.79698 Y9.90793
G01 X10.73178 Y9.86437
G01 X10.66566 Y9.81011
G01 X9.77209 Y9.81011
G01 X9.72101 Y9.71453
G01 X9.63851 Y9.51537
G01 X9.59300 Y9.36528
G01 X9.56676 Y9.26061
G01 X9.55093 Y9.15386
G01 X9.53557 Y8.99777
G01 X9.53557 Y8.78220
G01 X9.55093 Y8.62612
G01 X9.56676 Y8.51936
G01 X9.59300 Y8.41469
G01 X9.63851 Y8.26460
G01 X9.72101 Y8.06544
G01 X9.77212 Y7.96983
G01 X10.66569 Y7.96983
G01 X10.73178 Y7.91561
G01 X10.79698 Y7.87204
G01 X10.93528 Y7.79810
G01 X11.00772 Y7.76811
G01 X11.19589 Y7.71304
G01 X11.39078 Y7.69191
G01 X11.46919 Y7.69191
G01 X11.66409 Y7.71304
G01 X11.85225 Y7.76811
G01 X11.92469 Y7.79810
G01 X12.06299 Y7.87204
G01 X12.12820 Y7.91561
G01 X12.19429 Y7.96983
G01 X13.08786 Y7.96983
G01 X13.13896 Y8.06544
G01 X13.22146 Y8.26460
G01 X13.26695 Y8.41469
G01 X13.29322 Y8.51936
G01 X13.30904 Y8.62612
G01 X13.32441 Y8.78220
G01 X13.32441 Y8.99777
G01 X13.30904 Y9.15386
G01 X13.29322 Y9.26061
G01 X13.26695 Y9.36528
G01 X13.22146 Y9.51537
G01 X13.13896 Y9.71453
G01 X13.08788 Y9.81011
G01 X12.19431 Y9.81011
G01 X14.27831 Y12.65646
G01 X14.12733 Y12.62644
G01 X14.07777 Y12.62156
G01 X13.97000 Y12.61626
G01 X13.61732 Y12.61626
G01 X13.53571 Y12.67046
G01 X13.37889 Y12.76447
G01 X13.13180 Y12.89817
G01 X12.87203 Y13.02108
G01 X12.77701 Y13.04638
G01 X12.77798 Y13.05298
G01 X12.77701 Y13.04638
G01 X12.72794 Y13.04983
G01 X12.19429 Y13.04983
G01 X12.12820 Y12.99561
G01 X12.06299 Y12.95204
G01 X11.88921 Y12.86134
G01 X11.70216 Y12.80259
G01 X11.62528 Y12.78727
G01 X11.43000 Y12.76995
G01 X11.23470 Y12.78727
G01 X11.15781 Y12.80259
G01 X11.00772 Y12.84811
G01 X10.93528 Y12.87810
G01 X10.79698 Y12.95204
G01 X10.73178 Y12.99561
G01 X10.66569 Y13.04983
G01 X10.61055 Y13.09510
G01 X10.55510 Y13.15055
G01 X10.45561 Y13.27175
G01 X10.41204 Y13.33698
G01 X10.33810 Y13.47528
G01 X10.30811 Y13.54772
G01 X10.25304 Y13.73589
G01 X10.22998 Y13.97000
G01 X10.24727 Y14.16528
G01 X10.26259 Y14.24216
G01 X10.30811 Y14.39225
G01 X10.33810 Y14.46469
G01 X10.43221 Y14.63667
G01 X10.55510 Y14.78943
G01 X10.61055 Y14.84488
G01 X10.73178 Y14.94437
G01 X10.79698 Y14.98793
G01 X10.93528 Y15.06187
G01 X11.00772 Y15.09187
G01 X11.15781 Y15.13738
G01 X11.23470 Y15.15270
G01 X11.43000 Y15.17000
G01 X11.62528 Y15.15270
G01 X11.70216 Y15.13738
G01 X11.85225 Y15.09187
G01 X11.92469 Y15.06187
G01 X12.06299 Y14.98793
G01 X12.12820 Y14.94437
G01 X12.24943 Y14.84488
G01 X12.30488 Y14.78943
G01 X12.40437 Y14.66820
G01 X12.43536 Y14.62397
G01 X13.69908 Y14.62397
G01 X14.58598 Y15.51089
G01 X14.58600 Y20.01109
G01 X14.40335 Y19.83118
G01 X14.36487 Y19.79958
G01 X14.29967 Y19.75602
G01 X14.25575 Y19.73255
G01 X14.18331 Y19.70255
G01 X14.13566 Y19.68810
G01 X14.05875 Y19.67278
G01 X13.97000 Y19.66598
G01 X12.63000 Y19.66598
G01 X12.44597 Y19.85000
G01 X12.33797 Y19.93100
G01 X12.23000 Y19.95800
G01 X11.41938 Y19.95825
G01 X11.29787 Y19.97024
G01 X11.22406 Y19.98751
G01 X11.13008 Y20.02008
G01 X10.62995 Y20.22724
G01 X10.58301 Y20.24202
G01 X9.69754 Y21.12754
G01 X9.65032 Y21.18091
G01 X9.59261 Y21.26567
G01 X9.54888 Y21.35843
G01 X9.52017 Y21.45688
G01 X9.51034 Y21.51888
G01 X9.50598 Y21.59000
G01 X8.83298 Y21.53201
G01 X9.50598 Y21.59000
G01 X9.50598 Y24.13000
G01 X9.51278 Y24.21875
G01 X9.52810 Y24.29566
G01 X9.55576 Y24.38027
G01 X9.57255 Y24.41575
G01 X9.59602 Y24.45967
G01 X9.63958 Y24.52487
G01 X9.69754 Y24.59243
G01 X10.96754 Y25.86243
G01 X11.03511 Y25.92040
G01 X11.10031 Y25.96396
G01 X11.14422 Y25.98740
G01 X11.21667 Y26.01742
G01 X11.30239 Y26.04143
G01 X11.34123 Y26.04719
G01 X11.43000 Y26.05400
G01 X12.41676 Y26.05400
G01 X12.43714 Y26.06205
G01 X12.41676 Y26.05400
G01 X12.42908 Y26.05400
G01 X13.50754 Y27.13243
G01 X13.58692 Y27.19827
G01 X13.72873 Y27.17419
G01 X13.85176 Y27.14546
G01 X14.04028 Y27.08831
G01 X14.23048 Y27.04186
G01 X14.39710 Y27.01714
G01 X14.58181 Y27.00718
G01 X15.89814 Y27.00718
G01 X16.08285 Y27.01714
G01 X16.24947 Y27.04186
G01 X16.34637 Y27.06494
G01 X16.44129 Y27.13685
G01 X16.58107 Y27.26502
G01 X16.70883 Y27.40782
G01 X16.80916 Y27.54312
G01 X16.91467 Y27.71620
G01 X17.01018 Y27.91338
G01 X17.03309 Y27.96885
G01 X17.11150 Y28.19639
G01 X17.56207 Y28.64696
G01 X17.59024 Y28.90810
G01 X17.59829 Y29.06771
G01 X17.65950 Y29.13576
G01 X17.79984 Y29.30637
G01 X17.90959 Y29.45625
G01 X18.04035 Y29.65143
G01 X18.13657 Y29.81437
G01 X18.25153 Y30.02928
G01 X18.44200 Y30.41813
G01 X18.53194 Y30.46067
G01 X18.63354 Y30.49702
G01 X18.78589 Y30.53768
G01 X18.89265 Y30.55353
G01 X19.05000 Y30.56372
G01 X21.02927 Y30.56372
G01 X21.05061 Y30.51180
G01 X21.02927 Y30.56372
G01 X21.90275 Y31.43722
G01 X22.02122 Y31.54129
G01 X22.20046 Y31.66105
G01 X22.34194 Y31.73067
G01 X22.49119 Y31.78147
G01 X22.59589 Y31.80768
G01 X22.75220 Y31.82841
G01 X22.86000 Y31.83372
G01 X36.83000 Y31.83372
G01 X36.98733 Y31.82353
G01 X37.09408 Y31.80768
G01 X37.19878 Y31.78147
G01 X37.34803 Y31.73067
G01 X37.48951 Y31.66105
G01 X37.66876 Y31.54129
G01 X37.70724 Y31.50969
G01 X37.78722 Y31.43722
G01 X39.05722 Y30.16722
G01 X39.12969 Y30.08724
G01 X39.16129 Y30.04876
G01 X39.28105 Y29.86951
G01 X39.35067 Y29.72803
G01 X39.40147 Y29.57878
G01 X39.43020 Y29.45719
G01 X39.39692 Y29.19397
G01 X39.36997 Y28.92395
G01 X39.35550 Y28.65199
G01 X39.36385 Y28.57434
G01 X39.40056 Y28.35598
G01 X39.42403 Y28.11849
G01 X39.42702 Y27.82268
G01 X39.40056 Y27.52397
G01 X39.35623 Y27.26703
G01 X39.36825 Y26.98864
G01 X39.30089 Y26.85923
G01 X39.02738 Y26.29405
G01 X38.76886 Y25.78550
G01 X38.52502 Y25.73757
G01 X38.22601 Y25.65283
G01 X38.11229 Y25.61095
G01 X37.95690 Y25.54679
G01 X37.85232 Y25.49743
G01 X37.29243 Y24.93754
G01 X37.22487 Y24.87958
G01 X37.15967 Y24.83602
G01 X37.08027 Y24.79576
G01 X36.99566 Y24.76810
G01 X36.91875 Y24.75278
G01 X36.83000 Y24.74598
G01 X33.29089 Y24.74598
G01 X32.40400 Y23.85908
G01 X32.40400 Y21.86089
G01 X34.42879 Y19.83608
G01 X34.48413 Y19.82508
G01 X34.55916 Y19.80232
G01 X34.63163 Y19.77230
G01 X34.70077 Y19.73534
G01 X34.75177 Y19.70128
G01 X35.14026 Y19.51457
G01 X35.30636 Y19.42551
G01 X35.37435 Y19.38475
G01 X35.43094 Y19.35742
G01 X35.42861 Y19.35048
G01 X35.43094 Y19.35742
G01 X35.49152 Y19.34063
G01 X35.55413 Y19.33496
G01 X35.55385 Y19.33214
G01 X35.55413 Y19.33496
G01 X36.02878 Y19.33481
G01 X36.17323 Y19.19691
G01 X36.33526 Y19.06819
G01 X37.12982 Y19.06770
G01 X35.19597 Y19.06890
G01 X35.07608 Y19.18879
G01 X35.06508 Y19.24413
G01 X35.04232 Y19.31916
G01 X35.01230 Y19.39163
G01 X34.95518 Y19.49445
G01 X34.88202 Y19.58657
G01 X34.82657 Y19.64202
G01 X34.76597 Y19.69178
G01 X34.70077 Y19.73534
G01 X34.59615 Y19.78909
G01 X34.53488 Y19.80966
G01 X34.45015 Y19.85312
G01 X34.44857 Y19.85058
G01 X34.45015 Y19.85312
G01 X34.41184 Y19.87629
G01 X34.34210 Y19.93410
G01 X33.91893 Y20.35622
G01 X33.90135 Y20.36351
G01 X32.51850 Y21.74636
G01 X32.46125 Y21.88459
G01 X32.44134 Y21.95022
G01 X32.43095 Y21.94824
G01 X32.44134 Y21.95022
G01 X32.43461 Y22.01847
G01 X32.43572 Y22.24517
G01 X32.45452 Y22.47560
G01 X32.50049 Y22.71994
G01 X32.53844 Y22.85997
G01 X32.50420 Y22.98339
G01 X32.46717 Y23.16129
G01 X32.43979 Y23.39993
G01 X32.43461 Y23.70148
G01 X32.43052 Y23.70183
G01 X32.43461 Y23.70148
G01 X32.44134 Y23.76973
G01 X32.46125 Y23.83536
G01 X32.45800 Y23.83633
G01 X32.46125 Y23.83536
G01 X32.51853 Y23.97364
G01 X33.29089 Y24.74598
G01 X36.83000 Y24.74598
G01 X36.91875 Y24.75278
G01 X36.99566 Y24.76810
G01 X37.04331 Y24.78255
G01 X37.08027 Y24.79576
G01 X37.15967 Y24.83602
G01 X37.22487 Y24.87958
G01 X37.29243 Y24.93754
G01 X38.56243 Y26.20754
G01 X38.62040 Y26.27511
G01 X38.66396 Y26.34031
G01 X38.68743 Y26.38420
G01 X38.70422 Y26.41971
G01 X38.73188 Y26.50432
G01 X38.74143 Y26.54236
G01 X38.75207 Y26.63078
G01 X38.75400 Y27.48227
G01 X38.78534 Y27.52921
G01 X38.82230 Y27.59834
G01 X38.85232 Y27.67081
G01 X38.87508 Y27.74584
G01 X38.89037 Y27.82275
G01 X38.89807 Y27.90078
G01 X38.89807 Y27.97919
G01 X38.89037 Y28.05722
G01 X38.87508 Y28.13413
G01 X38.83909 Y28.24615
G01 X38.78534 Y28.35077
G01 X38.75400 Y28.39771
G01 X38.75400 Y29.21000
G01 X38.74143 Y29.33758
G01 X38.71742 Y29.42331
G01 X38.70422 Y29.46027
G01 X38.66396 Y29.53967
G01 X38.62040 Y29.60487
G01 X38.56243 Y29.67243
G01 X37.29243 Y30.94243
G01 X37.22487 Y31.00040
G01 X37.15967 Y31.04396
G01 X37.08027 Y31.08422
G01 X36.95758 Y31.12143
G01 X36.83000 Y31.13400
G01 X22.82078 Y31.13207
G01 X22.73239 Y31.12143
G01 X22.60971 Y31.08422
G01 X22.53031 Y31.04396
G01 X22.46511 Y31.00040
G01 X22.42663 Y30.96880
G01 X21.31908 Y29.86397
G01 X19.05000 Y29.86400
G01 X18.92239 Y29.85143
G01 X18.83667 Y29.82742
G01 X18.76422 Y29.79743
G01 X18.72031 Y29.77396
G01 X18.65511 Y29.73040
G01 X18.58754 Y29.67243
G01 X17.11150 Y28.19639
G01 X17.05806 Y28.38138
G01 X17.02806 Y28.45382
G01 X16.94950 Y28.60078
G01 X16.90594 Y28.66598
G01 X16.86491 Y28.71597
G01 X16.88264 Y28.86012
G01 X16.73273 Y28.86012
G01 X16.80022 Y28.79479
G01 X16.86491 Y28.71597
G01 X16.80022 Y28.79479
G01 X16.74480 Y28.85023
G01 X16.58445 Y28.97932
G01 X16.40383 Y29.07805
G01 X16.33139 Y29.10807
G01 X16.17193 Y29.15643
G01 X16.09501 Y29.17172
G01 X15.88999 Y29.18998
G01 X14.55077 Y29.18805
G01 X14.34612 Y29.16596
G01 X14.14859 Y29.10807
G01 X14.07615 Y29.07805
G01 X13.92918 Y28.99951
G01 X13.86401 Y28.95595
G01 X13.74722 Y28.86012
G01 X13.68483 Y28.86012
G01 X13.68483 Y28.80040
G01 X13.74722 Y28.86012
G01 X13.70609 Y28.82387
G01 X13.67975 Y28.79479
G01 X13.57404 Y28.66598
G01 X13.53048 Y28.60078
G01 X13.45192 Y28.45382
G01 X13.42192 Y28.38138
G01 X13.37353 Y28.22194
G01 X13.35824 Y28.14503
G01 X13.33998 Y27.94000
G01 X13.35824 Y27.73495
G01 X13.37353 Y27.65803
G01 X13.43513 Y27.46164
G01 X13.53048 Y27.27919
G01 X13.58692 Y27.19827
G01 X13.50754 Y27.13243
G01 X12.43714 Y26.06205
G01 X12.41676 Y26.05400
G01 X11.43000 Y26.05400
G01 X11.30239 Y26.04143
G01 X11.21667 Y26.01742
G01 X11.17183 Y26.00046
G01 X11.04509 Y25.97523
G01 X10.88492 Y25.92918
G01 X10.62355 Y25.84011
G01 X10.39772 Y25.77117
G01 X10.19170 Y25.72118
G01 X9.90989 Y25.66558
G01 X9.75827 Y25.64270
G01 X9.20275 Y25.08722
G01 X9.09869 Y24.96876
G01 X8.97893 Y24.78951
G01 X8.95546 Y24.74559
G01 X8.90930 Y24.64803
G01 X8.85850 Y24.49878
G01 X8.81644 Y24.28733
G01 X8.80626 Y24.13000
G01 X8.80626 Y21.68289
G01 X8.90242 Y21.09066
G01 X8.91766 Y21.05383
G01 X8.99599 Y20.90006
G01 X9.01682 Y20.86610
G01 X9.11827 Y20.72648
G01 X9.14415 Y20.69617
G01 X9.31141 Y20.52411
G01 X9.37052 Y20.54024
G01 X9.85045 Y20.63509
G01 X10.17905 Y20.64603
G01 X10.58301 Y20.24202
G01 X10.55195 Y20.24230
G01 X10.47692 Y20.21954
G01 X10.40775 Y20.18259
G01 X10.34715 Y20.13283
G01 X10.29739 Y20.07222
G01 X10.26043 Y20.00306
G01 X10.23767 Y19.92803
G01 X10.22998 Y19.85000
G01 X10.22998 Y18.24998
G01 X10.23767 Y18.17195
G01 X10.26043 Y18.09692
G01 X10.29739 Y18.02775
G01 X10.34715 Y17.96715
G01 X10.40775 Y17.91739
G01 X10.47692 Y17.88043
G01 X10.55195 Y17.85767
G01 X10.62998 Y17.84998
G01 X12.23000 Y17.84998
G01 X12.30803 Y17.85767
G01 X12.38306 Y17.88043
G01 X12.45222 Y17.91739
G01 X12.51283 Y17.96715
G01 X12.56259 Y18.02775
G01 X12.59954 Y18.09692
G01 X12.62230 Y18.17195
G01 X12.63000 Y18.24998
G01 X12.63000 Y19.66598
G01 X12.44597 Y19.85000
G01 X12.33797 Y19.93100
G01 X12.23000 Y19.95800
G01 X11.42997 Y19.95800
G01 X11.36960 Y19.96069
G01 X11.29787 Y19.97024
G01 X11.22406 Y19.98751
G01 X11.14654 Y20.01373
G01 X10.62995 Y20.22724
G01 X10.57499 Y20.24456
G01 X10.55195 Y20.24230
G01 X10.47692 Y20.21954
G01 X10.40775 Y20.18259
G01 X10.34715 Y20.13283
G01 X10.29739 Y20.07222
G01 X10.26043 Y20.00306
G01 X10.24364 Y19.94774
G01 X9.95484 Y19.94035
G01 X9.53112 Y19.85861
G01 X9.53026 Y18.24998
G01 X9.55139 Y18.03545
G01 X9.60948 Y17.84393
G01 X10.01273 Y17.88269
G01 X10.20572 Y17.91155
G01 X10.37288 Y17.94601
G01 X10.40775 Y17.91739
G01 X10.47692 Y17.88043
G01 X10.55195 Y17.85767
G01 X10.62998 Y17.84998
G01 X12.23000 Y17.84998
G01 X12.30803 Y17.85767
G01 X12.38306 Y17.88043
G01 X12.45222 Y17.91739
G01 X12.48707 Y17.94599
G01 X12.65423 Y17.91155
G01 X12.84722 Y17.88269
G01 X13.21968 Y17.84614
G01 X13.23363 Y17.91231
G01 X13.25811 Y18.26219
G01 X13.25811 Y18.54307
G01 X12.63000 Y19.17121
G01 X12.63000 Y19.66598
G01 X13.12476 Y19.66598
G01 X13.82448 Y18.96626
G01 X13.88628 Y18.96626
G01 X14.09121 Y19.17121
G01 X13.88628 Y18.96626
G01 X13.88628 Y18.89773
G01 X13.89888 Y18.88236
G01 X13.93121 Y18.82188
G01 X13.94069 Y18.82549
G01 X13.93121 Y18.82188
G01 X13.95113 Y18.75625
G01 X13.95786 Y18.68797
G01 X13.96129 Y18.68833
G01 X13.95786 Y18.68797
G01 X13.95740 Y18.22552
G01 X13.93126 Y17.83926
G01 X13.88628 Y17.61559
G01 X13.88628 Y17.32006
G01 X13.91844 Y17.11147
G01 X13.94511 Y16.83677
G01 X13.95532 Y16.64561
G01 X13.95410 Y16.35724
G01 X13.94691 Y16.20037
G01 X13.91798 Y15.90853
G01 X13.92182 Y15.90774
G01 X13.91798 Y15.90853
G01 X13.89769 Y15.81457
G01 X13.86835 Y15.75257
G01 X13.87414 Y15.74983
G01 X13.86835 Y15.75257
G01 X13.78168 Y15.60878
G01 X13.59804 Y15.33789
G01 X13.60056 Y15.33591
G01 X13.59804 Y15.33789
G01 X13.56843 Y15.30302
G01 X13.53452 Y15.27228
G01 X13.53795 Y15.26802
G01 X13.53452 Y15.27228
G01 X13.36462 Y15.16675
G01 X13.11575 Y15.03444
G01 X12.87135 Y14.92085
G01 X12.82515 Y14.90388
G01 X12.77701 Y14.89357
G01 X12.77892 Y14.88318
G01 X12.77701 Y14.89357
G01 X12.72797 Y14.89011
G01 X12.19431 Y14.89011
G01 X12.12820 Y14.94437
G01 X12.06299 Y14.98793
G01 X11.92469 Y15.06187
G01 X11.85225 Y15.09187
G01 X11.70216 Y15.13738
G01 X11.62528 Y15.15270
G01 X11.43000 Y15.17000
G01 X11.23470 Y15.15270
G01 X11.15781 Y15.13738
G01 X10.97077 Y15.07863
G01 X10.79698 Y14.98793
G01 X10.73178 Y14.94437
G01 X10.66566 Y14.89011
G01 X9.77212 Y14.89011
G01 X9.72101 Y14.79453
G01 X9.63851 Y14.59537
G01 X9.59300 Y14.44528
G01 X9.56676 Y14.34061
G01 X9.55093 Y14.23386
G01 X9.53557 Y14.07777
G01 X9.53557 Y13.86220
G01 X9.55093 Y13.70612
G01 X9.56676 Y13.59936
G01 X9.59300 Y13.49469
G01 X9.63851 Y13.34460
G01 X9.72101 Y13.14544
G01 X9.77212 Y13.04983
G01 X10.66569 Y13.04983
G01 X10.73178 Y12.99561
G01 X10.79698 Y12.95204
G01 X10.93528 Y12.87810
G01 X11.00772 Y12.84811
G01 X11.15781 Y12.80259
G01 X11.23470 Y12.78727
G01 X11.39078 Y12.77191
G01 X11.46919 Y12.77191
G01 X11.62528 Y12.78727
G01 X11.70216 Y12.80259
G01 X11.85225 Y12.84811
G01 X11.92469 Y12.87810
G01 X12.06299 Y12.95204
G01 X12.12820 Y12.99561
G01 X12.24943 Y13.09510
G01 X12.30488 Y13.15055
G01 X12.40437 Y13.27175
G01 X12.43536 Y13.31598
G01 X13.97000 Y13.31598
G01 X14.05875 Y13.32278
G01 X14.13566 Y13.33810
G01 X14.18331 Y13.35255
G01 X14.25575 Y13.38255
G01 X14.29967 Y13.40602
G01 X14.36487 Y13.44958
G01 X14.43243 Y13.50754
G01 X15.70243 Y14.77754
G01 X15.76040 Y14.84511
G01 X15.80396 Y14.91031
G01 X15.82743 Y14.95422
G01 X15.85742 Y15.02667
G01 X15.87188 Y15.07432
G01 X15.88719 Y15.15123
G01 X15.89400 Y15.24000
G01 X15.89397 Y21.13227
G01 X15.92534 Y21.17921
G01 X15.97909 Y21.28383
G01 X16.01508 Y21.39584
G01 X16.03037 Y21.47275
G01 X16.03807 Y21.55078
G01 X16.03807 Y21.62919
G01 X16.03037 Y21.70722
G01 X16.01508 Y21.78413
G01 X15.97909 Y21.89615
G01 X15.92534 Y22.00077
G01 X15.88178 Y22.06597
G01 X15.80568 Y22.15568
G01 X15.71597 Y22.23178
G01 X15.65077 Y22.27534
G01 X15.58163 Y22.31230
G01 X15.51145 Y22.34151
G01 X15.43413 Y22.36508
G01 X15.35722 Y22.38037
G01 X15.27919 Y22.38807
G01 X15.20078 Y22.38807
G01 X15.12275 Y22.38037
G01 X15.04584 Y22.36508
G01 X14.93383 Y22.32909
G01 X14.82921 Y22.27534
G01 X14.76400 Y22.23178
G01 X14.67429 Y22.15568
G01 X14.59819 Y22.06597
G01 X14.55463 Y22.00077
G01 X14.51767 Y21.93163
G01 X14.48765 Y21.85916
G01 X14.46489 Y21.78413
G01 X14.45260 Y21.72752
G01 X13.69908 Y20.97400
G01 X11.70089 Y20.97400
G01 X10.81397 Y21.86089
G01 X10.81397 Y23.85908
G01 X11.70089 Y24.74598
G01 X12.73917 Y24.74791
G01 X12.78875 Y24.75278
G01 X12.86566 Y24.76810
G01 X12.91331 Y24.78255
G01 X12.98575 Y24.81255
G01 X13.02964 Y24.83602
G01 X13.09484 Y24.87958
G01 X13.16243 Y24.93754
G01 X14.24089 Y26.01598
G01 X16.51000 Y26.01598
G01 X16.63758 Y26.02852
G01 X16.76027 Y26.06576
G01 X16.83967 Y26.10599
G01 X16.90487 Y26.14958
G01 X16.97243 Y26.20754
G01 X19.32089 Y28.55598
G01 X21.37316 Y28.55598
G01 X21.50260 Y28.57160
G01 X21.67717 Y28.57835
G01 X21.80803 Y28.59423
G01 X21.84027 Y28.60576
G01 X21.91967 Y28.64602
G01 X21.98487 Y28.68958
G01 X22.05243 Y28.74754
G01 X23.13089 Y29.82598
G01 X32.85818 Y29.82598
G01 X33.05861 Y29.83205
G01 X33.18167 Y29.82600
G01 X33.26384 Y29.81597
G01 X33.46138 Y29.75806
G01 X33.53382 Y29.72806
G01 X33.71446 Y29.62933
G01 X33.87479 Y29.50022
G01 X33.93023 Y29.44480
G01 X34.05932 Y29.28445
G01 X34.15805 Y29.10383
G01 X34.18807 Y29.03139
G01 X34.24596 Y28.83385
G01 X34.26998 Y28.58999
G01 X34.26805 Y27.25077
G01 X34.24596 Y27.04612
G01 X34.18807 Y26.84859
G01 X34.15805 Y26.77615
G01 X34.07951 Y26.62916
G01 X34.03595 Y26.56401
G01 X33.93023 Y26.43518
G01 X33.87479 Y26.37975
G01 X33.74598 Y26.27404
G01 X33.68078 Y26.23048
G01 X33.53382 Y26.15192
G01 X33.46138 Y26.12192
G01 X33.30194 Y26.07351
G01 X33.26384 Y26.06401
G01 X33.18200 Y26.05400
G01 X35.39785 Y26.05397
G01 X33.18200 Y26.05400
G01 X35.39785 Y26.05397
G01 X35.52137 Y26.04790
G01 X35.72213 Y26.05397
G01 X36.55908 Y26.05397
G01 X37.43757 Y26.93246
G01 X37.44598 Y26.95600
G01 X37.43757 Y26.93246
G01 X37.44600 Y26.94089
G01 X37.44598 Y27.48227
G01 X37.41463 Y27.52921
G01 X37.37767 Y27.59834
G01 X37.34765 Y27.67081
G01 X37.32489 Y27.74584
G01 X37.30960 Y27.82275
G01 X37.30191 Y27.90078
G01 X37.30191 Y27.97919
G01 X37.30960 Y28.05722
G01 X37.32489 Y28.13413
G01 X37.36089 Y28.24615
G01 X37.41463 Y28.35077
G01 X37.44598 Y28.39771
G01 X37.44600 Y28.92392
G01 X37.43754 Y28.94754
G01 X37.44600 Y28.92392
G01 X37.44600 Y28.93908
G01 X36.55908 Y29.82600
G01 X35.72167 Y29.82600
G01 X35.52137 Y29.83205
G01 X35.35495 Y29.82173
G01 X35.27803 Y29.80644
G01 X35.08164 Y29.74485
G01 X34.86551 Y29.62933
G01 X34.70519 Y29.50022
G01 X34.64974 Y29.44480
G01 X34.54403 Y29.31597
G01 X34.50046 Y29.25079
G01 X34.42193 Y29.10383
G01 X34.39190 Y29.03139
G01 X34.34354 Y28.87193
G01 X34.32825 Y28.79501
G01 X34.30999 Y28.58999
G01 X34.30999 Y27.28999
G01 X34.33402 Y27.04612
G01 X34.39190 Y26.84859
G01 X34.42193 Y26.77615
G01 X34.50046 Y26.62916
G01 X34.54403 Y26.56401
G01 X34.64974 Y26.43518
G01 X34.70519 Y26.37975
G01 X34.83399 Y26.27404
G01 X34.89919 Y26.23048
G01 X35.04616 Y26.15192
G01 X35.11860 Y26.12192
G01 X35.31613 Y26.06401
G01 X35.39858 Y26.05395
G01 X35.52137 Y26.04790
G01 X35.72137 Y26.05395
G01 X35.80384 Y26.06401
G01 X35.84194 Y26.07351
G01 X36.00138 Y26.12192
G01 X36.07382 Y26.15192
G01 X36.22078 Y26.23048
G01 X36.28598 Y26.27404
G01 X36.41479 Y26.37975
G01 X36.47023 Y26.43518
G01 X36.57595 Y26.56401
G01 X36.61951 Y26.62916
G01 X36.69805 Y26.77615
G01 X36.72807 Y26.84859
G01 X36.78596 Y27.04612
G01 X36.80998 Y27.28999
G01 X36.80998 Y28.58999
G01 X36.78596 Y28.83385
G01 X36.72807 Y29.03139
G01 X36.69805 Y29.10383
G01 X36.61951 Y29.25079
G01 X36.57595 Y29.31597
G01 X36.47023 Y29.44480
G01 X36.41479 Y29.50022
G01 X36.28598 Y29.60594
G01 X36.22078 Y29.64950
G01 X36.07382 Y29.72806
G01 X36.00138 Y29.75806
G01 X35.84194 Y29.80644
G01 X35.76503 Y29.82173
G01 X35.59861 Y29.83205
G01 X35.39818 Y29.82598
G01 X33.18167 Y29.82600
G01 X33.05861 Y29.83205
G01 X32.85818 Y29.82598
G01 X31.60486 Y29.82598
G01 X31.43588 Y29.73517
G01 X31.26923 Y29.63527
G01 X31.15132 Y29.55676
G01 X30.96862 Y29.59275
G01 X30.68569 Y29.62641
G01 X30.38721 Y29.63146
G01 X30.27441 Y29.62501
G01 X30.06961 Y29.60527
G01 X29.76174 Y29.54815
G01 X29.45674 Y29.45887
G01 X29.34559 Y29.42016
G01 X29.02174 Y29.28026
G01 X28.73545 Y29.12626
G01 X25.77239 Y29.12626
G01 X25.31598 Y29.31531
G01 X25.13096 Y29.38605
G01 X24.87587 Y29.46354
G01 X24.59998 Y29.52184
G01 X24.51603 Y29.53329
G01 X24.23897 Y29.55816
G01 X23.38603 Y29.55986
G01 X23.34036 Y29.55686
G01 X23.33958 Y29.56283
G01 X23.34036 Y29.55686
G01 X23.25167 Y29.53464
G01 X22.54534 Y29.24043
G01 X22.05243 Y28.74754
G01 X21.98487 Y28.68958
G01 X21.91967 Y28.64602
G01 X21.87575 Y28.62255
G01 X21.80803 Y28.59423
G01 X21.75325 Y28.58587
G01 X21.67717 Y28.57835
G01 X21.50260 Y28.57160
G01 X21.37689 Y28.55671
G01 X21.33971 Y28.54422
G01 X21.26031 Y28.50396
G01 X21.19511 Y28.46040
G01 X21.12754 Y28.40243
G01 X20.49254 Y27.76743
G01 X20.43458 Y27.69987
G01 X20.39102 Y27.63467
G01 X20.35076 Y27.55527
G01 X20.33755 Y27.51831
G01 X20.32310 Y27.47066
G01 X20.30778 Y27.39375
G01 X20.30098 Y27.30497
G01 X20.30098 Y24.40089
G01 X19.85754 Y23.95743
G01 X19.79958 Y23.88987
G01 X19.75602 Y23.82467
G01 X19.73255 Y23.78075
G01 X19.70255 Y23.70831
G01 X19.68810 Y23.66066
G01 X19.67278 Y23.58375
G01 X19.66598 Y23.49500
G01 X19.66598 Y23.31771
G01 X19.63463 Y23.27077
G01 X19.58089 Y23.16615
G01 X19.54489 Y23.05413
G01 X19.52960 Y22.97722
G01 X19.52191 Y22.89919
G01 X19.52191 Y22.82078
G01 X19.15907 Y23.08814
G01 X19.52191 Y22.82078
G01 X19.53537 Y22.70392
G01 X19.58089 Y22.55383
G01 X19.63463 Y22.44921
G01 X19.67819 Y22.38400
G01 X19.72795 Y22.32340
G01 X19.75429 Y22.29429
G01 X19.84400 Y22.21819
G01 X19.90921 Y22.17463
G01 X19.97834 Y22.13767
G01 X20.05081 Y22.10765
G01 X20.16392 Y22.07537
G01 X20.28078 Y22.06191
G01 X20.35919 Y22.06191
G01 X20.47606 Y22.07537
G01 X20.62615 Y22.12089
G01 X20.73077 Y22.17463
G01 X20.79597 Y22.21819
G01 X20.88568 Y22.29429
G01 X20.96178 Y22.38400
G01 X21.00534 Y22.44921
G01 X21.05909 Y22.55383
G01 X21.10461 Y22.70392
G01 X21.11807 Y22.82078
G01 X21.11807 Y22.89919
G01 X21.11037 Y22.97722
G01 X21.09508 Y23.05413
G01 X21.05909 Y23.16615
G01 X21.01068 Y23.26079
G01 X21.41743 Y23.66754
G01 X21.47540 Y23.73511
G01 X21.51896 Y23.80031
G01 X21.54243 Y23.84422
G01 X21.57242 Y23.91667
G01 X21.58688 Y23.96432
G01 X21.60219 Y24.04123
G01 X21.60900 Y24.13000
G01 X21.60900 Y27.03408
G01 X21.86089 Y27.28598
G01 X23.85908 Y27.28598
G01 X24.74598 Y26.39908
G01 X24.74598 Y22.85997
G01 X24.75278 Y22.77123
G01 X24.76810 Y22.69432
G01 X24.79576 Y22.60971
G01 X24.81255 Y22.57422
G01 X24.83602 Y22.53031
G01 X24.87958 Y22.46511
G01 X24.93754 Y22.39754
G01 X26.20754 Y21.12754
G01 X26.27511 Y21.06958
G01 X26.34031 Y21.02602
G01 X26.41971 Y20.98576
G01 X26.45667 Y20.97255
G01 X26.50432 Y20.95810
G01 X26.58123 Y20.94278
G01 X26.63078 Y20.93791
G01 X27.28600 Y20.93598
G01 X27.28791 Y19.36826
G01 X27.29855 Y19.27987
G01 X27.32255 Y19.19414
G01 X27.35255 Y19.12170
G01 X27.38498 Y19.06318
G01 X27.38691 Y18.56077
G01 X27.39172 Y18.51200
G01 X27.40701 Y18.43509
G01 X27.43446 Y18.35125
G01 X27.49453 Y18.23888
G01 X27.54902 Y18.16946
G01 X27.60444 Y18.11401
G01 X27.67386 Y18.05953
G01 X27.70754 Y18.03936
G01 X27.75077 Y18.01625
G01 X27.82321 Y17.98625
G01 X27.90817 Y17.96247
G01 X28.03500 Y17.94998
G01 X28.55999 Y17.94998
G01 X28.68679 Y17.96247
G01 X28.77177 Y17.98625
G01 X28.84421 Y18.01625
G01 X28.88745 Y18.03936
G01 X28.95265 Y18.08292
G01 X28.99052 Y18.11401
G01 X29.04597 Y18.16946
G01 X29.10045 Y18.23888
G01 X29.16052 Y18.35125
G01 X29.18795 Y18.43509
G01 X29.20327 Y18.51200
G01 X29.20997 Y18.59973
G01 X29.20997 Y19.50024
G01 X29.20327 Y19.58797
G01 X29.18795 Y19.66488
G01 X29.16052 Y19.74873
G01 X29.12062 Y19.82744
G01 X29.07706 Y19.89264
G01 X29.04597 Y19.93052
G01 X28.99052 Y19.98596
G01 X28.92110 Y20.04045
G01 X28.84421 Y20.08373
G01 X28.77177 Y20.11373
G01 X28.68679 Y20.13750
G01 X28.59397 Y20.14832
G01 X28.59397 Y21.13046
G01 X28.62534 Y21.17921
G01 X28.67909 Y21.28383
G01 X28.72461 Y21.43392
G01 X28.73807 Y21.55078
G01 X28.73807 Y21.62919
G01 X28.73037 Y21.70722
G01 X28.71508 Y21.78413
G01 X28.67909 Y21.89615
G01 X28.62534 Y22.00077
G01 X28.60518 Y22.03445
G01 X28.53202 Y22.12657
G01 X28.47657 Y22.18202
G01 X28.41597 Y22.23178
G01 X28.35077 Y22.27534
G01 X28.24615 Y22.32909
G01 X28.13413 Y22.36508
G01 X28.05722 Y22.38037
G01 X27.97919 Y22.38807
G01 X27.90078 Y22.38807
G01 X27.82275 Y22.38037
G01 X27.74584 Y22.36508
G01 X27.63383 Y22.32909
G01 X27.52921 Y22.27534
G01 X27.48227 Y22.24400
G01 X26.94089 Y22.24400
G01 X26.05400 Y23.13089
G01 X26.05400 Y26.66997
G01 X26.04719 Y26.75875
G01 X26.03188 Y26.83566
G01 X26.00419 Y26.92027
G01 X25.96396 Y26.99967
G01 X25.92040 Y27.06487
G01 X25.86243 Y27.13243
G01 X24.59243 Y28.40243
G01 X24.52487 Y28.46040
G01 X24.45967 Y28.50396
G01 X24.38027 Y28.54422
G01 X24.25758 Y28.58143
G01 X24.13000 Y28.59400
G01 X21.80676 Y28.59400
G01 X22.81314 Y28.59400
G01 X23.45563 Y28.86012
G01 X24.12571 Y28.86012
G01 X24.25423 Y28.85605
G01 X24.43874 Y28.83781
G01 X24.69728 Y28.78625
G01 X24.94084 Y28.71018
G01 X25.50462 Y28.47980
G01 X26.35722 Y27.62722
G01 X26.42969 Y27.54724
G01 X26.46126 Y27.50876
G01 X26.58102 Y27.32951
G01 X26.65067 Y27.18803
G01 X26.68702 Y27.08643
G01 X26.69449 Y27.06177
G01 X26.56263 Y26.77833
G01 X26.45981 Y26.53434
G01 X26.42108 Y26.42319
G01 X26.35136 Y26.19665
G01 X26.29014 Y25.90571
G01 X26.27168 Y25.79350
G01 X26.24981 Y25.50996
G01 X26.24788 Y25.30721
G01 X26.27445 Y24.98956
G01 X26.32916 Y24.69858
G01 X26.35151 Y24.60333
G01 X26.45387 Y24.28204
G01 X26.55578 Y24.03549
G01 X26.60818 Y23.92624
G01 X26.75372 Y23.65543
G01 X26.75372 Y23.42070
G01 X26.70045 Y23.39866
G01 X26.75372 Y23.42070
G01 X27.23070 Y22.94372
G01 X27.20866 Y22.89045
G01 X27.23070 Y22.94372
G01 X27.29875 Y22.94372
G01 X27.30076 Y22.93259
G01 X27.29875 Y22.94372
G01 X27.36606 Y22.97554
G01 X27.54272 Y23.03468
G01 X27.75415 Y23.07674
G01 X27.83220 Y23.08441
G01 X28.04777 Y23.08441
G01 X28.12583 Y23.07674
G01 X28.33726 Y23.03468
G01 X28.41229 Y23.01192
G01 X28.51391 Y22.97554
G01 X28.61147 Y22.92942
G01 X28.68061 Y22.89244
G01 X28.85986 Y22.77267
G01 X28.92049 Y22.72292
G01 X29.07292 Y22.57049
G01 X29.18696 Y22.42320
G01 X29.24244 Y22.33061
G01 X29.32554 Y22.16391
G01 X29.36192 Y22.06229
G01 X29.38468 Y21.98726
G01 X29.42674 Y21.77583
G01 X29.43441 Y21.69777
G01 X29.43441 Y21.48220
G01 X29.42295 Y21.37877
G01 X29.19407 Y21.17776
G01 X29.16819 Y21.15233
G01 X29.13014 Y21.10417
G01 X29.12623 Y21.10745
G01 X29.13014 Y21.10417
G01 X28.97068 Y20.86712
G01 X28.90792 Y20.76536
G01 X28.88221 Y20.70834
G01 X28.87619 Y20.71030
G01 X28.88221 Y20.70834
G01 X28.86568 Y20.64812
G01 X28.86012 Y20.58594
G01 X28.85732 Y20.58619
G01 X28.86012 Y20.58594
G01 X28.86012 Y20.07522
G01 X28.92110 Y20.04045
G01 X28.99052 Y19.98596
G01 X29.04597 Y19.93052
G01 X29.10045 Y19.86110
G01 X29.16052 Y19.74873
G01 X29.18795 Y19.66488
G01 X29.20327 Y19.58797
G01 X29.20997 Y19.50024
G01 X29.20997 Y18.59973
G01 X29.20327 Y18.51200
G01 X29.18795 Y18.43509
G01 X29.16052 Y18.35125
G01 X29.12062 Y18.27253
G01 X29.07706 Y18.20733
G01 X29.04597 Y18.16946
G01 X28.99052 Y18.11401
G01 X28.92110 Y18.05953
G01 X28.84421 Y18.01625
G01 X28.77177 Y17.98625
G01 X28.68679 Y17.96247
G01 X28.55999 Y17.94998
G01 X28.03500 Y17.94998
G01 X27.90817 Y17.96247
G01 X27.82321 Y17.98625
G01 X27.75077 Y18.01625
G01 X27.67386 Y18.05953
G01 X27.58730 Y18.13115
G01 X27.15047 Y18.13174
G01 X26.94876 Y18.24203
G01 X26.70238 Y18.40809
G01 X26.69057 Y18.49219
G01 X26.68527 Y18.59999
G01 X26.68527 Y18.90072
G01 X26.69273 Y18.90182
G01 X26.68527 Y18.90072
G01 X26.63850 Y19.03867
G01 X26.61229 Y19.14337
G01 X26.59156 Y19.29968
G01 X26.58623 Y19.40748
G01 X26.58623 Y20.24037
G01 X26.74958 Y20.37921
G01 X26.58623 Y20.24037
G01 X26.51265 Y20.24644
G01 X26.30119 Y20.28850
G01 X26.15194 Y20.33930
G01 X26.01046 Y20.40893
G01 X25.83122 Y20.52869
G01 X25.79273 Y20.56028
G01 X25.71275 Y20.63275
G01 X25.25733 Y21.08820
G01 X25.17270 Y21.24065
G01 X25.07249 Y21.39356
G01 X25.01809 Y21.64822
G01 X24.94166 Y21.90087
G01 X24.81077 Y22.24634
G01 X24.76274 Y22.40437
G01 X24.73749 Y22.51197
G01 X24.65311 Y22.92932
G01 X24.61745 Y23.08398
G01 X24.55786 Y23.27369
G01 X24.47983 Y23.46902
G01 X24.47983 Y24.74222
G01 X24.50993 Y24.89505
G01 X24.52439 Y24.98974
G01 X24.54636 Y25.19431
G01 X24.55144 Y25.49281
G01 X24.54501 Y25.60554
G01 X24.52527 Y25.81031
G01 X24.46853 Y26.11872
G01 X24.42550 Y26.26718
G01 X24.40203 Y26.31354
G01 X24.41194 Y26.31895
G01 X24.40203 Y26.31354
G01 X24.37193 Y26.35585
G01 X24.24575 Y26.50912
G01 X24.03904 Y26.72044
G01 X23.96894 Y26.78554
G01 X23.81700 Y26.91356
G01 X23.77354 Y26.94203
G01 X23.72721 Y26.96550
G01 X23.73051 Y26.97361
G01 X23.72721 Y26.96550
G01 X23.67793 Y26.98189
G01 X23.57831 Y27.00696
G01 X23.36589 Y27.05085
G01 X23.06561 Y27.08587
G01 X22.95279 Y27.09055
G01 X22.75002 Y27.09100
G01 X22.46658 Y27.06726
G01 X22.35426 Y27.04978
G01 X22.15883 Y27.01082
G01 X22.15802 Y27.01371
G01 X22.15883 Y27.01082
G01 X22.10280 Y26.99471
G01 X22.05025 Y26.96952
G01 X22.04527 Y26.97800
G01 X22.05025 Y26.96952
G01 X22.00260 Y26.93594
G01 X21.96117 Y26.89492
G01 X21.95492 Y26.90040
G01 X21.96117 Y26.89492
G01 X21.92713 Y26.84760
G01 X21.87113 Y26.75476
G01 X21.72876 Y26.47970
G01 X21.65129 Y26.29042
G01 X21.60900 Y26.16660
G01 X21.60900 Y24.13000
G01 X21.60219 Y24.04123
G01 X21.58688 Y23.96432
G01 X21.57242 Y23.91667
G01 X21.54243 Y23.84422
G01 X21.52221 Y23.80640
G01 X21.50364 Y23.72170
G01 X21.44273 Y23.53198
G01 X21.29213 Y23.37984
G01 X21.28911 Y23.38225
G01 X21.29213 Y23.37984
G01 X21.25685 Y23.33371
G01 X21.22970 Y23.28238
G01 X21.21969 Y23.28654
G01 X21.22970 Y23.28238
G01 X21.21139 Y23.22726
G01 X21.17870 Y23.09185
G01 X21.11670 Y22.80684
G01 X21.10461 Y22.70392
G01 X21.07400 Y22.59637
G01 X21.02175 Y22.35373
G01 X20.95337 Y22.14085
G01 X20.68670 Y21.45703
G01 X20.61256 Y21.38909
G01 X20.42777 Y21.36557
G01 X20.19242 Y21.36752
G01 X19.73115 Y21.51840
G01 X19.53189 Y21.58924
G01 X19.40011 Y21.67730
G01 X19.33948 Y21.72706
G01 X19.25952 Y21.79952
G01 X19.13730 Y21.94011
G01 X19.01754 Y22.11936
G01 X18.98056 Y22.18850
G01 X18.93443 Y22.28606
G01 X18.88307 Y22.43717
G01 X18.97289 Y22.74070
G01 X19.15907 Y23.08814
G01 X19.29742 Y23.30140
G01 X19.32462 Y23.35299
G01 X19.38447 Y23.48565
G01 X19.47037 Y23.64664
G01 X19.57992 Y23.81377
G01 X19.66951 Y23.92576
G01 X19.86562 Y24.06579
G01 X20.00339 Y24.17663
G01 X20.14779 Y24.31245
G01 X20.18215 Y24.35073
G01 X20.18815 Y24.34610
G01 X20.18215 Y24.35073
G01 X20.23466 Y24.43919
G01 X20.30098 Y24.63343
G01 X20.30098 Y26.16652
G01 X20.25866 Y26.29042
G01 X20.18119 Y26.47970
G01 X20.03933 Y26.75506
G01 X19.97344 Y26.86235
G01 X19.83059 Y27.07536
G01 X19.72147 Y27.21915
G01 X19.76742 Y27.32047
G01 X19.89087 Y27.54899
G01 X20.01144 Y27.62540
G01 X20.18685 Y27.71948
G01 X20.30382 Y27.77251
G01 X20.63466 Y27.90955
G01 X21.15663 Y28.42880
G01 X21.19511 Y28.46040
G01 X21.26031 Y28.50396
G01 X21.33971 Y28.54422
G01 X21.37316 Y28.55598
G01 X20.36684 Y28.55600
G01 X20.03199 Y28.41729
G01 X19.86351 Y28.34104
G01 X19.60870 Y28.20055
G01 X19.44373 Y28.09296
G01 X19.40281 Y28.06187
G01 X19.39425 Y28.07058
G01 X19.40281 Y28.06187
G01 X19.36687 Y28.02514
G01 X19.33669 Y27.98354
G01 X19.26212 Y27.86398
G01 X19.13849 Y27.62728
G01 X19.05411 Y27.44008
G01 X18.78073 Y27.32761
G01 X18.48165 Y27.17350
G01 X18.38333 Y27.11338
G01 X18.12564 Y26.93726
G01 X17.94106 Y26.78549
G01 X17.71665 Y26.56756
G01 X17.52397 Y26.33723
G01 X17.41813 Y26.18969
G01 X17.12361 Y26.08077
G01 X16.96552 Y26.03271
G01 X16.80500 Y25.99794
G01 X16.43852 Y25.93378
G01 X16.29115 Y25.90277
G01 X16.17746 Y25.87158
G01 X16.06405 Y25.90272
G01 X15.88361 Y25.94021
G01 X15.64414 Y25.96784
G01 X15.48371 Y25.97285
G01 X14.99621 Y25.97340
G01 X14.85303 Y25.96812
G01 X14.66113 Y25.95105
G01 X14.41544 Y25.90259
G01 X14.30050 Y25.86962
G01 X14.29418 Y25.88362
G01 X14.30050 Y25.86962
G01 X14.25425 Y25.84618
G01 X14.21196 Y25.81613
G01 X14.09426 Y25.72078
G01 X13.90482 Y25.53376
G01 X13.74470 Y25.46480
G01 X13.63393 Y25.40904
G01 X13.16243 Y24.93754
G01 X13.09484 Y24.87958
G01 X13.02964 Y24.83602
G01 X12.98575 Y24.81255
G01 X12.91331 Y24.78255
G01 X12.86566 Y24.76810
G01 X12.78875 Y24.75278
G01 X12.72324 Y24.74712
G01 X12.66591 Y24.71654
G01 X12.56223 Y24.66952
G01 X12.16028 Y24.50302
G01 X11.98164 Y24.46696
G01 X11.88202 Y24.44189
G01 X11.83274 Y24.42553
G01 X11.82654 Y24.43884
G01 X11.83274 Y24.42553
G01 X11.78641 Y24.40203
G01 X11.74410 Y24.37196
G01 X11.60224 Y24.25626
G01 X11.37892 Y24.03955
G01 X11.18603 Y23.81728
G01 X11.15792 Y23.77354
G01 X11.13442 Y23.72721
G01 X11.12632 Y23.73051
G01 X11.13442 Y23.72721
G01 X11.11806 Y23.67793
G01 X11.09299 Y23.57831
G01 X11.04870 Y23.36594
G01 X11.01494 Y23.06556
G01 X11.00826 Y22.95281
G01 X11.01286 Y22.67156
G01 X11.03556 Y22.44971
G01 X11.04631 Y22.37118
G01 X11.08918 Y22.15858
G01 X11.11804 Y22.04202
G01 X11.11255 Y22.04009
G01 X11.11804 Y22.04202
G01 X11.13442 Y21.99274
G01 X11.15792 Y21.94644
G01 X11.18799 Y21.90410
G01 X11.18258 Y21.90036
G01 X11.18799 Y21.90410
G01 X11.30480 Y21.76318
G01 X11.37950 Y21.68091
G01 X11.53241 Y21.52673
G01 X11.74272 Y21.34613
G01 X11.78641 Y21.31792
G01 X11.83272 Y21.29445
G01 X11.82939 Y21.28619
G01 X11.83272 Y21.29445
G01 X11.88202 Y21.27806
G01 X11.98164 Y21.25299
G01 X12.21108 Y21.20572
G01 X12.49441 Y21.17494
G01 X12.60719 Y21.16755
G01 X12.88837 Y21.17367
G01 X13.09347 Y21.19160
G01 X13.40134 Y21.24918
G01 X13.51793 Y21.27806
G01 X13.51895 Y21.27476
G01 X13.51793 Y21.27806
G01 X13.56721 Y21.29445
G01 X13.61354 Y21.31792
G01 X13.61707 Y21.31195
G01 X13.61354 Y21.31792
G01 X13.65585 Y21.34801
G01 X13.79743 Y21.46407
G01 X13.86662 Y21.52767
G01 X14.02044 Y21.68091
G01 X14.08557 Y21.75096
G01 X14.17805 Y21.86328
G01 X14.18179 Y21.86084
G01 X14.17805 Y21.86328
G01 X14.34833 Y22.19947
G01 X14.43424 Y22.29462
G01 X14.96868 Y22.34156
G01 X15.04584 Y22.36508
G01 X15.12275 Y22.38037
G01 X15.20078 Y22.38807
G01 X15.27919 Y22.38807
G01 X15.39606 Y22.37461
G01 X15.51145 Y22.34151
G01 X16.04782 Y22.29444
G01 X16.35468 Y22.06099
G01 X16.72430 Y21.78802
G01 X16.73441 Y21.69777
G01 X16.73441 Y21.48220
G01 X16.71089 Y21.29742
G01 X16.66192 Y21.11769
G01 X16.62554 Y21.01606
G01 X16.59372 Y20.94875
G01 X16.58087 Y20.95124
G01 X16.59372 Y20.94875
G01 X16.59372 Y19.85942
G01 X16.56151 Y19.65147
G01 X16.53484 Y19.37677
G01 X16.52463 Y19.18561
G01 X16.52544 Y18.91441
G01 X16.53268 Y18.74032
G01 X16.56197 Y18.44853
G01 X16.59372 Y18.24053
G01 X16.59372 Y17.31940
G01 X16.56151 Y17.11147
G01 X16.53487 Y16.83677
G01 X16.52463 Y16.64561
G01 X16.52544 Y16.37441
G01 X16.53268 Y16.20032
G01 X16.56197 Y15.90853
G01 X16.59372 Y15.70055
G01 X16.59372 Y15.24000
G01 X16.58353 Y15.08265
G01 X16.54147 Y14.87119
G01 X16.52702 Y14.82354
G01 X16.44452 Y14.62438
G01 X16.42105 Y14.58046
G01 X16.30129 Y14.40122
G01 X16.26969 Y14.36273
G01 X16.19722 Y14.28275
G01 X14.92722 Y13.01275
G01 X14.80876 Y12.90869
G01 X14.62951 Y12.78893
G01 X14.58559 Y12.76546
G01 X14.38643 Y12.68296
G01 X14.33878 Y12.66850
G01 X14.27831 Y12.65646
G01 X18.28569 Y18.12983
G01 X18.28566 Y17.43011
G01 X18.28569 Y18.12983
G01 X18.23055 Y18.17510
G01 X18.17510 Y18.23055
G01 X18.07561 Y18.35178
G01 X18.03204 Y18.41698
G01 X17.95810 Y18.55528
G01 X17.92811 Y18.62772
G01 X17.88259 Y18.77781
G01 X17.86727 Y18.85470
G01 X17.84998 Y19.05000
G01 X17.22516 Y18.92303
G01 X17.84998 Y19.05000
G01 X17.86727 Y19.24528
G01 X17.88259 Y19.32216
G01 X17.92811 Y19.47225
G01 X17.95810 Y19.54469
G01 X18.03204 Y19.68299
G01 X18.07561 Y19.74820
G01 X18.17510 Y19.86943
G01 X18.23055 Y19.92488
G01 X18.35178 Y20.02437
G01 X18.41698 Y20.06793
G01 X18.55528 Y20.14187
G01 X18.62772 Y20.17187
G01 X18.77781 Y20.21738
G01 X18.85470 Y20.23270
G01 X19.05000 Y20.25000
G01 X19.24528 Y20.23270
G01 X19.32216 Y20.21738
G01 X19.47225 Y20.17187
G01 X19.54469 Y20.14187
G01 X19.68299 Y20.06793
G01 X19.74820 Y20.02437
G01 X19.86943 Y19.92488
G01 X19.92488 Y19.86943
G01 X20.02437 Y19.74820
G01 X20.06793 Y19.68299
G01 X20.14187 Y19.54469
G01 X20.17187 Y19.47225
G01 X20.21738 Y19.32216
G01 X20.23270 Y19.24528
G01 X20.25000 Y19.05000
G01 X20.23270 Y18.85470
G01 X20.21738 Y18.77781
G01 X20.17187 Y18.62772
G01 X20.14187 Y18.55528
G01 X20.06793 Y18.41698
G01 X20.02437 Y18.35178
G01 X19.92488 Y18.23055
G01 X19.86943 Y18.17510
G01 X19.74820 Y18.07561
G01 X19.68299 Y18.03204
G01 X19.54469 Y17.95810
G01 X19.47225 Y17.92811
G01 X19.32216 Y17.88259
G01 X19.24528 Y17.86727
G01 X19.05000 Y17.84998
G01 X18.85470 Y17.86727
G01 X18.77781 Y17.88259
G01 X18.62772 Y17.92811
G01 X18.55528 Y17.95810
G01 X18.38330 Y18.05221
G01 X18.28569 Y18.12983
G01 X17.39212 Y18.12983
G01 X17.34101 Y18.22544
G01 X17.28559 Y18.34899
G01 X17.25747 Y18.52579
G01 X17.23202 Y18.78338
G01 X17.22516 Y18.92303
G01 X17.22516 Y19.17697
G01 X17.23202 Y19.31660
G01 X17.25747 Y19.57415
G01 X17.28163 Y19.73115
G01 X17.34101 Y19.87453
G01 X17.41495 Y20.01284
G01 X17.47042 Y20.10542
G01 X17.53471 Y20.19211
G01 X17.63420 Y20.31332
G01 X17.78665 Y20.46577
G01 X17.90786 Y20.56526
G01 X18.08714 Y20.68502
G01 X18.22544 Y20.75896
G01 X18.32300 Y20.80509
G01 X18.42460 Y20.84146
G01 X18.57469 Y20.88698
G01 X18.78612 Y20.92904
G01 X18.94220 Y20.94441
G01 X19.05000 Y20.94972
G01 X19.15777 Y20.94441
G01 X19.29381 Y20.93102
G01 X19.50611 Y20.85584
G01 X19.98817 Y20.69823
G01 X20.10542 Y20.62955
G01 X20.19211 Y20.56526
G01 X20.31332 Y20.46577
G01 X20.40900 Y20.37011
G01 X20.44888 Y20.25907
G01 X20.52363 Y20.01329
G01 X20.66394 Y19.51886
G01 X20.76257 Y19.21622
G01 X20.87372 Y18.90601
G01 X20.86788 Y18.78277
G01 X20.84690 Y18.56628
G01 X20.70395 Y18.12983
G01 X19.81429 Y18.12983
G01 X19.74820 Y18.07561
G01 X19.68299 Y18.03204
G01 X19.54469 Y17.95810
G01 X19.47225 Y17.92811
G01 X19.32216 Y17.88259
G01 X19.24528 Y17.86727
G01 X19.05000 Y17.84998
G01 X18.85470 Y17.86727
G01 X18.77781 Y17.88259
G01 X18.62772 Y17.92811
G01 X18.55528 Y17.95810
G01 X18.38330 Y18.05221
G01 X18.28569 Y18.12983
G01 X18.28566 Y17.43011
G01 X18.23055 Y17.38488
G01 X18.17510 Y17.32943
G01 X18.07561 Y17.20820
G01 X18.03204 Y17.14299
G01 X17.95810 Y17.00469
G01 X17.92811 Y16.93225
G01 X17.88259 Y16.78216
G01 X17.86727 Y16.70528
G01 X17.84998 Y16.51000
G01 X17.22516 Y16.38303
G01 X17.84998 Y16.51000
G01 X17.86727 Y16.31470
G01 X17.88259 Y16.23781
G01 X17.92811 Y16.08772
G01 X17.95810 Y16.01528
G01 X18.03204 Y15.87698
G01 X18.07561 Y15.81178
G01 X18.20146 Y15.66146
G01 X18.35178 Y15.53561
G01 X18.41698 Y15.49204
G01 X18.55528 Y15.41810
G01 X18.62772 Y15.38811
G01 X18.77781 Y15.34259
G01 X18.85470 Y15.32727
G01 X19.05000 Y15.30998
G01 X19.24528 Y15.32727
G01 X19.32216 Y15.34259
G01 X19.47225 Y15.38811
G01 X19.54469 Y15.41810
G01 X19.68299 Y15.49204
G01 X19.74820 Y15.53561
G01 X19.86943 Y15.63510
G01 X19.92488 Y15.69055
G01 X20.02437 Y15.81178
G01 X20.06793 Y15.87698
G01 X20.14187 Y16.01528
G01 X20.17187 Y16.08772
G01 X20.21738 Y16.23781
G01 X20.23270 Y16.31470
G01 X20.24807 Y16.47078
G01 X20.24807 Y16.54919
G01 X20.23270 Y16.70528
G01 X20.21738 Y16.78216
G01 X20.17187 Y16.93225
G01 X20.14187 Y17.00469
G01 X20.06793 Y17.14299
G01 X20.02437 Y17.20820
G01 X19.89851 Y17.35851
G01 X19.74820 Y17.48437
G01 X19.68299 Y17.52793
G01 X19.54469 Y17.60187
G01 X19.47225 Y17.63187
G01 X19.32216 Y17.67738
G01 X19.24528 Y17.69270
G01 X19.05000 Y17.71000
G01 X18.85470 Y17.69270
G01 X18.77781 Y17.67738
G01 X18.62772 Y17.63187
G01 X18.55528 Y17.60187
G01 X18.41698 Y17.52793
G01 X18.35178 Y17.48437
G01 X18.28566 Y17.43011
G01 X17.39209 Y17.43011
G01 X17.34101 Y17.33453
G01 X17.28163 Y17.19118
G01 X17.27820 Y17.17398
G01 X17.25747 Y17.03415
G01 X17.23205 Y16.77660
G01 X17.22516 Y16.63697
G01 X17.22516 Y16.38303
G01 X17.23205 Y16.24338
G01 X17.25747 Y15.98579
G01 X17.28559 Y15.80893
G01 X17.34101 Y15.68544
G01 X17.39212 Y15.58983
G01 X18.28569 Y15.58983
G01 X18.35178 Y15.53561
G01 X18.41698 Y15.49204
G01 X18.55528 Y15.41810
G01 X18.62772 Y15.38811
G01 X18.77781 Y15.34259
G01 X18.85470 Y15.32727
G01 X19.05000 Y15.30998
G01 X19.24528 Y15.32727
G01 X19.32216 Y15.34259
G01 X19.47225 Y15.38811
G01 X19.54469 Y15.41810
G01 X19.68299 Y15.49204
G01 X19.74820 Y15.53561
G01 X19.81429 Y15.58983
G01 X20.70786 Y15.58983
G01 X20.75896 Y15.68544
G01 X20.80509 Y15.78300
G01 X20.84146 Y15.88460
G01 X20.88698 Y16.03469
G01 X20.92904 Y16.24612
G01 X20.94441 Y16.40220
G01 X20.94972 Y16.51000
G01 X20.94441 Y16.61777
G01 X20.93102 Y16.75381
G01 X20.85584 Y16.96611
G01 X20.70395 Y17.43011
G01 X19.81431 Y17.43011
G01 X19.74820 Y17.48437
G01 X19.68299 Y17.52793
G01 X19.54469 Y17.60187
G01 X19.47225 Y17.63187
G01 X19.32216 Y17.67738
G01 X19.24528 Y17.69270
G01 X19.05000 Y17.71000
G01 X18.85470 Y17.69270
G01 X18.77781 Y17.67738
G01 X18.62772 Y17.63187
G01 X18.55528 Y17.60187
G01 X18.41698 Y17.52793
G01 X18.35178 Y17.48437
G01 X18.28566 Y17.43011
G01 X16.52732 Y23.13163
G01 X16.48206 Y23.16185
G01 X16.41605 Y23.21855
G01 X16.35935 Y23.28456
G01 X16.31579 Y23.34976
G01 X16.27650 Y23.42739
G01 X16.26326 Y23.46434
G01 X16.24940 Y23.51006
G01 X16.23411 Y23.58697
G01 X16.22748 Y23.67374
G01 X16.22748 Y24.58623
G01 X16.23411 Y24.67300
G01 X16.24940 Y24.74991
G01 X16.26326 Y24.79563
G01 X16.27650 Y24.83259
G01 X16.31579 Y24.91021
G01 X16.35935 Y24.97541
G01 X16.38968 Y25.01235
G01 X16.41605 Y25.04143
G01 X16.48206 Y25.09812
G01 X16.54726 Y25.14168
G01 X16.62488 Y25.18098
G01 X16.70756 Y25.20808
G01 X16.78447 Y25.22337
G01 X16.87124 Y25.23000
G01 X17.35874 Y25.23000
G01 X17.44551 Y25.22337
G01 X17.52239 Y25.20808
G01 X17.60510 Y25.18098
G01 X17.68272 Y25.14168
G01 X17.74792 Y25.09812
G01 X17.78907 Y25.06398
G01 X18.26390 Y25.53876
G01 X18.27489 Y25.59413
G01 X18.31089 Y25.70615
G01 X18.36463 Y25.81077
G01 X18.40819 Y25.87597
G01 X18.45795 Y25.93658
G01 X18.51340 Y25.99202
G01 X18.60553 Y26.06518
G01 X18.70834 Y26.12230
G01 X18.78081 Y26.15232
G01 X18.85584 Y26.17508
G01 X18.93275 Y26.19037
G01 X19.01078 Y26.19807
G01 X19.08919 Y26.19807
G01 X19.20606 Y26.18461
G01 X19.31916 Y26.15232
G01 X19.39163 Y26.12230
G01 X19.49445 Y26.06518
G01 X19.58657 Y25.99202
G01 X19.64202 Y25.93658
G01 X19.69178 Y25.87597
G01 X19.73534 Y25.81077
G01 X19.78909 Y25.70615
G01 X19.82508 Y25.59413
G01 X19.84037 Y25.51722
G01 X19.84807 Y25.43919
G01 X19.84807 Y25.36078
G01 X19.83461 Y25.24392
G01 X19.80232 Y25.13081
G01 X19.78909 Y25.09383
G01 X19.73534 Y24.98921
G01 X19.69178 Y24.92400
G01 X19.61568 Y24.83429
G01 X19.52597 Y24.75819
G01 X19.46077 Y24.71463
G01 X19.39163 Y24.67767
G01 X19.31916 Y24.64765
G01 X19.24413 Y24.62489
G01 X19.18749 Y24.61260
G01 X18.24243 Y23.66754
G01 X18.17487 Y23.60958
G01 X18.10967 Y23.56602
G01 X18.06575 Y23.54255
G01 X17.98013 Y23.50854
G01 X17.95348 Y23.42739
G01 X17.93669 Y23.39190
G01 X17.91419 Y23.34976
G01 X17.87060 Y23.28456
G01 X17.81393 Y23.21855
G01 X17.78485 Y23.19218
G01 X17.74792 Y23.16185
G01 X17.68272 Y23.11829
G01 X17.60510 Y23.07900
G01 X17.56814 Y23.06577
G01 X17.52239 Y23.05190
G01 X17.44551 Y23.03661
G01 X17.35874 Y23.02998
G01 X16.87124 Y23.02998
G01 X16.78447 Y23.03661
G01 X16.70756 Y23.05190
G01 X16.62488 Y23.07900
G01 X16.52732 Y23.13163
G01 X16.52732 Y22.80760
G01 X17.16656 Y22.33026
G01 X17.35874 Y22.33026
G01 X17.46654 Y22.33557
G01 X17.51409 Y22.34024
G01 X17.72552 Y22.38230
G01 X17.87286 Y22.43254
G01 X17.97042 Y22.47867
G01 X18.01256 Y22.50120
G01 X18.21302 Y22.63838
G01 X18.31068 Y22.96975
G01 X18.33778 Y23.03666
G01 X18.33491 Y23.03788
G01 X18.33778 Y23.03666
G01 X18.54977 Y23.43325
G01 X18.69669 Y23.66307
G01 X18.76313 Y23.80757
G01 X18.89097 Y24.04359
G01 X19.04197 Y24.26459
G01 X19.16057 Y24.40869
G01 X19.19564 Y24.44567
G01 X19.19199 Y24.44963
G01 X19.19564 Y24.44567
G01 X19.44197 Y24.62276
G01 X19.55211 Y24.71308
G01 X19.60590 Y24.76218
G01 X19.63831 Y24.85928
G01 X19.69178 Y24.92400
G01 X19.73534 Y24.98921
G01 X19.77230 Y25.05834
G01 X19.80232 Y25.13081
G01 X19.83461 Y25.24392
G01 X19.84807 Y25.36078
G01 X19.84807 Y25.43919
G01 X19.84037 Y25.51722
G01 X19.82508 Y25.59413
G01 X19.78909 Y25.70615
G01 X19.73534 Y25.81077
G01 X19.69178 Y25.87597
G01 X19.63847 Y25.94016
G01 X19.60281 Y26.04635
G01 X19.54408 Y26.18778
G01 X19.51436 Y26.25060
G01 X19.42549 Y26.41636
G01 X19.38734 Y26.47998
G01 X19.25406 Y26.67876
G01 X19.20461 Y26.74541
G01 X19.01253 Y26.66251
G01 X18.76471 Y26.52667
G01 X18.59968 Y26.41653
G01 X18.40504 Y26.26078
G01 X18.35963 Y26.21963
G01 X18.18917 Y26.04491
G01 X18.03270 Y25.84925
G01 X17.93304 Y25.70213
G01 X17.89077 Y25.65100
G01 X17.89580 Y25.64592
G01 X17.89077 Y25.65100
G01 X17.84403 Y25.61034
G01 X17.79722 Y25.58166
G01 X17.80106 Y25.57435
G01 X17.79722 Y25.58166
G01 X17.74650 Y25.56063
G01 X17.57926 Y25.50495
G01 X17.35125 Y25.41908
G01 X17.14447 Y25.35436
G01 X16.93245 Y25.30991
G01 X16.52732 Y25.23754
G01 X16.52732 Y25.12835
G01 X15.87292 Y25.09812
G01 X15.80772 Y25.14168
G01 X15.73009 Y25.18098
G01 X15.64742 Y25.20808
G01 X15.57050 Y25.22337
G01 X15.48374 Y25.23000
G01 X14.99624 Y25.23000
G01 X14.90947 Y25.22337
G01 X14.83256 Y25.20808
G01 X14.74988 Y25.18098
G01 X14.67226 Y25.14168
G01 X14.60706 Y25.09812
G01 X14.54104 Y25.04143
G01 X14.46098 Y24.94389
G01 X14.41828 Y24.86807
G01 X14.38473 Y24.78400
G01 X13.97000 Y24.78400
G01 X13.88123 Y24.77719
G01 X13.80432 Y24.76188
G01 X13.75667 Y24.74742
G01 X13.71971 Y24.73422
G01 X13.64031 Y24.69396
G01 X13.57511 Y24.65040
G01 X13.50754 Y24.59243
G01 X13.03602 Y24.12093
G01 X12.97264 Y24.08758
G01 X12.84168 Y24.02802
G01 X12.39629 Y23.84341
G01 X12.39723 Y23.84054
G01 X12.39629 Y23.84341
G01 X12.33084 Y23.82355
G01 X12.12962 Y23.78265
G01 X12.00963 Y23.67963
G01 X11.88032 Y23.55032
G01 X11.77729 Y23.43033
G01 X11.72896 Y23.17600
G01 X11.70910 Y22.94418
G01 X11.89998 Y22.86000
G01 X11.70910 Y22.94418
G01 X11.71212 Y22.71461
G01 X11.72896 Y22.54395
G01 X11.77369 Y22.30392
G01 X11.77729 Y22.28962
G01 X11.88032 Y22.16963
G01 X12.00963 Y22.04034
G01 X12.12962 Y21.93729
G01 X12.38392 Y21.88898
G01 X12.61582 Y21.86912
G01 X12.84536 Y21.87212
G01 X13.07739 Y21.89808
G01 X13.27033 Y21.93729
G01 X13.39032 Y22.04034
G01 X13.51961 Y22.16963
G01 X13.59164 Y22.25048
G01 X13.76190 Y22.58667
G01 X13.75816 Y22.58913
G01 X13.76190 Y22.58667
G01 X13.85443 Y22.69891
G01 X13.91689 Y22.76640
G01 X14.02674 Y22.87859
G01 X14.07574 Y22.92020
G01 X14.06919 Y22.92960
G01 X14.07574 Y22.92020
G01 X14.13149 Y22.95213
G01 X14.19217 Y22.97333
G01 X14.18958 Y22.98304
G01 X14.19217 Y22.97333
G01 X14.25567 Y22.98306
G01 X14.59537 Y23.00895
G01 X14.90180 Y23.03813
G01 X14.99624 Y23.02998
G01 X15.48374 Y23.02998
G01 X15.57818 Y23.03813
G01 X15.82760 Y23.01405
G01 X15.82760 Y23.13158
G01 X15.73009 Y23.07900
G01 X15.64742 Y23.05190
G01 X15.57818 Y23.03813
G01 X15.64742 Y23.05190
G01 X15.69314 Y23.06577
G01 X15.73009 Y23.07900
G01 X15.80772 Y23.11829
G01 X15.87292 Y23.16185
G01 X15.93893 Y23.21855
G01 X15.96530 Y23.24763
G01 X16.01899 Y23.31608
G01 X16.03919 Y23.34976
G01 X16.06169 Y23.39190
G01 X16.09171 Y23.46434
G01 X16.11511 Y23.54814
G01 X16.12748 Y23.67374
G01 X16.12748 Y24.58623
G01 X16.11511 Y24.71184
G01 X16.09171 Y24.79563
G01 X16.06169 Y24.86807
G01 X16.01899 Y24.94389
G01 X15.93893 Y25.04143
G01 X15.87292 Y25.09812
G01 X15.82760 Y25.12840
G01 X15.82760 Y25.23678
G01 X15.72433 Y25.25580
G01 X15.54897 Y25.27140
G01 X15.00055 Y25.27313
G01 X14.89611 Y25.26967
G01 X14.75562 Y25.25580
G01 X14.59591 Y25.22553
G01 X14.52446 Y25.16449
G01 X14.33449 Y24.97094
G01 X14.29212 Y24.94100
G01 X14.29728 Y24.93330
G01 X14.29212 Y24.94100
G01 X14.24577 Y24.91763
G01 X14.04008 Y24.83046
G01 X13.94673 Y24.78286
G01 X13.88123 Y24.77719
G01 X13.80432 Y24.76188
G01 X13.71971 Y24.73422
G01 X13.64031 Y24.69396
G01 X13.57511 Y24.65040
G01 X13.50754 Y24.59243
G01 X12.56119 Y23.64608
G01 X12.50584 Y23.63508
G01 X12.43081 Y23.61232
G01 X12.35834 Y23.58230
G01 X12.28921 Y23.54534
G01 X12.22400 Y23.50178
G01 X12.13429 Y23.42568
G01 X12.03480 Y23.30445
G01 X11.97767 Y23.20163
G01 X11.94765 Y23.12916
G01 X11.92489 Y23.05413
G01 X11.90960 Y22.97722
G01 X11.89998 Y22.86000
G01 X11.90191 Y22.82078
G01 X11.90960 Y22.74275
G01 X11.92489 Y22.66584
G01 X11.94765 Y22.59081
G01 X11.97767 Y22.51834
G01 X12.01463 Y22.44921
G01 X12.05819 Y22.38400
G01 X12.13429 Y22.29429
G01 X12.22400 Y22.21819
G01 X12.28921 Y22.17463
G01 X12.39383 Y22.12089
G01 X12.50584 Y22.08489
G01 X12.58275 Y22.06960
G01 X12.66078 Y22.06191
G01 X12.73917 Y22.06191
G01 X12.85606 Y22.07537
G01 X13.00615 Y22.12089
G01 X13.11074 Y22.17463
G01 X13.17595 Y22.21819
G01 X13.26568 Y22.29429
G01 X13.34178 Y22.38400
G01 X13.38534 Y22.44921
G01 X13.42230 Y22.51834
G01 X13.45232 Y22.59081
G01 X13.47508 Y22.66584
G01 X13.48737 Y22.72246
G01 X14.24089 Y23.47598
G01 X14.38473 Y23.47598
G01 X14.41828 Y23.39190
G01 X14.46098 Y23.31608
G01 X14.51468 Y23.24763
G01 X14.57013 Y23.19218
G01 X14.60706 Y23.16185
G01 X14.67226 Y23.11829
G01 X14.74988 Y23.07900
G01 X14.83256 Y23.05190
G01 X14.90180 Y23.03813
G04 P0 ( dwell for no time -- G64 should not smooth over this point )
G00 Z0.63500 ( retract )

G00 X12.30488 Y17.32943 ( rapid move to begin. )
G01 F30.00000
( Mill infeed pass 1/1 )
G01 Z-0.14000
G04 P0 ( dwell for no time -- G64 should not smooth over this point )
G01 F500.00000
G01 X12.30488 Y17.32943
G01 X12.24943 Y17.38488
G01 X12.12820 Y17.48437
G01 X12.06299 Y17.52793
G01 X11.92469 Y17.60187
G01 X11.85225 Y17.63187
G01 X11.70216 Y17.67738
G01 X11.62528 Y17.69270
G01 X11.46919 Y17.70807
G01 X11.39078 Y17.70807
G01 X11.23470 Y17.69270
G01 X11.15781 Y17.67738
G01 X10.97077 Y17.61863
G01 X10.79698 Y17.52793
G01 X10.73178 Y17.48437
G01 X10.61055 Y17.38488
G01 X10.55510 Y17.32943
G01 X10.49457 Y17.25567
G01 X10.31756 Y17.22077
G01 X10.10841 Y17.18950
G01 X9.77552 Y17.15452
G01 X9.64242 Y17.14480
G01 X9.59300 Y16.98528
G01 X9.56676 Y16.88061
G01 X9.55093 Y16.77386
G01 X9.53557 Y16.61777
G01 X9.53557 Y16.40220
G01 X9.55093 Y16.24612
G01 X9.56676 Y16.13936
G01 X9.59300 Y16.03469
G01 X9.63851 Y15.88460
G01 X9.72101 Y15.68544
G01 X9.77212 Y15.58983
G01 X10.66569 Y15.58983
G01 X10.61055 Y15.63510
G01 X10.55510 Y15.69055
G01 X10.43221 Y15.84330
G01 X10.33810 Y16.01528
G01 X10.30811 Y16.08772
G01 X10.25304 Y16.27589
G01 X10.22998 Y16.51000
G01 X10.10841 Y17.18950
G01 X10.31756 Y17.22077
G01 X10.49457 Y17.25567
G01 X10.43221 Y17.17667
G01 X10.41204 Y17.14299
G01 X10.33810 Y17.00469
G01 X10.30811 Y16.93225
G01 X10.25304 Y16.74409
G01 X10.23191 Y16.54919
G01 X10.23191 Y16.47078
G01 X10.24727 Y16.31470
G01 X10.26259 Y16.23781
G01 X10.30811 Y16.08772
G01 X10.33810 Y16.01528
G01 X10.41204 Y15.87698
G01 X10.45561 Y15.81178
G01 X10.55510 Y15.69055
G01 X10.61055 Y15.63510
G01 X10.73178 Y15.53561
G01 X10.79698 Y15.49204
G01 X10.97077 Y15.40134
G01 X11.15781 Y15.34259
G01 X11.23470 Y15.32727
G01 X11.43000 Y15.30998
G01 X11.62528 Y15.32727
G01 X11.70216 Y15.34259
G01 X11.88921 Y15.40134
G01 X12.06299 Y15.49204
G01 X12.12820 Y15.53561
G01 X12.19429 Y15.58983
G01 X12.65296 Y15.58983
G01 X12.80859 Y15.66321
G01 X13.07358 Y15.80827
G01 X13.22842 Y16.04599
G01 X13.24793 Y16.24338
G01 X13.25479 Y16.38303
G01 X13.25479 Y16.63697
G01 X13.24793 Y16.77660
G01 X13.22248 Y17.03415
G01 X13.20597 Y17.14561
G01 X13.08443 Y17.15452
G01 X12.75146 Y17.18904
G01 X12.54239 Y17.22077
G01 X12.36543 Y17.25567
G01 X12.30488 Y17.32943
G01 X12.42776 Y17.17667
G01 X12.52187 Y17.00469
G01 X12.55187 Y16.93225
G01 X12.60693 Y16.74409
G01 X12.62807 Y16.54919
G01 X12.62807 Y16.47078
G01 X12.60693 Y16.27589
G01 X12.55187 Y16.08772
G01 X12.52187 Y16.01528
G01 X12.44793 Y15.87698
G01 X12.40437 Y15.81178
G01 X12.30488 Y15.69055
G01 X12.24943 Y15.63510
G01 X12.19429 Y15.58983
G04 P0 ( dwell for no time -- G64 should not smooth over this point )
G00 Z0.63500 ( retract )

G00 X12.19429 Y5.42983 ( rapid move to begin. )
G01 F30.00000
( Mill infeed pass 1/1 )
G01 Z-0.14000
G04 P0 ( dwell for no time -- G64 should not smooth over this point )
G01 F500.00000
G01 X12.19429 Y5.42983
G01 X12.09667 Y5.35221
G01 X11.92469 Y5.25810
G01 X11.85225 Y5.22811
G01 X11.66409 Y5.17304
G01 X11.46919 Y5.15191
G01 X11.39078 Y5.15191
G01 X11.19589 Y5.17304
G01 X11.00772 Y5.22811
G01 X10.93528 Y5.25810
G01 X10.79698 Y5.33204
G01 X10.73178 Y5.37561
G01 X10.58146 Y5.50146
G01 X10.43221 Y5.68330
G01 X10.33810 Y5.85528
G01 X10.30811 Y5.92772
G01 X10.25304 Y6.11589
G01 X10.23191 Y6.31078
G01 X9.53557 Y6.24220
G01 X10.23191 Y6.31078
G01 X10.23191 Y6.38919
G01 X10.25304 Y6.58409
G01 X10.30811 Y6.77225
G01 X10.33810 Y6.84469
G01 X10.41204 Y6.98299
G01 X10.45561 Y7.04820
G01 X10.55510 Y7.16943
G01 X10.61055 Y7.22488
G01 X10.76330 Y7.34776
G01 X10.93528 Y7.44187
G01 X11.00772 Y7.47187
G01 X11.15781 Y7.51738
G01 X11.23470 Y7.53270
G01 X11.43000 Y7.55000
G01 X11.66409 Y7.52693
G01 X11.85225 Y7.47187
G01 X11.92469 Y7.44187
G01 X12.09667 Y7.34776
G01 X12.19431 Y7.27011
G01 X13.08788 Y7.27011
G01 X13.13896 Y7.17453
G01 X13.22146 Y6.97537
G01 X13.26695 Y6.82528
G01 X13.29322 Y6.72061
G01 X13.30904 Y6.61386
G01 X13.32441 Y6.45777
G01 X13.32441 Y6.24220
G01 X13.30904 Y6.08612
G01 X13.29322 Y5.97936
G01 X13.26695 Y5.87469
G01 X13.22146 Y5.72460
G01 X13.13896 Y5.52544
G01 X13.08786 Y5.42983
G01 X12.19429 Y5.42983
G01 X12.24943 Y5.47510
G01 X12.30488 Y5.53055
G01 X12.40437 Y5.65178
G01 X12.44793 Y5.71698
G01 X12.52187 Y5.85528
G01 X12.55187 Y5.92772
G01 X12.60693 Y6.11589
G01 X12.62807 Y6.31078
G01 X12.62807 Y6.38919
G01 X12.60693 Y6.58409
G01 X12.55187 Y6.77225
G01 X12.52187 Y6.84469
G01 X12.44793 Y6.98299
G01 X12.40437 Y7.04820
G01 X12.30488 Y7.16943
G01 X12.24943 Y7.22488
G01 X12.12820 Y7.32437
G01 X12.06299 Y7.36793
G01 X11.88921 Y7.45863
G01 X11.70216 Y7.51738
G01 X11.62528 Y7.53270
G01 X11.43000 Y7.55000
G01 X11.19589 Y7.52693
G01 X11.00772 Y7.47187
G01 X10.93528 Y7.44187
G01 X10.79698 Y7.36793
G01 X10.73178 Y7.32437
G01 X10.66566 Y7.27011
G01 X9.77209 Y7.27011
G01 X9.72101 Y7.17453
G01 X9.63851 Y6.97537
G01 X9.59300 Y6.82528
G01 X9.56676 Y6.72061
G01 X9.55093 Y6.61386
G01 X9.53557 Y6.45777
G01 X9.53557 Y6.24220
G01 X9.55093 Y6.08612
G01 X9.56676 Y5.97936
G01 X9.59300 Y5.87469
G01 X9.63851 Y5.72460
G01 X9.72101 Y5.52544
G01 X9.77212 Y5.42983
G01 X10.66569 Y5.42983
G01 X10.66566 Y4.73011
G01 X10.58146 Y4.65851
G01 X10.45561 Y4.50820
G01 X10.41204 Y4.44299
G01 X10.33810 Y4.30469
G01 X10.30811 Y4.23225
G01 X10.25304 Y4.04409
G01 X10.23191 Y3.84919
G01 X10.23191 Y3.77078
G01 X9.53557 Y3.70220
G01 X10.23191 Y3.77078
G01 X10.25304 Y3.57589
G01 X10.30811 Y3.38772
G01 X10.33810 Y3.31528
G01 X10.43221 Y3.14330
G01 X10.55510 Y2.99055
G01 X10.61055 Y2.93510
G01 X10.73178 Y2.83561
G01 X10.79698 Y2.79204
G01 X10.93528 Y2.71810
G01 X11.00772 Y2.68811
G01 X11.15781 Y2.64259
G01 X11.23470 Y2.62727
G01 X11.43000 Y2.60998
G01 X11.62528 Y2.62727
G01 X11.70216 Y2.64259
G01 X11.88921 Y2.70134
G01 X12.06299 Y2.79204
G01 X12.12820 Y2.83561
G01 X12.27851 Y2.96146
G01 X12.42776 Y3.14330
G01 X12.52187 Y3.31528
G01 X12.55187 Y3.38772
G01 X12.60693 Y3.57589
G01 X12.62807 Y3.77078
G01 X12.62807 Y3.84919
G01 X12.60693 Y4.04409
G01 X12.55187 Y4.23225
G01 X12.52187 Y4.30469
G01 X12.42776 Y4.47667
G01 X12.27851 Y4.65851
G01 X12.12820 Y4.78437
G01 X12.06299 Y4.82793
G01 X11.92469 Y4.90187
G01 X11.85225 Y4.93187
G01 X11.66409 Y4.98693
G01 X11.43000 Y5.01000
G01 X11.23470 Y4.99270
G01 X11.15781 Y4.97738
G01 X11.00772 Y4.93187
G01 X10.93528 Y4.90187
G01 X10.79698 Y4.82793
G01 X10.73178 Y4.78437
G01 X10.66566 Y4.73011
G01 X9.77209 Y4.73011
G01 X9.72101 Y4.63453
G01 X9.63851 Y4.43537
G01 X9.59300 Y4.28528
G01 X9.56676 Y4.18061
G01 X9.55093 Y4.07386
G01 X9.53557 Y3.91777
G01 X9.53557 Y3.70220
G01 X9.55093 Y3.54612
G01 X9.56676 Y3.43936
G01 X9.59300 Y3.33469
G01 X9.63851 Y3.18455
G01 X9.72101 Y2.98544
G01 X9.79495 Y2.84714
G01 X9.85042 Y2.75455
G01 X9.91471 Y2.66786
G01 X10.01420 Y2.54665
G01 X10.08667 Y2.46667
G01 X10.16665 Y2.39420
G01 X10.28786 Y2.29471
G01 X10.46714 Y2.17495
G01 X10.60544 Y2.10101
G01 X10.70300 Y2.05489
G01 X10.80460 Y2.01851
G01 X10.95469 Y1.97300
G01 X11.16612 Y1.93093
G01 X11.32220 Y1.91557
G01 X11.53777 Y1.91557
G01 X11.69386 Y1.93093
G01 X11.90528 Y1.97300
G01 X12.05537 Y2.01851
G01 X12.15697 Y2.05489
G01 X12.25453 Y2.10101
G01 X12.39284 Y2.17495
G01 X12.57211 Y2.29471
G01 X12.69332 Y2.39420
G01 X12.77330 Y2.46667
G01 X12.84577 Y2.54665
G01 X12.94526 Y2.66786
G01 X13.00952 Y2.75455
G01 X13.06502 Y2.84714
G01 X13.13896 Y2.98544
G01 X13.22146 Y3.18455
G01 X13.26695 Y3.33469
G01 X13.29322 Y3.43936
G01 X13.30904 Y3.54612
G01 X13.32441 Y3.70220
G01 X13.32441 Y3.91777
G01 X13.30904 Y4.07386
G01 X13.29322 Y4.18061
G01 X13.26695 Y4.28528
G01 X13.22146 Y4.43537
G01 X13.13896 Y4.63453
G01 X13.08788 Y4.73011
G01 X12.19431 Y4.73011
G01 X18.28566 Y4.73011
G01 X18.35178 Y4.78437
G01 X18.41698 Y4.82793
G01 X18.55528 Y4.90187
G01 X18.62772 Y4.93187
G01 X18.81589 Y4.98693
G01 X19.05000 Y5.01000
G01 X19.28409 Y4.98693
G01 X19.47225 Y4.93187
G01 X19.54469 Y4.90187
G01 X19.68299 Y4.82793
G01 X19.74820 Y4.78437
G01 X19.81431 Y4.73011
G01 X20.70395 Y4.73011
G01 X20.85584 Y4.26611
G01 X20.93102 Y4.05381
G01 X20.94441 Y3.91777
G01 X20.94972 Y3.81000
G01 X20.94441 Y3.70220
G01 X20.92904 Y3.54612
G01 X20.88698 Y3.33469
G01 X20.84146 Y3.18455
G01 X20.80509 Y3.08300
G01 X20.75896 Y2.98544
G01 X20.68502 Y2.84714
G01 X20.56526 Y2.66786
G01 X20.46577 Y2.54665
G01 X20.39330 Y2.46667
G01 X20.31332 Y2.39420
G01 X20.19211 Y2.29471
G01 X20.10542 Y2.23042
G01 X20.01284 Y2.17495
G01 X19.87453 Y2.10101
G01 X19.67537 Y2.01851
G01 X19.52528 Y1.97300
G01 X19.42061 Y1.94676
G01 X19.31386 Y1.93093
G01 X19.15777 Y1.91557
G01 X18.94220 Y1.91557
G01 X18.78612 Y1.93093
G01 X18.67936 Y1.94676
G01 X18.57469 Y1.97300
G01 X18.42460 Y2.01851
G01 X18.22544 Y2.10101
G01 X18.08714 Y2.17495
G01 X17.99455 Y2.23042
G01 X17.90786 Y2.29471
G01 X17.78665 Y2.39420
G01 X17.70667 Y2.46667
G01 X17.63420 Y2.54665
G01 X17.53471 Y2.66786
G01 X17.41495 Y2.84714
G01 X17.34101 Y2.98544
G01 X17.29489 Y3.08300
G01 X17.25851 Y3.18455
G01 X17.21300 Y3.33469
G01 X17.17093 Y3.54612
G01 X17.15557 Y3.70220
G01 X17.15026 Y3.81000
G01 X17.84998 Y3.81000
G01 X17.15026 Y3.81000
G01 X17.15557 Y3.91777
G01 X17.17093 Y4.07386
G01 X17.21300 Y4.28528
G01 X17.25851 Y4.43537
G01 X17.34101 Y4.63453
G01 X17.39209 Y4.73011
G01 X18.28566 Y4.73011
G01 X18.23055 Y4.68488
G01 X18.17510 Y4.62943
G01 X18.05221 Y4.47667
G01 X17.95810 Y4.30469
G01 X17.92811 Y4.23225
G01 X17.88259 Y4.08216
G01 X17.86727 Y4.00528
G01 X17.84998 Y3.81000
G01 X17.86727 Y3.61470
G01 X17.88259 Y3.53781
G01 X17.92811 Y3.38772
G01 X17.95810 Y3.31528
G01 X18.03204 Y3.17698
G01 X18.07561 Y3.11178
G01 X18.17510 Y2.99055
G01 X18.23055 Y2.93510
G01 X18.38330 Y2.81221
G01 X18.55528 Y2.71810
G01 X18.62772 Y2.68811
G01 X18.77781 Y2.64259
G01 X18.85470 Y2.62727
G01 X19.05000 Y2.60998
G01 X19.24528 Y2.62727
G01 X19.32216 Y2.64259
G01 X19.47225 Y2.68811
G01 X19.54469 Y2.71810
G01 X19.68299 Y2.79204
G01 X19.74820 Y2.83561
G01 X19.86943 Y2.93510
G01 X19.92488 Y2.99055
G01 X20.02437 Y3.11178
G01 X20.06793 Y3.17698
G01 X20.14187 Y3.31528
G01 X20.17187 Y3.38772
G01 X20.21738 Y3.53781
G01 X20.23270 Y3.61470
G01 X20.25000 Y3.81000
G01 X20.23270 Y4.00528
G01 X20.21738 Y4.08216
G01 X20.15863 Y4.26921
G01 X20.06793 Y4.44299
G01 X20.02437 Y4.50820
G01 X19.92488 Y4.62943
G01 X19.86943 Y4.68488
G01 X19.74820 Y4.78437
G01 X22.85522 Y6.00011
G01 X23.03254 Y6.17743
G01 X23.08591 Y6.22465
G01 X23.13668 Y6.26153
G01 X23.22660 Y6.31086
G01 X23.26343 Y6.32610
G01 X23.34153 Y6.34992
G01 X26.44506 Y6.34997
G01 X26.49080 Y6.33611
G01 X26.53660 Y6.31713
G01 X26.60576 Y6.28018
G01 X26.66639 Y6.23042
G01 X26.70142 Y6.19539
G01 X26.73988 Y6.15081
G01 X26.77135 Y6.10111
G01 X26.80693 Y6.02534
G01 X26.81430 Y5.99877
G01 X27.17861 Y6.00118
G01 X27.23893 Y5.91848
G01 X27.48648 Y5.67908
G01 X27.67114 Y5.52447
G01 X27.82811 Y5.41190
G01 X27.96819 Y5.32394
G01 X28.05036 Y5.15795
G01 X28.18270 Y4.93796
G01 X28.17713 Y4.93375
G01 X28.18270 Y4.93796
G01 X28.21615 Y4.89163
G01 X28.25669 Y4.85137
G01 X28.30322 Y4.81825
G01 X28.29949 Y4.81335
G01 X28.30322 Y4.81825
G01 X28.48219 Y4.71175
G01 X28.57487 Y4.66199
G01 X28.93974 Y4.51007
G01 X29.02270 Y4.48904
G01 X29.14744 Y4.46400
G01 X33.83227 Y4.46397
G01 X33.87921 Y4.49534
G01 X33.98383 Y4.54909
G01 X34.13392 Y4.59461
G01 X34.25078 Y4.60807
G01 X34.32919 Y4.60807
G01 X34.44606 Y4.59461
G01 X34.59615 Y4.54909
G01 X34.70077 Y4.49534
G01 X34.76597 Y4.45178
G01 X34.82657 Y4.40202
G01 X34.88202 Y4.34657
G01 X34.95518 Y4.25445
G01 X35.02909 Y4.11615
G01 X35.06508 Y4.00413
G01 X35.08037 Y3.92722
G01 X35.08807 Y3.84919
G01 X35.08807 Y3.77078
G01 X35.08037 Y3.69275
G01 X35.06508 Y3.61584
G01 X35.02909 Y3.50383
G01 X34.95518 Y3.36553
G01 X34.88202 Y3.27335
G01 X34.82657 Y3.21795
G01 X34.76597 Y3.16819
G01 X34.70077 Y3.12463
G01 X34.63163 Y3.08767
G01 X34.55916 Y3.05765
G01 X34.44606 Y3.02537
G01 X34.32919 Y3.01191
G01 X34.25078 Y3.01191
G01 X34.17275 Y3.01960
G01 X34.09584 Y3.03489
G01 X33.98383 Y3.07089
G01 X33.87921 Y3.12463
G01 X33.83227 Y3.15600
G01 X27.94000 Y3.15598
G01 X27.85123 Y3.16278
G01 X27.77432 Y3.17810
G01 X27.72667 Y3.19255
G01 X27.65422 Y3.22255
G01 X27.61031 Y3.24602
G01 X27.54511 Y3.28953
G01 X27.47754 Y3.34754
G01 X25.76403 Y5.06098
G01 X23.76589 Y5.06098
G01 X23.64608 Y4.94119
G01 X23.63508 Y4.88584
G01 X23.59909 Y4.77383
G01 X23.54534 Y4.66921
G01 X23.50178 Y4.60400
G01 X23.42568 Y4.51429
G01 X23.33597 Y4.43819
G01 X23.27077 Y4.39463
G01 X23.20163 Y4.35767
G01 X23.12916 Y4.32765
G01 X23.05413 Y4.30489
G01 X22.97722 Y4.28960
G01 X22.86000 Y4.27998
G01 X22.70392 Y4.29537
G01 X22.59081 Y4.32765
G01 X22.51834 Y4.35767
G01 X22.41553 Y4.41480
G01 X22.38400 Y4.43819
G01 X22.29429 Y4.51429
G01 X22.21819 Y4.60400
G01 X22.17463 Y4.66921
G01 X22.13767 Y4.73834
G01 X22.10765 Y4.81081
G01 X22.08489 Y4.88584
G01 X22.06960 Y4.96275
G01 X22.06191 Y5.04078
G01 X21.38456 Y4.89864
G01 X22.06191 Y5.04078
G01 X22.06191 Y5.11919
G01 X22.06960 Y5.19722
G01 X22.08489 Y5.27413
G01 X22.12089 Y5.38615
G01 X22.17463 Y5.49077
G01 X22.21819 Y5.55597
G01 X22.26795 Y5.61657
G01 X22.29429 Y5.64568
G01 X22.38400 Y5.72178
G01 X22.44921 Y5.76534
G01 X22.55383 Y5.81909
G01 X22.66584 Y5.85508
G01 X22.72119 Y5.86608
G01 X22.85522 Y6.00011
G01 X21.67750 Y6.00011
G01 X21.58926 Y5.86811
G01 X21.51837 Y5.66872
G01 X21.36750 Y5.20753
G01 X21.36752 Y4.95242
G01 X21.51837 Y4.49123
G01 X21.58924 Y4.29189
G01 X21.67730 Y4.16011
G01 X21.79952 Y4.01952
G01 X21.87948 Y3.94706
G01 X22.02678 Y3.83301
G01 X22.18850 Y3.74056
G01 X22.38769 Y3.65806
G01 X22.56742 Y3.60909
G01 X22.67415 Y3.59324
G01 X22.75220 Y3.58557
G01 X22.96777 Y3.58557
G01 X23.15256 Y3.60909
G01 X23.25726 Y3.63530
G01 X23.33229 Y3.65806
G01 X23.53147 Y3.74056
G01 X23.69320 Y3.83301
G01 X23.77986 Y3.89730
G01 X23.92045 Y4.01952
G01 X23.99292 Y4.09948
G01 X24.04267 Y4.16011
G01 X24.17415 Y4.36126
G01 X24.12855 Y4.44556
G01 X24.17415 Y4.36126
G01 X25.47424 Y4.36126
G01 X25.49609 Y4.41422
G01 X25.47424 Y4.36126
G01 X26.98278 Y2.85275
G01 X27.06273 Y2.78028
G01 X27.10122 Y2.74869
G01 X27.28046 Y2.62893
G01 X27.32438 Y2.60546
G01 X27.52357 Y2.52296
G01 X27.57122 Y2.50850
G01 X27.78265 Y2.46644
G01 X27.94000 Y2.45626
G01 X33.64875 Y2.45626
G01 X33.65073 Y2.46725
G01 X33.64875 Y2.45626
G01 X33.71606 Y2.42443
G01 X33.89272 Y2.36530
G01 X34.10415 Y2.32324
G01 X34.18220 Y2.31557
G01 X34.39777 Y2.31557
G01 X34.58256 Y2.33909
G01 X34.76229 Y2.38806
G01 X34.86391 Y2.42443
G01 X35.03061 Y2.50754
G01 X35.20986 Y2.62730
G01 X35.23859 Y2.65087
G01 X35.26346 Y2.94416
G01 X35.27852 Y3.19308
G01 X35.29510 Y3.64114
G01 X35.29327 Y4.05976
G01 X35.27852 Y4.42681
G01 X35.25939 Y4.73011
G01 X34.74872 Y4.73011
G01 X34.55683 Y4.67357
G01 X34.36338 Y4.60469
G01 X34.25078 Y4.60807
G01 X34.17275 Y4.60037
G01 X34.09584 Y4.58508
G01 X33.98383 Y4.54909
G01 X33.87921 Y4.49534
G01 X33.83227 Y4.46397
G01 X28.21089 Y4.46400
G01 X26.83998 Y5.83486
G01 X26.83231 Y5.92003
G01 X26.80693 Y6.02534
G01 X26.77135 Y6.10111
G01 X26.73988 Y6.15081
G01 X26.70142 Y6.19539
G01 X26.66639 Y6.23042
G01 X26.60576 Y6.28018
G01 X26.53660 Y6.31713
G01 X26.44506 Y6.34997
G01 X26.49080 Y6.36387
G01 X26.58918 Y6.40928
G01 X26.65654 Y6.45899
G01 X26.69916 Y6.49956
G01 X26.76291 Y6.58713
G01 X26.79192 Y6.63837
G01 X26.81468 Y6.69846
G01 X26.91313 Y6.69955
G01 X26.83812 Y6.89673
G01 X26.83297 Y6.77278
G01 X26.81468 Y6.69846
G01 X26.83297 Y6.77278
G01 X26.83754 Y6.82970
G01 X26.83998 Y7.10849
G01 X26.83563 Y7.17598
G01 X26.82555 Y7.23395
G01 X26.80711 Y7.28983
G01 X26.78814 Y7.33562
G01 X26.75118 Y7.40476
G01 X26.70142 Y7.46539
G01 X26.64183 Y7.52198
G01 X26.63198 Y7.55998
G01 X26.62669 Y7.61482
G01 X26.61895 Y7.61472
G01 X26.62669 Y7.61482
G01 X26.63010 Y7.66981
G01 X26.64031 Y7.71566
G01 X26.63010 Y7.66981
G01 X26.62669 Y7.61482
G01 X26.63198 Y7.55998
G01 X26.64183 Y7.52198
G01 X26.58354 Y7.56399
G01 X26.49080 Y7.60611
G01 X26.44508 Y7.61997
G01 X26.49080 Y7.63387
G01 X26.58918 Y7.67931
G01 X26.63731 Y7.71319
G01 X26.69916 Y7.76956
G01 X26.76291 Y7.85716
G01 X26.79192 Y7.90837
G01 X26.81310 Y7.96328
G01 X26.83322 Y8.04451
G01 X26.83754 Y8.10321
G01 X26.83754 Y8.40677
G01 X26.82987 Y8.48479
G01 X26.80711 Y8.55983
G01 X26.78814 Y8.60562
G01 X26.75118 Y8.67476
G01 X26.70142 Y8.73539
G01 X26.62702 Y8.80494
G01 X26.58354 Y8.83399
G01 X26.53660 Y8.85713
G01 X26.44699 Y8.89056
G01 X26.49634 Y8.90405
G01 X26.57211 Y8.93963
G01 X26.62182 Y8.97110
G01 X26.70142 Y9.04458
G01 X26.75118 Y9.10521
G01 X26.78814 Y9.17435
G01 X26.82555 Y9.27603
G01 X26.83563 Y9.33399
G01 X26.83998 Y9.40148
G01 X26.83754 Y9.68027
G01 X26.82951 Y9.75652
G01 X26.80711 Y9.82983
G01 X26.76167 Y9.92817
G01 X26.71199 Y9.99554
G01 X26.65654 Y10.05098
G01 X26.58918 Y10.10067
G01 X26.49080 Y10.14611
G01 X26.41595 Y10.16881
G01 X26.33812 Y10.17654
G01 X23.76602 Y10.17885
G01 X23.64608 Y10.29876
G01 X23.63508 Y10.35413
G01 X23.61232 Y10.42916
G01 X23.58230 Y10.50163
G01 X23.54534 Y10.57077
G01 X23.50178 Y10.63597
G01 X23.45202 Y10.69657
G01 X23.39657 Y10.75202
G01 X23.30445 Y10.82518
G01 X23.20163 Y10.88230
G01 X23.15647 Y10.90099
G01 X23.15647 Y10.90887
G01 X23.23671 Y10.94125
G01 X23.27994 Y10.96434
G01 X23.34514 Y11.00793
G01 X23.38301 Y11.03902
G01 X23.43846 Y11.09444
G01 X23.49294 Y11.16386
G01 X23.51314 Y11.19754
G01 X23.53622 Y11.24077
G01 X23.56622 Y11.31321
G01 X23.59000 Y11.39817
G01 X23.60249 Y11.52500
G01 X23.60249 Y12.04999
G01 X23.59576 Y12.13797
G01 X23.58047 Y12.21489
G01 X23.56622 Y12.26177
G01 X23.53622 Y12.33421
G01 X23.49294 Y12.41110
G01 X23.43846 Y12.48052
G01 X23.38301 Y12.53597
G01 X23.34514 Y12.56706
G01 X23.27994 Y12.61062
G01 X23.20122 Y12.65052
G01 X23.11738 Y12.67795
G01 X23.04047 Y12.69327
G01 X22.95274 Y12.69997
G01 X22.01329 Y12.69807
G01 X21.96450 Y12.69327
G01 X21.88761 Y12.67795
G01 X21.80374 Y12.65052
G01 X21.72503 Y12.61062
G01 X21.65985 Y12.56706
G01 X21.62195 Y12.53597
G01 X21.56650 Y12.48052
G01 X21.51202 Y12.41110
G01 X21.46874 Y12.33421
G01 X21.43874 Y12.26177
G01 X21.41497 Y12.17679
G01 X21.40250 Y12.04999
G01 X21.40250 Y11.52500
G01 X21.17804 Y11.44628
G01 X21.40250 Y11.52500
G01 X21.40923 Y11.43701
G01 X21.42452 Y11.36010
G01 X21.43874 Y11.31321
G01 X21.46874 Y11.24077
G01 X21.51202 Y11.16386
G01 X21.56650 Y11.09444
G01 X21.62195 Y11.03902
G01 X21.65985 Y11.00793
G01 X21.72503 Y10.96434
G01 X21.76826 Y10.94125
G01 X21.84847 Y10.90889
G01 X21.84971 Y10.48609
G01 X21.86267 Y10.38436
G01 X21.89137 Y10.28591
G01 X21.90661 Y10.24908
G01 X21.95594 Y10.15916
G01 X22.01873 Y10.07808
G01 X22.07390 Y10.02116
G01 X22.08489 Y9.96584
G01 X22.10765 Y9.89081
G01 X22.13767 Y9.81834
G01 X22.17463 Y9.74921
G01 X22.21819 Y9.68400
G01 X22.26795 Y9.62340
G01 X22.29429 Y9.59429
G01 X22.38400 Y9.51819
G01 X22.44921 Y9.47463
G01 X22.51834 Y9.43767
G01 X22.59081 Y9.40765
G01 X22.66584 Y9.38489
G01 X22.72119 Y9.37390
G01 X23.03254 Y9.06254
G01 X23.10013 Y9.00458
G01 X23.16531 Y8.96102
G01 X23.20922 Y8.93755
G01 X23.28167 Y8.90755
G01 X23.32932 Y8.89310
G01 X23.36315 Y8.88975
G01 X23.32932 Y8.89310
G01 X23.28167 Y8.90755
G01 X23.20922 Y8.93755
G01 X23.16531 Y8.96102
G01 X23.10013 Y9.00458
G01 X23.03254 Y9.06254
G01 X22.85522 Y9.23983
G01 X21.67753 Y9.23983
G01 X21.58924 Y9.37189
G01 X21.47890 Y9.68037
G01 X21.29714 Y10.05662
G01 X21.23359 Y10.19922
G01 X21.26656 Y10.34964
G01 X21.27113 Y10.46442
G01 X21.22297 Y10.83610
G01 X21.20707 Y10.99241
G01 X21.18101 Y11.34913
G01 X21.16559 Y11.69998
G01 X21.14570 Y11.91232
G01 X21.07776 Y12.35012
G01 X21.47722 Y12.35012
G01 X21.51202 Y12.41110
G01 X21.56650 Y12.48052
G01 X21.62195 Y12.53597
G01 X21.65985 Y12.56706
G01 X21.72503 Y12.61062
G01 X21.80374 Y12.65052
G01 X21.88761 Y12.67795
G01 X21.96450 Y12.69327
G01 X22.05223 Y12.69997
G01 X22.95274 Y12.69997
G01 X23.04047 Y12.69327
G01 X23.11738 Y12.67795
G01 X23.20122 Y12.65052
G01 X23.27994 Y12.61062
G01 X23.34514 Y12.56706
G01 X23.38301 Y12.53597
G01 X23.43846 Y12.48052
G01 X23.49294 Y12.41110
G01 X23.52774 Y12.35012
G01 X23.74275 Y12.35012
G01 X23.85444 Y11.92406
G01 X23.92360 Y11.69185
G01 X24.04417 Y11.39172
G01 X24.20396 Y11.03320
G01 X24.15418 Y10.91298
G01 X24.17442 Y10.87819
G01 X24.12093 Y10.78527
G01 X24.17442 Y10.87819
G01 X24.15418 Y10.91298
G01 X24.07323 Y10.90752
G01 X24.15418 Y10.91298
G01 X24.17442 Y10.87819
G01 X24.31920 Y10.87806
G01 X24.33434 Y10.86541
G01 X24.38916 Y10.83427
G01 X24.38634 Y10.82797
G01 X24.38916 Y10.83427
G01 X24.44864 Y10.81349
G01 X24.53907 Y10.79061
G01 X24.81671 Y10.73554
G01 X25.16292 Y10.69668
G01 X25.27577 Y10.69190
G01 X25.54117 Y10.69109
G01 X25.88758 Y10.72197
G01 X25.99855 Y10.73821
G01 X26.19639 Y10.65616
G01 X26.34374 Y10.58583
G01 X26.44615 Y10.44390
G01 X26.57853 Y10.21189
G01 X26.63871 Y10.06561
G01 X26.71199 Y9.99554
G01 X26.76167 Y9.92817
G01 X26.80711 Y9.82983
G01 X26.82951 Y9.75652
G01 X26.83754 Y9.68027
G01 X26.83998 Y9.40148
G01 X26.83563 Y9.33399
G01 X26.82555 Y9.27603
G01 X26.80711 Y9.22015
G01 X26.78814 Y9.17435
G01 X26.75118 Y9.10521
G01 X26.70142 Y9.04458
G01 X26.62182 Y8.97110
G01 X26.55011 Y8.92790
G01 X26.49634 Y8.90405
G01 X26.44767 Y8.89056
G01 X23.34153 Y8.88992
G01 X23.26343 Y8.86610
G01 X23.22660 Y8.85086
G01 X23.13668 Y8.80153
G01 X23.08591 Y8.76465
G01 X23.03254 Y8.71743
G01 X22.85522 Y8.54012
G01 X19.81429 Y7.96983
G01 X19.74820 Y7.91561
G01 X19.68299 Y7.87204
G01 X19.54469 Y7.79810
G01 X19.47225 Y7.76811
G01 X19.28409 Y7.71304
G01 X19.08919 Y7.69191
G01 X19.01078 Y7.69191
G01 X18.81589 Y7.71304
G01 X18.62772 Y7.76811
G01 X18.55528 Y7.79810
G01 X18.38330 Y7.89221
G01 X18.23055 Y8.01510
G01 X18.17510 Y8.07055
G01 X18.07561 Y8.19178
G01 X18.03204 Y8.25698
G01 X17.94134 Y8.43077
G01 X17.88259 Y8.61781
G01 X17.86727 Y8.69470
G01 X17.84998 Y8.89000
G01 X17.15026 Y8.89000
G01 X17.84998 Y8.89000
G01 X17.86727 Y9.08528
G01 X17.88259 Y9.16216
G01 X17.92811 Y9.31225
G01 X17.95810 Y9.38469
G01 X18.03204 Y9.52299
G01 X18.07561 Y9.58820
G01 X18.17510 Y9.70943
G01 X18.23055 Y9.76488
G01 X18.38330 Y9.88776
G01 X18.55528 Y9.98187
G01 X18.62772 Y10.01187
G01 X18.77781 Y10.05738
G01 X18.85470 Y10.07270
G01 X19.05000 Y10.09000
G01 X19.28409 Y10.06693
G01 X19.47225 Y10.01187
G01 X19.54469 Y9.98187
G01 X19.71667 Y9.88776
G01 X19.81431 Y9.81011
G01 X20.64062 Y9.81011
G01 X20.83887 Y9.39493
G01 X20.92658 Y9.14723
G01 X20.93102 Y9.13381
G01 X20.94441 Y8.99777
G01 X20.94972 Y8.89000
G01 X20.94441 Y8.78220
G01 X20.93100 Y8.64611
G01 X20.85584 Y8.43384
G01 X20.70395 Y7.96983
G01 X19.81429 Y7.96983
G01 X19.74820 Y7.91561
G01 X19.68299 Y7.87204
G01 X19.54469 Y7.79810
G01 X19.47225 Y7.76811
G01 X19.28409 Y7.71304
G01 X19.05000 Y7.68998
G01 X18.81589 Y7.71304
G01 X18.62772 Y7.76811
G01 X18.55528 Y7.79810
G01 X18.41698 Y7.87204
G01 X18.35178 Y7.91561
G01 X18.28569 Y7.96983
G01 X17.39212 Y7.96983
G01 X17.34101 Y8.06544
G01 X17.29489 Y8.16300
G01 X17.25851 Y8.26460
G01 X17.21300 Y8.41469
G01 X17.17093 Y8.62612
G01 X17.15557 Y8.78220
G01 X17.15026 Y8.89000
G01 X17.15557 Y8.99777
G01 X17.17093 Y9.15386
G01 X17.21300 Y9.36528
G01 X17.25851 Y9.51537
G01 X17.34101 Y9.71453
G01 X17.39209 Y9.81011
G01 X18.28566 Y9.81011
G01 X18.35178 Y9.86437
G01 X18.41698 Y9.90793
G01 X18.55528 Y9.98187
G01 X18.62772 Y10.01187
G01 X18.81589 Y10.06693
G01 X19.01078 Y10.08807
G01 X19.08919 Y10.08807
G01 X19.28409 Y10.06693
G01 X19.47225 Y10.01187
G01 X19.54469 Y9.98187
G01 X19.71667 Y9.88776
G01 X19.86943 Y9.76488
G01 X19.92488 Y9.70943
G01 X20.02437 Y9.58820
G01 X20.06793 Y9.52299
G01 X20.14187 Y9.38469
G01 X20.17187 Y9.31225
G01 X20.21738 Y9.16216
G01 X20.23270 Y9.08528
G01 X20.24807 Y8.92919
G01 X20.24807 Y8.85078
G01 X20.23270 Y8.69470
G01 X20.21738 Y8.61781
G01 X20.17187 Y8.46772
G01 X20.14187 Y8.39528
G01 X20.06793 Y8.25698
G01 X20.02437 Y8.19178
G01 X19.92488 Y8.07055
G01 X19.86943 Y8.01510
G01 X19.81429 Y7.96983
G01 X19.81431 Y7.27011
G01 X19.86943 Y7.22488
G01 X19.92488 Y7.16943
G01 X20.02437 Y7.04820
G01 X20.06793 Y6.98299
G01 X20.15863 Y6.80921
G01 X20.21738 Y6.62214
G01 X20.23270 Y6.54525
G01 X20.24807 Y6.38919
G01 X20.24807 Y6.31078
G01 X20.23270 Y6.15470
G01 X20.21738 Y6.07781
G01 X20.15863 Y5.89077
G01 X20.06793 Y5.71698
G01 X20.02437 Y5.65178
G01 X19.92488 Y5.53055
G01 X19.86943 Y5.47510
G01 X19.71667 Y5.35221
G01 X19.54469 Y5.25810
G01 X19.47225 Y5.22811
G01 X19.28409 Y5.17304
G01 X19.05000 Y5.14998
G01 X18.81589 Y5.17304
G01 X18.62772 Y5.22811
G01 X18.55528 Y5.25810
G01 X18.38330 Y5.35221
G01 X18.23055 Y5.47510
G01 X18.17510 Y5.53055
G01 X18.07561 Y5.65178
G01 X18.03204 Y5.71698
G01 X17.94134 Y5.89077
G01 X17.88259 Y6.07781
G01 X17.86727 Y6.15470
G01 X17.84998 Y6.35000
G01 X17.15026 Y6.35000
G01 X17.84998 Y6.35000
G01 X17.86727 Y6.54525
G01 X17.88259 Y6.62214
G01 X17.92811 Y6.77225
G01 X17.95810 Y6.84469
G01 X18.05221 Y7.01667
G01 X18.17510 Y7.16943
G01 X18.23055 Y7.22488
G01 X18.38330 Y7.34776
G01 X18.55528 Y7.44187
G01 X18.62772 Y7.47187
G01 X18.81589 Y7.52693
G01 X19.05000 Y7.55000
G01 X19.28409 Y7.52693
G01 X19.47225 Y7.47187
G01 X19.54469 Y7.44187
G01 X19.68299 Y7.36793
G01 X19.74820 Y7.32437
G01 X19.81431 Y7.27011
G01 X20.70395 Y7.27011
G01 X20.85584 Y6.80611
G01 X20.93102 Y6.59381
G01 X20.94441 Y6.45777
G01 X20.94972 Y6.35000
G01 X20.94441 Y6.24220
G01 X20.93100 Y6.10611
G01 X20.85584 Y5.89384
G01 X20.70395 Y5.42983
G01 X19.81429 Y5.42983
G01 X19.74820 Y5.37561
G01 X19.68299 Y5.33204
G01 X19.54469 Y5.25810
G01 X19.47225 Y5.22811
G01 X19.28409 Y5.17304
G01 X19.05000 Y5.14998
G01 X18.81589 Y5.17304
G01 X18.62772 Y5.22811
G01 X18.55528 Y5.25810
G01 X18.41698 Y5.33204
G01 X18.35178 Y5.37561
G01 X18.28569 Y5.42983
G01 X17.39212 Y5.42983
G01 X17.34101 Y5.52544
G01 X17.29489 Y5.62300
G01 X17.25851 Y5.72460
G01 X17.21300 Y5.87469
G01 X17.17093 Y6.08612
G01 X17.15557 Y6.24220
G01 X17.15026 Y6.35000
G01 X17.15557 Y6.45777
G01 X17.17093 Y6.61386
G01 X17.21300 Y6.82528
G01 X17.25851 Y6.97537
G01 X17.34101 Y7.17453
G01 X17.39209 Y7.27011
G01 X18.28566 Y7.27011
G01 X18.35178 Y7.32437
G01 X18.41698 Y7.36793
G01 X18.55528 Y7.44187
G01 X18.62772 Y7.47187
G01 X18.81589 Y7.52693
G01 X19.05000 Y7.55000
G01 X19.28409 Y7.52693
G01 X19.47225 Y7.47187
G01 X19.54469 Y7.44187
G01 X19.68299 Y7.36793
G01 X19.74820 Y7.32437
G01 X19.81431 Y7.27011
G01 X19.81429 Y7.96983
G01 X22.85522 Y8.54012
G01 X22.72119 Y8.40608
G01 X22.66584 Y8.39508
G01 X22.55383 Y8.35909
G01 X22.44921 Y8.30534
G01 X22.38400 Y8.26178
G01 X22.29429 Y8.18568
G01 X22.26795 Y8.15658
G01 X22.21819 Y8.09597
G01 X22.17463 Y8.03077
G01 X22.12089 Y7.92615
G01 X22.08489 Y7.81413
G01 X22.06960 Y7.73722
G01 X22.06191 Y7.65919
G01 X22.06191 Y7.58078
G01 X21.38454 Y7.43869
G01 X22.06191 Y7.58078
G01 X22.06960 Y7.50275
G01 X22.08489 Y7.42584
G01 X22.12089 Y7.31383
G01 X22.17463 Y7.20921
G01 X22.21819 Y7.14400
G01 X22.29429 Y7.05429
G01 X22.38400 Y6.97819
G01 X22.44921 Y6.93463
G01 X22.51834 Y6.89767
G01 X22.59081 Y6.86765
G01 X22.66584 Y6.84489
G01 X22.72119 Y6.83390
G01 X23.03254 Y6.52254
G01 X23.10011 Y6.46458
G01 X23.16531 Y6.42102
G01 X23.24471 Y6.38076
G01 X23.32932 Y6.35310
G01 X23.36315 Y6.34975
G01 X23.32932 Y6.35310
G01 X23.24471 Y6.38076
G01 X23.16531 Y6.42102
G01 X23.10011 Y6.46458
G01 X23.03254 Y6.52254
G01 X22.85525 Y6.69983
G01 X21.67753 Y6.69983
G01 X21.58924 Y6.83189
G01 X21.51840 Y7.03113
G01 X21.36752 Y7.49242
G01 X21.36750 Y7.74753
G01 X21.51840 Y8.20882
G01 X21.58926 Y8.40811
G01 X21.67750 Y8.54012
G01 X22.85522 Y8.54012
G01 X19.81429 Y10.50983
G01 X19.71667 Y10.43221
G01 X19.54469 Y10.33810
G01 X19.47225 Y10.30811
G01 X19.28409 Y10.25304
G01 X19.08919 Y10.23191
G01 X19.01078 Y10.23191
G01 X18.81589 Y10.25304
G01 X18.62772 Y10.30811
G01 X18.55528 Y10.33810
G01 X18.41698 Y10.41204
G01 X18.35178 Y10.45561
G01 X18.23055 Y10.55510
G01 X18.17510 Y10.61055
G01 X18.07561 Y10.73178
G01 X18.03204 Y10.79698
G01 X17.95810 Y10.93528
G01 X17.92811 Y11.00772
G01 X17.88259 Y11.15781
G01 X17.86727 Y11.23470
G01 X17.84998 Y11.43000
G01 X17.15026 Y11.43000
G01 X17.84998 Y11.43000
G01 X17.86727 Y11.62528
G01 X17.88259 Y11.70216
G01 X17.92811 Y11.85225
G01 X17.95810 Y11.92469
G01 X18.03204 Y12.06299
G01 X18.07561 Y12.12820
G01 X18.17510 Y12.24943
G01 X18.23055 Y12.30488
G01 X18.38330 Y12.42776
G01 X18.55528 Y12.52187
G01 X18.62772 Y12.55187
G01 X18.77781 Y12.59738
G01 X18.85470 Y12.61270
G01 X19.05000 Y12.63000
G01 X19.28409 Y12.60693
G01 X19.47225 Y12.55187
G01 X19.54469 Y12.52187
G01 X19.71667 Y12.42776
G01 X19.81431 Y12.35012
G01 X20.37095 Y12.35012
G01 X20.44957 Y11.83500
G01 X20.46714 Y11.65710
G01 X20.48226 Y11.31184
G01 X20.50943 Y10.93612
G01 X20.55843 Y10.50983
G01 X19.81429 Y10.50983
G01 X19.86943 Y10.55510
G01 X19.92488 Y10.61055
G01 X20.02437 Y10.73178
G01 X20.06793 Y10.79698
G01 X20.15863 Y10.97077
G01 X20.21738 Y11.15781
G01 X20.23270 Y11.23470
G01 X20.24807 Y11.39078
G01 X20.24807 Y11.46919
G01 X20.23270 Y11.62528
G01 X20.21738 Y11.70216
G01 X20.15863 Y11.88921
G01 X20.06793 Y12.06299
G01 X20.02437 Y12.12820
G01 X19.92488 Y12.24943
G01 X19.86943 Y12.30488
G01 X19.71667 Y12.42776
G01 X19.54469 Y12.52187
G01 X19.47225 Y12.55187
G01 X19.28409 Y12.60693
G01 X19.05000 Y12.63000
G01 X18.81589 Y12.60693
G01 X18.62772 Y12.55187
G01 X18.55528 Y12.52187
G01 X18.41698 Y12.44793
G01 X18.35178 Y12.40437
G01 X18.28566 Y12.35012
G01 X17.39209 Y12.35012
G01 X17.34101 Y12.25453
G01 X17.25851 Y12.05537
G01 X17.21300 Y11.90528
G01 X17.17093 Y11.69386
G01 X17.15557 Y11.53777
G01 X17.15026 Y11.43000
G01 X17.15557 Y11.32220
G01 X17.17093 Y11.16612
G01 X17.21300 Y10.95469
G01 X17.25851 Y10.80460
G01 X17.29489 Y10.70300
G01 X17.34101 Y10.60544
G01 X17.39212 Y10.50983
G01 X18.28569 Y10.50983
G01 X12.19429 Y10.50983
G01 X18.28566 Y14.89011
G01 X18.35178 Y14.94437
G01 X18.41698 Y14.98793
G01 X18.55528 Y15.06187
G01 X18.62772 Y15.09187
G01 X18.77781 Y15.13738
G01 X18.85470 Y15.15270
G01 X19.05000 Y15.17000
G01 X19.24528 Y15.15270
G01 X19.32216 Y15.13738
G01 X19.47225 Y15.09187
G01 X19.54469 Y15.06187
G01 X19.71667 Y14.96776
G01 X19.86943 Y14.84488
G01 X19.92488 Y14.78943
G01 X20.02437 Y14.66820
G01 X20.06793 Y14.60299
G01 X20.14187 Y14.46469
G01 X20.17187 Y14.39225
G01 X20.21738 Y14.24216
G01 X20.23270 Y14.16528
G01 X20.25000 Y13.97000
G01 X20.23270 Y13.77470
G01 X20.21738 Y13.69781
G01 X20.17187 Y13.54772
G01 X20.14187 Y13.47528
G01 X20.06793 Y13.33698
G01 X20.02437 Y13.27175
G01 X19.89851 Y13.12144
G01 X19.74820 Y12.99561
G01 X19.68299 Y12.95204
G01 X19.54469 Y12.87810
G01 X19.47225 Y12.84811
G01 X19.32216 Y12.80259
G01 X19.24528 Y12.78727
G01 X19.05000 Y12.76995
G01 X18.85470 Y12.78727
G01 X18.77781 Y12.80259
G01 X18.62772 Y12.84811
G01 X18.55528 Y12.87810
G01 X18.38330 Y12.97221
G01 X18.23055 Y13.09510
G01 X18.17510 Y13.15055
G01 X18.07561 Y13.27175
G01 X18.03204 Y13.33698
G01 X17.95810 Y13.47528
G01 X17.92811 Y13.54772
G01 X17.88259 Y13.69781
G01 X17.86727 Y13.77470
G01 X17.84998 Y13.97000
G01 X17.15026 Y13.97000
G01 X17.84998 Y13.97000
G01 X17.86727 Y14.16528
G01 X17.88259 Y14.24216
G01 X17.92811 Y14.39225
G01 X17.95810 Y14.46469
G01 X18.03204 Y14.60299
G01 X18.07561 Y14.66820
G01 X18.17510 Y14.78943
G01 X18.23055 Y14.84488
G01 X18.35178 Y14.94437
G01 X18.41698 Y14.98793
G01 X18.55528 Y15.06187
G01 X18.62772 Y15.09187
G01 X18.77781 Y15.13738
G01 X18.85470 Y15.15270
G01 X19.05000 Y15.17000
G01 X19.24528 Y15.15270
G01 X19.32216 Y15.13738
G01 X19.47225 Y15.09187
G01 X19.54469 Y15.06187
G01 X19.71667 Y14.96776
G01 X19.81431 Y14.89011
G01 X20.55843 Y14.89011
G01 X20.50943 Y14.46383
G01 X20.48226 Y14.08816
G01 X20.46714 Y13.74287
G01 X20.44957 Y13.56495
G01 X20.37095 Y13.04983
G01 X19.81429 Y13.04983
G01 X19.74820 Y12.99561
G01 X19.68299 Y12.95204
G01 X19.54469 Y12.87810
G01 X19.47225 Y12.84811
G01 X19.32216 Y12.80259
G01 X19.24528 Y12.78727
G01 X19.05000 Y12.76995
G01 X18.85470 Y12.78727
G01 X18.77781 Y12.80259
G01 X18.62772 Y12.84811
G01 X18.55528 Y12.87810
G01 X18.41698 Y12.95204
G01 X18.35178 Y12.99561
G01 X18.28569 Y13.04983
G01 X17.39212 Y13.04983
G01 X17.34101 Y13.14544
G01 X17.29489 Y13.24300
G01 X17.25851 Y13.34460
G01 X17.21300 Y13.49469
G01 X17.17093 Y13.70612
G01 X17.15557 Y13.86220
G01 X17.15026 Y13.97000
G01 X17.15557 Y14.07777
G01 X17.17093 Y14.23386
G01 X17.21300 Y14.44528
G01 X17.25851 Y14.59537
G01 X17.34101 Y14.79453
G01 X17.39209 Y14.89011
G01 X18.28566 Y14.89011
G01 X13.32441 Y11.32248
G01 X13.30904 Y11.16612
G01 X13.29322 Y11.05936
G01 X13.26695 Y10.95469
G01 X13.22146 Y10.80460
G01 X13.13896 Y10.60544
G01 X13.08786 Y10.50983
G01 X13.13896 Y10.60544
G01 X13.22146 Y10.80460
G01 X13.26695 Y10.95469
G01 X13.29322 Y11.05936
G01 X13.30904 Y11.16612
G01 X13.32441 Y11.32220
G01 X13.32441 Y11.53777
G01 X13.30904 Y11.69386
G01 X13.29322 Y11.80061
G01 X13.26695 Y11.90528
G01 X13.22761 Y12.03513
G01 X13.02631 Y12.16000
G01 X12.80859 Y12.27673
G01 X12.65293 Y12.35012
G01 X12.19431 Y12.35012
G01 X12.09667 Y12.42776
G01 X11.88921 Y12.53863
G01 X11.66409 Y12.60693
G01 X11.46919 Y12.62807
G01 X11.39078 Y12.62807
G01 X11.19589 Y12.60693
G01 X11.00772 Y12.55187
G01 X10.93528 Y12.52187
G01 X10.79698 Y12.44793
G01 X10.73178 Y12.40437
G01 X10.66566 Y12.35012
G01 X9.77209 Y12.35012
G01 X9.72101 Y12.25453
G01 X9.63851 Y12.05537
G01 X9.59300 Y11.90528
G01 X9.56676 Y11.80061
G01 X9.55093 Y11.69386
G01 X9.53557 Y11.53777
G01 X9.53557 Y11.32220
G01 X9.55093 Y11.16612
G01 X9.56676 Y11.05936
G01 X9.59300 Y10.95469
G01 X9.63851 Y10.80460
G01 X9.72101 Y10.60544
G01 X9.77212 Y10.50983
G01 X10.66569 Y10.50983
G01 X10.66566 Y9.81011
G01 X5.21940 Y19.24657
G01 X5.17741 Y19.29775
G01 X5.14043 Y19.36692
G01 X5.11767 Y19.44195
G01 X5.11000 Y19.51998
G01 X5.11000 Y21.12000
G01 X5.11767 Y21.19803
G01 X5.14043 Y21.27306
G01 X5.17741 Y21.34222
G01 X5.22714 Y21.40283
G01 X5.28775 Y21.45259
G01 X5.35691 Y21.48954
G01 X5.43194 Y21.51230
G01 X5.51000 Y21.52000
G01 X7.10999 Y21.52000
G01 X7.18802 Y21.51230
G01 X7.26305 Y21.48954
G01 X7.33222 Y21.45259
G01 X7.39282 Y21.40283
G01 X7.44258 Y21.34222
G01 X7.47954 Y21.27306
G01 X7.50230 Y21.19803
G01 X7.50999 Y21.12000
G01 X7.50999 Y19.51998
G01 X7.50230 Y19.44195
G01 X7.47954 Y19.36692
G01 X7.44258 Y19.29775
G01 X7.39282 Y19.23715
G01 X7.33222 Y19.18739
G01 X7.26305 Y19.15043
G01 X7.18802 Y19.12767
G01 X7.10999 Y19.11998
G01 X5.51000 Y19.11998
G01 X5.43194 Y19.12767
G01 X5.35691 Y19.15043
G01 X5.28775 Y19.18739
G01 X5.21940 Y19.24657
G01 X5.19252 Y19.11645
G01 X5.16296 Y18.92511
G01 X5.13169 Y18.63382
G01 X5.12138 Y18.49420
G01 X5.29544 Y18.44139
G01 X5.51000 Y18.42026
G01 X7.10999 Y18.42026
G01 X7.32452 Y18.44139
G01 X7.53082 Y18.50398
G01 X7.72096 Y18.60560
G01 X7.88761 Y18.74236
G01 X8.02437 Y18.90900
G01 X8.12599 Y19.09915
G01 X8.18858 Y19.30545
G01 X8.20971 Y19.51998
G01 X8.20971 Y20.98368
G01 X8.14809 Y21.38375
G01 X8.11761 Y21.55652
G01 X8.02437 Y21.73097
G01 X7.88761 Y21.89762
G01 X7.72096 Y22.03437
G01 X7.53082 Y22.13600
G01 X7.32452 Y22.19858
G01 X7.10999 Y22.21972
G01 X5.51000 Y22.21972
G01 X5.29544 Y22.19858
G01 X5.12138 Y22.14578
G01 X5.13169 Y22.00613
G01 X5.16296 Y21.71484
G01 X5.19252 Y21.52350
G01 X5.21940 Y21.39338
G01 X4.62943 Y21.19488
G01 X4.47667 Y21.31776
G01 X4.30469 Y21.41187
G01 X4.23225 Y21.44187
G01 X4.08216 Y21.48738
G01 X4.00528 Y21.50270
G01 X3.81000 Y21.52000
G01 X3.61470 Y21.50270
G01 X3.53781 Y21.48738
G01 X3.35077 Y21.42863
G01 X3.17698 Y21.33793
G01 X3.11178 Y21.29437
G01 X2.99055 Y21.19488
G01 X2.93510 Y21.13943
G01 X2.83561 Y21.01820
G01 X2.79204 Y20.95299
G01 X2.71810 Y20.81469
G01 X2.68811 Y20.74225
G01 X2.64259 Y20.59216
G01 X2.62727 Y20.51528
G01 X2.60998 Y20.32000
G01 X1.91557 Y20.42777
G01 X2.60998 Y20.32000
G01 X2.62727 Y20.12470
G01 X2.64259 Y20.04781
G01 X2.68811 Y19.89773
G01 X2.71810 Y19.82528
G01 X2.81221 Y19.65330
G01 X2.93510 Y19.50055
G01 X2.99055 Y19.44510
G01 X3.14330 Y19.32221
G01 X3.31528 Y19.22810
G01 X3.38772 Y19.19811
G01 X3.53781 Y19.15259
G01 X3.61470 Y19.13727
G01 X3.81000 Y19.11998
G01 X4.00528 Y19.13727
G01 X4.08216 Y19.15259
G01 X4.26921 Y19.21134
G01 X4.44299 Y19.30204
G01 X4.50820 Y19.34561
G01 X4.62943 Y19.44510
G01 X4.68488 Y19.50055
G01 X4.80776 Y19.65330
G01 X4.90187 Y19.82528
G01 X4.93187 Y19.89773
G01 X4.97738 Y20.04781
G01 X4.99270 Y20.12470
G01 X5.01000 Y20.32000
G01 X4.98693 Y20.55409
G01 X4.93187 Y20.74225
G01 X4.90187 Y20.81469
G01 X4.80776 Y20.98667
G01 X4.68488 Y21.13943
G01 X4.62943 Y21.19488
G01 X4.52887 Y21.27740
G01 X4.50235 Y21.40796
G01 X4.46763 Y21.63199
G01 X4.43535 Y21.93722
G01 X4.42199 Y22.11553
G01 X4.28528 Y22.15698
G01 X4.07386 Y22.19904
G01 X3.91777 Y22.21441
G01 X3.81000 Y22.21972
G01 X3.70220 Y22.21441
G01 X3.54612 Y22.19904
G01 X3.33469 Y22.15698
G01 X3.18455 Y22.11146
G01 X3.08300 Y22.07509
G01 X2.98544 Y22.02896
G01 X2.84714 Y21.95502
G01 X2.66786 Y21.83526
G01 X2.54665 Y21.73577
G01 X2.46667 Y21.66330
G01 X2.39420 Y21.58332
G01 X2.29471 Y21.46211
G01 X2.23042 Y21.37542
G01 X2.17495 Y21.28284
G01 X2.10101 Y21.14453
G01 X2.01851 Y20.94537
G01 X1.97300 Y20.79528
G01 X1.94676 Y20.69061
G01 X1.93093 Y20.58386
G01 X1.91557 Y20.42777
G01 X1.91557 Y20.21220
G01 X1.93093 Y20.05612
G01 X1.94676 Y19.94936
G01 X1.97300 Y19.84469
G01 X2.01851 Y19.69460
G01 X2.10101 Y19.49544
G01 X2.17495 Y19.35714
G01 X2.23042 Y19.26455
G01 X2.29471 Y19.17786
G01 X2.39420 Y19.05665
G01 X2.54665 Y18.90420
G01 X2.66786 Y18.80471
G01 X2.75455 Y18.74042
G01 X2.84714 Y18.68495
G01 X2.98544 Y18.61101
G01 X3.18455 Y18.52851
G01 X3.33469 Y18.48300
G01 X3.54612 Y18.44093
G01 X3.70220 Y18.42557
G01 X3.81000 Y18.42026
G01 X3.91777 Y18.42557
G01 X4.07386 Y18.44093
G01 X4.28528 Y18.48300
G01 X4.42199 Y18.52445
G01 X4.43535 Y18.70273
G01 X4.46763 Y19.00796
G01 X4.50235 Y19.23199
G01 X4.52887 Y19.36257
G01 X4.62943 Y19.44510
G01 X4.68488 Y19.50055
G01 X4.78437 Y19.62178
G01 X4.82793 Y19.68698
G01 X4.90187 Y19.82528
G01 X4.93187 Y19.89773
G01 X4.98693 Y20.08589
G01 X5.00807 Y20.28078
G01 X5.00807 Y20.35919
G01 X4.98693 Y20.55409
G01 X4.93187 Y20.74225
G01 X4.90187 Y20.81469
G01 X4.80776 Y20.98667
G01 X4.68488 Y21.13943
G01 X4.62943 Y21.19488
G01 X5.21940 Y21.39338
G01 X11.05187 Y26.68999
G01 X12.07999 Y26.68999
G01 X12.28501 Y26.70825
G01 X12.36193 Y26.72354
G01 X12.52139 Y26.77190
G01 X12.59383 Y26.80193
G01 X12.77445 Y26.90066
G01 X12.93480 Y27.02974
G01 X12.99022 Y27.08519
G01 X13.09594 Y27.21399
G01 X13.13947 Y27.27919
G01 X13.21803 Y27.42616
G01 X13.24803 Y27.49860
G01 X13.29644 Y27.65803
G01 X13.31173 Y27.73495
G01 X13.32807 Y27.90078
G01 X13.32807 Y27.97919
G01 X13.31173 Y28.14503
G01 X13.29644 Y28.22194
G01 X13.24803 Y28.38138
G01 X13.21803 Y28.45382
G01 X13.11933 Y28.63446
G01 X12.98512 Y28.79989
G01 X12.98512 Y28.86012
G01 X12.92273 Y28.86012
G01 X12.98512 Y28.79989
G01 X12.93480 Y28.85023
G01 X12.77445 Y28.97932
G01 X12.59383 Y29.07805
G01 X12.52139 Y29.10807
G01 X12.36193 Y29.15643
G01 X12.28501 Y29.17172
G01 X12.07999 Y29.18998
G01 X10.77999 Y29.18998
G01 X10.57496 Y29.17172
G01 X10.49805 Y29.15643
G01 X10.33859 Y29.10807
G01 X10.26615 Y29.07805
G01 X10.11918 Y28.99951
G01 X10.05401 Y28.95595
G01 X9.92518 Y28.85023
G01 X9.86975 Y28.79479
G01 X9.76404 Y28.66598
G01 X9.72048 Y28.60078
G01 X9.62513 Y28.41833
G01 X9.56353 Y28.22194
G01 X9.54824 Y28.14503
G01 X9.52998 Y27.94000
G01 X8.83026 Y27.94000
G01 X9.52998 Y27.94000
G01 X9.54824 Y27.73495
G01 X9.56353 Y27.65803
G01 X9.62513 Y27.46164
G01 X9.74065 Y27.24551
G01 X9.86975 Y27.08519
G01 X9.92518 Y27.02974
G01 X10.05401 Y26.92403
G01 X10.11918 Y26.88046
G01 X10.26615 Y26.80193
G01 X10.33859 Y26.77190
G01 X10.49805 Y26.72354
G01 X10.57496 Y26.70825
G01 X10.74077 Y26.69192
G01 X11.05187 Y26.68999
G01 X10.81860 Y26.64031
G01 X10.66985 Y26.59510
G01 X10.41286 Y26.50741
G01 X10.21928 Y26.44897
G01 X10.04760 Y26.40594
G01 X9.78266 Y26.35369
G01 X9.67194 Y26.33729
G01 X9.61009 Y26.38311
G01 X9.48129 Y26.48882
G01 X9.32886 Y26.64130
G01 X9.22315 Y26.77010
G01 X9.15886 Y26.85679
G01 X9.10336 Y26.94935
G01 X9.02482 Y27.09631
G01 X8.94232 Y27.29547
G01 X8.89396 Y27.45494
G01 X8.85190 Y27.66637
G01 X8.83557 Y27.83220
G01 X8.83026 Y27.94000
G01 X8.83557 Y28.04777
G01 X8.85190 Y28.21361
G01 X8.89396 Y28.42504
G01 X8.94232 Y28.58450
G01 X8.97867 Y28.68613
G01 X9.06569 Y28.86012
G01 X9.93722 Y28.86012
G01 X10.05401 Y29.46403
G01 X9.92518 Y29.56974
G01 X9.86975 Y29.62519
G01 X9.76404 Y29.75399
G01 X9.72048 Y29.81919
G01 X9.64192 Y29.96616
G01 X9.61192 Y30.03860
G01 X9.56353 Y30.19803
G01 X9.54824 Y30.27495
G01 X9.52998 Y30.48000
G01 X8.83026 Y30.48000
G01 X9.52998 Y30.48000
G01 X9.54824 Y30.68503
G01 X9.56353 Y30.76194
G01 X9.61192 Y30.92138
G01 X9.64192 Y30.99382
G01 X9.72048 Y31.14078
G01 X9.76404 Y31.20598
G01 X9.89609 Y31.36387
G01 X10.05401 Y31.49595
G01 X10.11918 Y31.53951
G01 X10.26615 Y31.61805
G01 X10.33859 Y31.64807
G01 X10.53612 Y31.70596
G01 X10.77999 Y31.72998
G01 X12.07999 Y31.72998
G01 X12.32385 Y31.70596
G01 X12.52139 Y31.64807
G01 X12.59383 Y31.61805
G01 X12.77445 Y31.51932
G01 X12.93480 Y31.39023
G01 X12.99022 Y31.33479
G01 X13.11933 Y31.17446
G01 X13.21803 Y30.99382
G01 X13.24803 Y30.92138
G01 X13.29644 Y30.76194
G01 X13.31173 Y30.68503
G01 X13.32807 Y30.51919
G01 X13.32807 Y30.44078
G01 X13.31173 Y30.27495
G01 X13.29644 Y30.19803
G01 X13.24803 Y30.03860
G01 X13.21803 Y29.96616
G01 X13.11933 Y29.78551
G01 X12.98512 Y29.62006
G01 X12.98512 Y29.55983
G01 X12.92271 Y29.55983
G01 X12.98512 Y29.62006
G01 X12.93480 Y29.56974
G01 X12.80594 Y29.46403
G01 X12.74079 Y29.42046
G01 X12.59383 Y29.34193
G01 X12.52139 Y29.31190
G01 X12.32385 Y29.25402
G01 X12.07999 Y29.22999
G01 X10.74077 Y29.23192
G01 X10.53612 Y29.25402
G01 X10.33859 Y29.31190
G01 X10.26615 Y29.34193
G01 X10.08553 Y29.44066
G01 X9.93724 Y29.55983
G01 X9.06569 Y29.55983
G01 X9.02482 Y29.63631
G01 X8.94232 Y29.83547
G01 X8.89396 Y29.99494
G01 X8.85190 Y30.20637
G01 X8.83557 Y30.37220
G01 X8.83026 Y30.48000
G01 X8.83557 Y30.58777
G01 X8.85190 Y30.75361
G01 X8.89396 Y30.96504
G01 X8.94232 Y31.12450
G01 X8.97867 Y31.22612
G01 X9.02482 Y31.32366
G01 X9.10336 Y31.47063
G01 X9.22315 Y31.64987
G01 X9.32886 Y31.77868
G01 X9.40133 Y31.85864
G01 X9.48129 Y31.93113
G01 X9.61009 Y32.03684
G01 X9.78934 Y32.15660
G01 X9.93630 Y32.23514
G01 X10.13546 Y32.31764
G01 X10.29492 Y32.36603
G01 X10.39962 Y32.39224
G01 X10.50638 Y32.40809
G01 X10.67219 Y32.42442
G01 X10.77999 Y32.42970
G01 X12.07999 Y32.42970
G01 X12.18778 Y32.42442
G01 X12.35359 Y32.40809
G01 X12.46035 Y32.39224
G01 X12.56505 Y32.36603
G01 X12.72451 Y32.31764
G01 X12.92367 Y32.23514
G01 X12.98512 Y32.20232
G01 X12.98512 Y31.33992
G01 X12.99022 Y31.33479
G01 X13.68483 Y31.34040
G01 X13.73518 Y31.39023
G01 X13.86401 Y31.49595
G01 X13.92918 Y31.53951
G01 X14.07615 Y31.61805
G01 X14.14859 Y31.64807
G01 X14.34612 Y31.70596
G01 X14.55077 Y31.72805
G01 X15.92920 Y31.72805
G01 X16.13385 Y31.70596
G01 X16.33139 Y31.64807
G01 X16.40383 Y31.61805
G01 X16.58445 Y31.51932
G01 X16.74480 Y31.39023
G01 X16.80022 Y31.33479
G01 X16.90594 Y31.20598
G01 X16.94950 Y31.14078
G01 X17.02806 Y30.99382
G01 X17.05806 Y30.92138
G01 X17.10644 Y30.76194
G01 X17.12173 Y30.68503
G01 X17.14000 Y30.48000
G01 X17.12173 Y30.27495
G01 X17.10644 Y30.19803
G01 X17.04485 Y30.00164
G01 X16.94950 Y29.81919
G01 X16.90594 Y29.75399
G01 X16.80022 Y29.62519
G01 X16.74480 Y29.56974
G01 X16.61597 Y29.46403
G01 X16.55079 Y29.42046
G01 X16.40383 Y29.34193
G01 X16.33139 Y29.31190
G01 X16.13385 Y29.25402
G01 X15.88999 Y29.22999
G01 X14.58999 Y29.22999
G01 X14.34612 Y29.25402
G01 X14.14859 Y29.31190
G01 X14.07615 Y29.34193
G01 X13.89553 Y29.44066
G01 X13.74724 Y29.55983
G01 X13.68483 Y29.55983
G01 X13.68483 Y29.62008
G01 X13.74724 Y29.55983
G01 X13.67975 Y29.62519
G01 X13.57404 Y29.75399
G01 X13.53048 Y29.81919
G01 X13.43513 Y30.00164
G01 X13.37353 Y30.19803
G01 X13.35824 Y30.27495
G01 X13.33998 Y30.48000
G01 X13.35824 Y30.68503
G01 X13.37353 Y30.76194
G01 X13.42192 Y30.92138
G01 X13.45192 Y30.99382
G01 X13.53048 Y31.14078
G01 X13.57404 Y31.20598
