( pcb2gcode 2.5.0 )
( Software-independent Gcode )

( This file uses 5 drill bit sizes. )
( Bit sizes: [0.4mm] [0.8mm] [1mm] [1.24mm] [3mm] )

G94       (Millimeters per minute feed rate.)
G21       (Units == Millimeters.)
G91.1     (Incremental arc distance mode.)
G90       (Absolute coordinates.)
G00 S10000     (RPM spindle speed.)

G00 Z17.83500 (Retract)
T1
M5      (Spindle stop.)
G04 P1.00000
(MSG, Change tool bit to drill size 0.4mm)
M6      (Tool change.)
M0      (Temporary machine stop.)
M3      (Spindle on clockwise.)
G0 Z1.00000
G04 P1.00000

G1 F30.00000
G0 X12.70000 Y-22.86000
G1 Z-2.50000
G1 Z1.00000
G0 X15.24000 Y-21.59000
G1 Z-2.50000
G1 Z1.00000
G0 X19.05000 Y-25.40000
G1 Z-2.50000
G1 Z1.00000
G0 X20.32000 Y-22.86000
G1 Z-2.50000
G1 Z1.00000
G0 X22.86000 Y-25.40000
G1 Z-2.50000
G1 Z1.00000
G0 X27.94000 Y-25.40000
G1 Z-2.50000
G1 Z1.00000
G0 X30.48000 Y-27.94000
G1 Z-2.50000
G1 Z1.00000
G0 X27.94000 Y-21.59000
G1 Z-2.50000
G1 Z1.00000
G0 X22.86000 Y-17.78000
G1 Z-2.50000
G1 Z1.00000
G0 X25.40000 Y-12.70000
G1 Z-2.50000
G1 Z1.00000
G0 X22.86000 Y-10.16000
G1 Z-2.50000
G1 Z1.00000
G0 X22.86000 Y-7.62000
G1 Z-2.50000
G1 Z1.00000
G0 X22.86000 Y-5.08000
G1 Z-2.50000
G1 Z1.00000
G0 X31.75000 Y-13.97000
G1 Z-2.50000
G1 Z1.00000
G0 X33.02000 Y-11.43000
G1 Z-2.50000
G1 Z1.00000
G0 X34.29000 Y-8.89000
G1 Z-2.50000
G1 Z1.00000
G0 X34.29000 Y-6.35000
G1 Z-2.50000
G1 Z1.00000
G0 X34.29000 Y-3.81000
G1 Z-2.50000
G1 Z1.00000
G0 X41.91700 Y-10.16000
G1 Z-2.50000
G1 Z1.00000
G0 X41.91700 Y-12.70000
G1 Z-2.50000
G1 Z1.00000
G0 X38.10000 Y-16.51000
G1 Z-2.50000
G1 Z1.00000
G0 X34.29000 Y-19.05000
G1 Z-2.50000
G1 Z1.00000
G0 X38.16500 Y-24.06500
G1 Z-2.50000
G1 Z1.00000
G0 X38.10000 Y-27.94000
G1 Z-2.50000
G1 Z1.00000
G0 X40.64000 Y-25.40000
G1 Z-2.50000
G1 Z1.00000
G0 X46.99000 Y-27.94000
G1 Z-2.50000
G1 Z1.00000
G0 X43.18000 Y-24.13000
G1 Z-2.50000
G1 Z1.00000
G0 X45.72000 Y-19.05000
G1 Z-2.50000
G1 Z1.00000
G0 X46.99700 Y-10.16000
G1 Z-2.50000
G1 Z1.00000
G0 X49.53700 Y-10.16000
G1 Z-2.50000
G1 Z1.00000

G00 Z17.83500 (Retract)
T2
M5      (Spindle stop.)
G04 P1.00000
(MSG, Change tool bit to drill size 0.8mm)
M6      (Tool change.)
M0      (Temporary machine stop.)
M3      (Spindle on clockwise.)
G0 Z1.00000
G04 P1.00000

G1 F30.00000
G0 X11.43000 Y-3.81000
G1 Z-2.50000
G1 Z1.00000
G0 X11.43000 Y-6.35000
G1 Z-2.50000
G1 Z1.00000
G0 X11.43000 Y-8.89000
G1 Z-2.50000
G1 Z1.00000
G0 X11.43000 Y-11.43000
G1 Z-2.50000
G1 Z1.00000
G0 X19.05000 Y-3.81000
G1 Z-2.50000
G1 Z1.00000
G0 X19.05000 Y-6.35000
G1 Z-2.50000
G1 Z1.00000
G0 X19.05000 Y-8.89000
G1 Z-2.50000
G1 Z1.00000
G0 X19.05000 Y-11.43000
G1 Z-2.50000
G1 Z1.00000
G0 X19.05000 Y-13.97000
G1 Z-2.50000
G1 Z1.00000
G0 X19.05000 Y-16.51000
G1 Z-2.50000
G1 Z1.00000
G0 X19.05000 Y-19.05000
G1 Z-2.50000
G1 Z1.00000
G0 X11.43000 Y-13.97000
G1 Z-2.50000
G1 Z1.00000
G0 X11.43000 Y-16.51000
G1 Z-2.50000
G1 Z1.00000
G0 X11.43000 Y-19.05000
G1 Z-2.50000
G1 Z1.00000
G0 X6.31000 Y-20.32000
G1 Z-2.50000
G1 Z1.00000
G0 X3.81000 Y-20.32000
G1 Z-2.50000
G1 Z1.00000

G00 Z17.83500 (Retract)
T3
M5      (Spindle stop.)
G04 P1.00000
(MSG, Change tool bit to drill size 1mm)
M6      (Tool change.)
M0      (Temporary machine stop.)
M3      (Spindle on clockwise.)
G0 Z1.00000
G04 P1.00000

G1 F30.00000
G0 X6.35000 Y-10.16000
G1 Z-2.50000
G1 Z1.00000
G0 X6.35000 Y-12.70000
G1 Z-2.50000
G1 Z1.00000
G0 X11.43000 Y-27.94000
G1 Z-2.50000
G1 Z1.00000
G0 X11.43000 Y-30.48000
G1 Z-2.50000
G1 Z1.00000
G0 X15.24000 Y-30.48000
G1 Z-2.50000
G1 Z1.00000
G0 X15.24000 Y-27.94000
G1 Z-2.50000
G1 Z1.00000
G0 X33.02000 Y-27.94000
G1 Z-2.50000
G1 Z1.00000
G0 X35.56000 Y-27.94000
G1 Z-2.50000
G1 Z1.00000
G0 X41.91000 Y-27.94000
G1 Z-2.50000
G1 Z1.00000
G0 X44.45000 Y-27.94000
G1 Z-2.50000
G1 Z1.00000
G0 X38.10000 Y-11.43000
G1 Z-2.50000
G1 Z1.00000
G0 X38.10000 Y-8.89000
G1 Z-2.50000
G1 Z1.00000
G0 X38.10000 Y-6.35000
G1 Z-2.50000
G1 Z1.00000
G0 X38.10000 Y-3.81000
G1 Z-2.50000
G1 Z1.00000
G0 X53.34700 Y-10.16000
G1 Z-2.50000
G1 Z1.00000
G0 X53.34700 Y-12.70000
G1 Z-2.50000
G1 Z1.00000
G0 X57.15700 Y-12.70000
G1 Z-2.50000
G1 Z1.00000
G0 X60.96700 Y-10.16000
G1 Z-2.50000
G1 Z1.00000
G0 X60.96700 Y-12.70000
G1 Z-2.50000
G1 Z1.00000
G0 X57.15700 Y-10.16000
G1 Z-2.50000
G1 Z1.00000
G0 X53.34700 Y-5.08000
G1 Z-2.50000
G1 Z1.00000
G0 X53.34700 Y-2.54000
G1 Z-2.50000
G1 Z1.00000
G0 X57.15700 Y-5.08000
G1 Z-2.50000
G1 Z1.00000
G0 X57.15700 Y-2.54000
G1 Z-2.50000
G1 Z1.00000
G0 X60.96700 Y-2.54000
G1 Z-2.50000
G1 Z1.00000
G0 X60.96700 Y-5.08000
G1 Z-2.50000
G1 Z1.00000
G0 X64.77000 Y-2.54800
G1 Z-2.50000
G1 Z1.00000
G0 X64.77000 Y-5.08800
G1 Z-2.50000
G1 Z1.00000
G0 X64.77700 Y-10.16000
G1 Z-2.50000
G1 Z1.00000
G0 X64.77700 Y-12.70000
G1 Z-2.50000
G1 Z1.00000
G0 X71.12000 Y-12.70000
G1 Z-2.50000
G1 Z1.00000
G0 X71.12000 Y-10.16000
G1 Z-2.50000
G1 Z1.00000

G00 Z17.83500 (Retract)
T4
M5      (Spindle stop.)
G04 P1.00000
(MSG, Change tool bit to drill size 1.24mm)
M6      (Tool change.)
M0      (Temporary machine stop.)
M3      (Spindle on clockwise.)
G0 Z1.00000
G04 P1.00000

G1 F30.00000
G0 X53.34000 Y-22.86000
G1 Z-2.50000
G1 Z1.00000
G0 X53.34000 Y-20.32000
G1 Z-2.50000
G1 Z1.00000
G0 X53.34000 Y-17.78000
G1 Z-2.50000
G1 Z1.00000

G00 Z17.83500 (Retract)
T5
M5      (Spindle stop.)
G04 P1.00000
(MSG, Change tool bit to drill size 3mm)
M6      (Tool change.)
M0      (Temporary machine stop.)
M3      (Spindle on clockwise.)
G0 Z1.00000
G04 P1.00000

G1 F30.00000
G0 X3.81000 Y-3.81000
G1 Z-2.50000
G1 Z1.00000
G0 X3.81000 Y-27.94000
G1 Z-2.50000
G1 Z1.00000
G0 X71.12000 Y-27.94000
G1 Z-2.50000
G1 Z1.00000
G0 X71.12000 Y-3.81000
G1 Z-2.50000
G1 Z1.00000

G00 Z17.835 ( All done -- retract )

M5      (Spindle off.)
G04 P1.000000
M9      (Coolant off.)
M2      (Program end.)

