( pcb2gcode 2.5.0 )
( Software-independent Gcode )

G94 ( Millimeters per minute feed rate. )
G21 ( Units == Millimeters. )

G90 ( Absolute coordinates. )
G00 S10000 ( RPM spindle speed. )
G64 P0.01016 ( set maximum deviation from commanded toolpath )
G01 F500.00000 ( Feedrate. )


G00 Z18.83500 (Retract to tool change height)
T1
M5      (Spindle stop.)
G04 P1.00000 (Wait for spindle to stop)
(MSG, Change tool bit to cutter diameter 3.00000mm)
M6      (Tool change.)
M0      (Temporary machine stop.)
M3 ( Spindle on clockwise. )
G04 P1.00000 (Wait for spindle to get up to speed)
G04 P0 ( dwell for no time -- G64 should not smooth over this point )
G00 Z1.00000 ( retract )

G00 X-1.50000 Y-2.54000 ( rapid move to begin. )
G01 Z-0.12500 F30.00000 ( plunge. )
G04 P0 ( dwell for no time -- G64 should not smooth over this point )
G01 F500.00000
G01 X-1.50000 Y-29.21000
G01 X-1.49276 Y-29.35699
G01 X-1.44396 Y-29.85252
G01 X-1.42237 Y-29.99816
G01 X-1.38659 Y-30.14099
G01 X-1.24203 Y-30.61746
G01 X-1.12954 Y-30.88909
G01 X-0.89482 Y-31.32823
G01 X-0.81912 Y-31.45450
G01 X-0.73142 Y-31.57273
G01 X-0.41554 Y-31.95762
G01 X-0.20764 Y-32.16552
G01 X0.17722 Y-32.48139
G01 X0.29545 Y-32.56910
G01 X0.42172 Y-32.64479
G01 X0.86086 Y-32.87951
G01 X1.13248 Y-32.99201
G01 X1.60896 Y-33.13656
G01 X1.75176 Y-33.17235
G01 X1.89738 Y-33.19394
G01 X2.39293 Y-33.24276
G01 X2.54000 Y-33.25000
G01 X72.39000 Y-33.25000
G01 X72.53704 Y-33.24276
G01 X73.03257 Y-33.19394
G01 X73.32099 Y-33.13656
G01 X73.79746 Y-32.99201
G01 X74.06909 Y-32.87951
G01 X74.50823 Y-32.64479
G01 X74.63450 Y-32.56910
G01 X74.75273 Y-32.48139
G01 X75.13762 Y-32.16552
G01 X75.34552 Y-31.95762
G01 X75.66139 Y-31.57273
G01 X75.74910 Y-31.45450
G01 X75.82479 Y-31.32823
G01 X76.05951 Y-30.88909
G01 X76.17201 Y-30.61746
G01 X76.31656 Y-30.14099
G01 X76.37394 Y-29.85257
G01 X76.42276 Y-29.35704
G01 X76.43000 Y-29.21000
G01 X76.43000 Y-2.54000
G01 X76.42474 Y-2.41452
G01 X76.38783 Y-1.97488
G01 X76.34333 Y-1.71724
G01 X76.23066 Y-1.29070
G01 X76.14211 Y-1.04473
G01 X75.95710 Y-0.64425
G01 X75.82718 Y-0.41735
G01 X75.57541 Y-0.05504
G01 X75.40803 Y0.14587
G01 X75.09718 Y0.45893
G01 X74.89749 Y0.62771
G01 X74.53699 Y0.88204
G01 X74.31103 Y1.01356
G01 X73.91187 Y1.20142
G01 X73.66650 Y1.29172
G01 X73.24077 Y1.40741
G01 X72.98365 Y1.45369
G01 X72.54428 Y1.49377
G01 X72.40803 Y1.50000
G01 X2.54000 Y1.50000
G01 X2.39301 Y1.49276
G01 X1.89746 Y1.44396
G01 X1.75181 Y1.42237
G01 X1.60896 Y1.38659
G01 X1.13248 Y1.24203
G01 X0.86086 Y1.12954
G01 X0.42172 Y0.89482
G01 X0.29545 Y0.81912
G01 X0.17722 Y0.73142
G01 X-0.20764 Y0.41554
G01 X-0.41554 Y0.20764
G01 X-0.73142 Y-0.17722
G01 X-0.81912 Y-0.29545
G01 X-0.89482 Y-0.42172
G01 X-1.12954 Y-0.86086
G01 X-1.24203 Y-1.13248
G01 X-1.38659 Y-1.60896
G01 X-1.42237 Y-1.75181
G01 X-1.44396 Y-1.89746
G01 X-1.49276 Y-2.39301
G01 X-1.50000 Y-2.54000
G01 Z-0.25000 F30.00000 ( plunge. )
G04 P0 ( dwell for no time -- G64 should not smooth over this point )
G01 F500.00000
G01 X-1.50000 Y-29.21000
G01 X-1.49276 Y-29.35699
G01 X-1.44396 Y-29.85252
G01 X-1.42237 Y-29.99816
G01 X-1.38659 Y-30.14099
G01 X-1.24203 Y-30.61746
G01 X-1.12954 Y-30.88909
G01 X-0.89482 Y-31.32823
G01 X-0.81912 Y-31.45450
G01 X-0.73142 Y-31.57273
G01 X-0.41554 Y-31.95762
G01 X-0.20764 Y-32.16552
G01 X0.17722 Y-32.48139
G01 X0.29545 Y-32.56910
G01 X0.42172 Y-32.64479
G01 X0.86086 Y-32.87951
G01 X1.13248 Y-32.99201
G01 X1.60896 Y-33.13656
G01 X1.75176 Y-33.17235
G01 X1.89738 Y-33.19394
G01 X2.39293 Y-33.24276
G01 X2.54000 Y-33.25000
G01 X72.39000 Y-33.25000
G01 X72.53704 Y-33.24276
G01 X73.03257 Y-33.19394
G01 X73.32099 Y-33.13656
G01 X73.79746 Y-32.99201
G01 X74.06909 Y-32.87951
G01 X74.50823 Y-32.64479
G01 X74.63450 Y-32.56910
G01 X74.75273 Y-32.48139
G01 X75.13762 Y-32.16552
G01 X75.34552 Y-31.95762
G01 X75.66139 Y-31.57273
G01 X75.74910 Y-31.45450
G01 X75.82479 Y-31.32823
G01 X76.05951 Y-30.88909
G01 X76.17201 Y-30.61746
G01 X76.31656 Y-30.14099
G01 X76.37394 Y-29.85257
G01 X76.42276 Y-29.35704
G01 X76.43000 Y-29.21000
G01 X76.43000 Y-2.54000
G01 X76.42474 Y-2.41452
G01 X76.38783 Y-1.97488
G01 X76.34333 Y-1.71724
G01 X76.23066 Y-1.29070
G01 X76.14211 Y-1.04473
G01 X75.95710 Y-0.64425
G01 X75.82718 Y-0.41735
G01 X75.57541 Y-0.05504
G01 X75.40803 Y0.14587
G01 X75.09718 Y0.45893
G01 X74.89749 Y0.62771
G01 X74.53699 Y0.88204
G01 X74.31103 Y1.01356
G01 X73.91187 Y1.20142
G01 X73.66650 Y1.29172
G01 X73.24077 Y1.40741
G01 X72.98365 Y1.45369
G01 X72.54428 Y1.49377
G01 X72.40803 Y1.50000
G01 X2.54000 Y1.50000
G01 X2.39301 Y1.49276
G01 X1.89746 Y1.44396
G01 X1.75181 Y1.42237
G01 X1.60896 Y1.38659
G01 X1.13248 Y1.24203
G01 X0.86086 Y1.12954
G01 X0.42172 Y0.89482
G01 X0.29545 Y0.81912
G01 X0.17722 Y0.73142
G01 X-0.20764 Y0.41554
G01 X-0.41554 Y0.20764
G01 X-0.73142 Y-0.17722
G01 X-0.81912 Y-0.29545
G01 X-0.89482 Y-0.42172
G01 X-1.12954 Y-0.86086
G01 X-1.24203 Y-1.13248
G01 X-1.38659 Y-1.60896
G01 X-1.42237 Y-1.75181
G01 X-1.44396 Y-1.89746
G01 X-1.49276 Y-2.39301
G01 X-1.50000 Y-2.54000
G01 Z-0.37500 F30.00000 ( plunge. )
G04 P0 ( dwell for no time -- G64 should not smooth over this point )
G01 F500.00000
G01 X-1.50000 Y-29.21000
G01 X-1.49276 Y-29.35699
G01 X-1.44396 Y-29.85252
G01 X-1.42237 Y-29.99816
G01 X-1.38659 Y-30.14099
G01 X-1.24203 Y-30.61746
G01 X-1.12954 Y-30.88909
G01 X-0.89482 Y-31.32823
G01 X-0.81912 Y-31.45450
G01 X-0.73142 Y-31.57273
G01 X-0.41554 Y-31.95762
G01 X-0.20764 Y-32.16552
G01 X0.17722 Y-32.48139
G01 X0.29545 Y-32.56910
G01 X0.42172 Y-32.64479
G01 X0.86086 Y-32.87951
G01 X1.13248 Y-32.99201
G01 X1.60896 Y-33.13656
G01 X1.75176 Y-33.17235
G01 X1.89738 Y-33.19394
G01 X2.39293 Y-33.24276
G01 X2.54000 Y-33.25000
G01 X72.39000 Y-33.25000
G01 X72.53704 Y-33.24276
G01 X73.03257 Y-33.19394
G01 X73.32099 Y-33.13656
G01 X73.79746 Y-32.99201
G01 X74.06909 Y-32.87951
G01 X74.50823 Y-32.64479
G01 X74.63450 Y-32.56910
G01 X74.75273 Y-32.48139
G01 X75.13762 Y-32.16552
G01 X75.34552 Y-31.95762
G01 X75.66139 Y-31.57273
G01 X75.74910 Y-31.45450
G01 X75.82479 Y-31.32823
G01 X76.05951 Y-30.88909
G01 X76.17201 Y-30.61746
G01 X76.31656 Y-30.14099
G01 X76.37394 Y-29.85257
G01 X76.42276 Y-29.35704
G01 X76.43000 Y-29.21000
G01 X76.43000 Y-2.54000
G01 X76.42474 Y-2.41452
G01 X76.38783 Y-1.97488
G01 X76.34333 Y-1.71724
G01 X76.23066 Y-1.29070
G01 X76.14211 Y-1.04473
G01 X75.95710 Y-0.64425
G01 X75.82718 Y-0.41735
G01 X75.57541 Y-0.05504
G01 X75.40803 Y0.14587
G01 X75.09718 Y0.45893
G01 X74.89749 Y0.62771
G01 X74.53699 Y0.88204
G01 X74.31103 Y1.01356
G01 X73.91187 Y1.20142
G01 X73.66650 Y1.29172
G01 X73.24077 Y1.40741
G01 X72.98365 Y1.45369
G01 X72.54428 Y1.49377
G01 X72.40803 Y1.50000
G01 X2.54000 Y1.50000
G01 X2.39301 Y1.49276
G01 X1.89746 Y1.44396
G01 X1.75181 Y1.42237
G01 X1.60896 Y1.38659
G01 X1.13248 Y1.24203
G01 X0.86086 Y1.12954
G01 X0.42172 Y0.89482
G01 X0.29545 Y0.81912
G01 X0.17722 Y0.73142
G01 X-0.20764 Y0.41554
G01 X-0.41554 Y0.20764
G01 X-0.73142 Y-0.17722
G01 X-0.81912 Y-0.29545
G01 X-0.89482 Y-0.42172
G01 X-1.12954 Y-0.86086
G01 X-1.24203 Y-1.13248
G01 X-1.38659 Y-1.60896
G01 X-1.42237 Y-1.75181
G01 X-1.44396 Y-1.89746
G01 X-1.49276 Y-2.39301
G01 X-1.50000 Y-2.54000
G01 Z-0.50000 F30.00000 ( plunge. )
G04 P0 ( dwell for no time -- G64 should not smooth over this point )
G01 F500.00000
G01 X-1.50000 Y-29.21000
G01 X-1.49276 Y-29.35699
G01 X-1.44396 Y-29.85252
G01 X-1.42237 Y-29.99816
G01 X-1.38659 Y-30.14099
G01 X-1.24203 Y-30.61746
G01 X-1.12954 Y-30.88909
G01 X-0.89482 Y-31.32823
G01 X-0.81912 Y-31.45450
G01 X-0.73142 Y-31.57273
G01 X-0.41554 Y-31.95762
G01 X-0.20764 Y-32.16552
G01 X0.17722 Y-32.48139
G01 X0.29545 Y-32.56910
G01 X0.42172 Y-32.64479
G01 X0.86086 Y-32.87951
G01 X1.13248 Y-32.99201
G01 X1.60896 Y-33.13656
G01 X1.75176 Y-33.17235
G01 X1.89738 Y-33.19394
G01 X2.39293 Y-33.24276
G01 X2.54000 Y-33.25000
G01 X72.39000 Y-33.25000
G01 X72.53704 Y-33.24276
G01 X73.03257 Y-33.19394
G01 X73.32099 Y-33.13656
G01 X73.79746 Y-32.99201
G01 X74.06909 Y-32.87951
G01 X74.50823 Y-32.64479
G01 X74.63450 Y-32.56910
G01 X74.75273 Y-32.48139
G01 X75.13762 Y-32.16552
G01 X75.34552 Y-31.95762
G01 X75.66139 Y-31.57273
G01 X75.74910 Y-31.45450
G01 X75.82479 Y-31.32823
G01 X76.05951 Y-30.88909
G01 X76.17201 Y-30.61746
G01 X76.31656 Y-30.14099
G01 X76.37394 Y-29.85257
G01 X76.42276 Y-29.35704
G01 X76.43000 Y-29.21000
G01 X76.43000 Y-2.54000
G01 X76.42474 Y-2.41452
G01 X76.38783 Y-1.97488
G01 X76.34333 Y-1.71724
G01 X76.23066 Y-1.29070
G01 X76.14211 Y-1.04473
G01 X75.95710 Y-0.64425
G01 X75.82718 Y-0.41735
G01 X75.57541 Y-0.05504
G01 X75.40803 Y0.14587
G01 X75.09718 Y0.45893
G01 X74.89749 Y0.62771
G01 X74.53699 Y0.88204
G01 X74.31103 Y1.01356
G01 X73.91187 Y1.20142
G01 X73.66650 Y1.29172
G01 X73.24077 Y1.40741
G01 X72.98365 Y1.45369
G01 X72.54428 Y1.49377
G01 X72.40803 Y1.50000
G01 X2.54000 Y1.50000
G01 X2.39301 Y1.49276
G01 X1.89746 Y1.44396
G01 X1.75181 Y1.42237
G01 X1.60896 Y1.38659
G01 X1.13248 Y1.24203
G01 X0.86086 Y1.12954
G01 X0.42172 Y0.89482
G01 X0.29545 Y0.81912
G01 X0.17722 Y0.73142
G01 X-0.20764 Y0.41554
G01 X-0.41554 Y0.20764
G01 X-0.73142 Y-0.17722
G01 X-0.81912 Y-0.29545
G01 X-0.89482 Y-0.42172
G01 X-1.12954 Y-0.86086
G01 X-1.24203 Y-1.13248
G01 X-1.38659 Y-1.60896
G01 X-1.42237 Y-1.75181
G01 X-1.44396 Y-1.89746
G01 X-1.49276 Y-2.39301
G01 X-1.50000 Y-2.54000
G01 Z-0.62500 F30.00000 ( plunge. )
G04 P0 ( dwell for no time -- G64 should not smooth over this point )
G01 F500.00000
G01 X-1.50000 Y-29.21000
G01 X-1.49276 Y-29.35699
G01 X-1.44396 Y-29.85252
G01 X-1.42237 Y-29.99816
G01 X-1.38659 Y-30.14099
G01 X-1.24203 Y-30.61746
G01 X-1.12954 Y-30.88909
G01 X-0.89482 Y-31.32823
G01 X-0.81912 Y-31.45450
G01 X-0.73142 Y-31.57273
G01 X-0.41554 Y-31.95762
G01 X-0.20764 Y-32.16552
G01 X0.17722 Y-32.48139
G01 X0.29545 Y-32.56910
G01 X0.42172 Y-32.64479
G01 X0.86086 Y-32.87951
G01 X1.13248 Y-32.99201
G01 X1.60896 Y-33.13656
G01 X1.75176 Y-33.17235
G01 X1.89738 Y-33.19394
G01 X2.39293 Y-33.24276
G01 X2.54000 Y-33.25000
G01 X72.39000 Y-33.25000
G01 X72.53704 Y-33.24276
G01 X73.03257 Y-33.19394
G01 X73.32099 Y-33.13656
G01 X73.79746 Y-32.99201
G01 X74.06909 Y-32.87951
G01 X74.50823 Y-32.64479
G01 X74.63450 Y-32.56910
G01 X74.75273 Y-32.48139
G01 X75.13762 Y-32.16552
G01 X75.34552 Y-31.95762
G01 X75.66139 Y-31.57273
G01 X75.74910 Y-31.45450
G01 X75.82479 Y-31.32823
G01 X76.05951 Y-30.88909
G01 X76.17201 Y-30.61746
G01 X76.31656 Y-30.14099
G01 X76.37394 Y-29.85257
G01 X76.42276 Y-29.35704
G01 X76.43000 Y-29.21000
G01 X76.43000 Y-2.54000
G01 X76.42474 Y-2.41452
G01 X76.38783 Y-1.97488
G01 X76.34333 Y-1.71724
G01 X76.23066 Y-1.29070
G01 X76.14211 Y-1.04473
G01 X75.95710 Y-0.64425
G01 X75.82718 Y-0.41735
G01 X75.57541 Y-0.05504
G01 X75.40803 Y0.14587
G01 X75.09718 Y0.45893
G01 X74.89749 Y0.62771
G01 X74.53699 Y0.88204
G01 X74.31103 Y1.01356
G01 X73.91187 Y1.20142
G01 X73.66650 Y1.29172
G01 X73.24077 Y1.40741
G01 X72.98365 Y1.45369
G01 X72.54428 Y1.49377
G01 X72.40803 Y1.50000
G01 X2.54000 Y1.50000
G01 X2.39301 Y1.49276
G01 X1.89746 Y1.44396
G01 X1.75181 Y1.42237
G01 X1.60896 Y1.38659
G01 X1.13248 Y1.24203
G01 X0.86086 Y1.12954
G01 X0.42172 Y0.89482
G01 X0.29545 Y0.81912
G01 X0.17722 Y0.73142
G01 X-0.20764 Y0.41554
G01 X-0.41554 Y0.20764
G01 X-0.73142 Y-0.17722
G01 X-0.81912 Y-0.29545
G01 X-0.89482 Y-0.42172
G01 X-1.12954 Y-0.86086
G01 X-1.24203 Y-1.13248
G01 X-1.38659 Y-1.60896
G01 X-1.42237 Y-1.75181
G01 X-1.44396 Y-1.89746
G01 X-1.49276 Y-2.39301
G01 X-1.50000 Y-2.54000
G01 Z-0.75000 F30.00000 ( plunge. )
G04 P0 ( dwell for no time -- G64 should not smooth over this point )
G01 F500.00000
G01 X-1.50000 Y-29.21000
G01 X-1.49276 Y-29.35699
G01 X-1.44396 Y-29.85252
G01 X-1.42237 Y-29.99816
G01 X-1.38659 Y-30.14099
G01 X-1.24203 Y-30.61746
G01 X-1.12954 Y-30.88909
G01 X-0.89482 Y-31.32823
G01 X-0.81912 Y-31.45450
G01 X-0.73142 Y-31.57273
G01 X-0.41554 Y-31.95762
G01 X-0.20764 Y-32.16552
G01 X0.17722 Y-32.48139
G01 X0.29545 Y-32.56910
G01 X0.42172 Y-32.64479
G01 X0.86086 Y-32.87951
G01 X1.13248 Y-32.99201
G01 X1.60896 Y-33.13656
G01 X1.75176 Y-33.17235
G01 X1.89738 Y-33.19394
G01 X2.39293 Y-33.24276
G01 X2.54000 Y-33.25000
G01 X72.39000 Y-33.25000
G01 X72.53704 Y-33.24276
G01 X73.03257 Y-33.19394
G01 X73.32099 Y-33.13656
G01 X73.79746 Y-32.99201
G01 X74.06909 Y-32.87951
G01 X74.50823 Y-32.64479
G01 X74.63450 Y-32.56910
G01 X74.75273 Y-32.48139
G01 X75.13762 Y-32.16552
G01 X75.34552 Y-31.95762
G01 X75.66139 Y-31.57273
G01 X75.74910 Y-31.45450
G01 X75.82479 Y-31.32823
G01 X76.05951 Y-30.88909
G01 X76.17201 Y-30.61746
G01 X76.31656 Y-30.14099
G01 X76.37394 Y-29.85257
G01 X76.42276 Y-29.35704
G01 X76.43000 Y-29.21000
G01 X76.43000 Y-2.54000
G01 X76.42474 Y-2.41452
G01 X76.38783 Y-1.97488
G01 X76.34333 Y-1.71724
G01 X76.23066 Y-1.29070
G01 X76.14211 Y-1.04473
G01 X75.95710 Y-0.64425
G01 X75.82718 Y-0.41735
G01 X75.57541 Y-0.05504
G01 X75.40803 Y0.14587
G01 X75.09718 Y0.45893
G01 X74.89749 Y0.62771
G01 X74.53699 Y0.88204
G01 X74.31103 Y1.01356
G01 X73.91187 Y1.20142
G01 X73.66650 Y1.29172
G01 X73.24077 Y1.40741
G01 X72.98365 Y1.45369
G01 X72.54428 Y1.49377
G01 X72.40803 Y1.50000
G01 X2.54000 Y1.50000
G01 X2.39301 Y1.49276
G01 X1.89746 Y1.44396
G01 X1.75181 Y1.42237
G01 X1.60896 Y1.38659
G01 X1.13248 Y1.24203
G01 X0.86086 Y1.12954
G01 X0.42172 Y0.89482
G01 X0.29545 Y0.81912
G01 X0.17722 Y0.73142
G01 X-0.20764 Y0.41554
G01 X-0.41554 Y0.20764
G01 X-0.73142 Y-0.17722
G01 X-0.81912 Y-0.29545
G01 X-0.89482 Y-0.42172
G01 X-1.12954 Y-0.86086
G01 X-1.24203 Y-1.13248
G01 X-1.38659 Y-1.60896
G01 X-1.42237 Y-1.75181
G01 X-1.44396 Y-1.89746
G01 X-1.49276 Y-2.39301
G01 X-1.50000 Y-2.54000
G01 Z-0.87500 F30.00000 ( plunge. )
G04 P0 ( dwell for no time -- G64 should not smooth over this point )
G01 F500.00000
G01 X-1.50000 Y-29.21000
G01 X-1.49276 Y-29.35699
G01 X-1.44396 Y-29.85252
G01 X-1.42237 Y-29.99816
G01 X-1.38659 Y-30.14099
G01 X-1.24203 Y-30.61746
G01 X-1.12954 Y-30.88909
G01 X-0.89482 Y-31.32823
G01 X-0.81912 Y-31.45450
G01 X-0.73142 Y-31.57273
G01 X-0.41554 Y-31.95762
G01 X-0.20764 Y-32.16552
G01 X0.17722 Y-32.48139
G01 X0.29545 Y-32.56910
G01 X0.42172 Y-32.64479
G01 X0.86086 Y-32.87951
G01 X1.13248 Y-32.99201
G01 X1.60896 Y-33.13656
G01 X1.75176 Y-33.17235
G01 X1.89738 Y-33.19394
G01 X2.39293 Y-33.24276
G01 X2.54000 Y-33.25000
G01 X72.39000 Y-33.25000
G01 X72.53704 Y-33.24276
G01 X73.03257 Y-33.19394
G01 X73.32099 Y-33.13656
G01 X73.79746 Y-32.99201
G01 X74.06909 Y-32.87951
G01 X74.50823 Y-32.64479
G01 X74.63450 Y-32.56910
G01 X74.75273 Y-32.48139
G01 X75.13762 Y-32.16552
G01 X75.34552 Y-31.95762
G01 X75.66139 Y-31.57273
G01 X75.74910 Y-31.45450
G01 X75.82479 Y-31.32823
G01 X76.05951 Y-30.88909
G01 X76.17201 Y-30.61746
G01 X76.31656 Y-30.14099
G01 X76.37394 Y-29.85257
G01 X76.42276 Y-29.35704
G01 X76.43000 Y-29.21000
G01 X76.43000 Y-2.54000
G01 X76.42474 Y-2.41452
G01 X76.38783 Y-1.97488
G01 X76.34333 Y-1.71724
G01 X76.23066 Y-1.29070
G01 X76.14211 Y-1.04473
G01 X75.95710 Y-0.64425
G01 X75.82718 Y-0.41735
G01 X75.57541 Y-0.05504
G01 X75.40803 Y0.14587
G01 X75.09718 Y0.45893
G01 X74.89749 Y0.62771
G01 X74.53699 Y0.88204
G01 X74.31103 Y1.01356
G01 X73.91187 Y1.20142
G01 X73.66650 Y1.29172
G01 X73.24077 Y1.40741
G01 X72.98365 Y1.45369
G01 X72.54428 Y1.49377
G01 X72.40803 Y1.50000
G01 X2.54000 Y1.50000
G01 X2.39301 Y1.49276
G01 X1.89746 Y1.44396
G01 X1.75181 Y1.42237
G01 X1.60896 Y1.38659
G01 X1.13248 Y1.24203
G01 X0.86086 Y1.12954
G01 X0.42172 Y0.89482
G01 X0.29545 Y0.81912
G01 X0.17722 Y0.73142
G01 X-0.20764 Y0.41554
G01 X-0.41554 Y0.20764
G01 X-0.73142 Y-0.17722
G01 X-0.81912 Y-0.29545
G01 X-0.89482 Y-0.42172
G01 X-1.12954 Y-0.86086
G01 X-1.24203 Y-1.13248
G01 X-1.38659 Y-1.60896
G01 X-1.42237 Y-1.75181
G01 X-1.44396 Y-1.89746
G01 X-1.49276 Y-2.39301
G01 X-1.50000 Y-2.54000
G01 Z-1.00000 F30.00000 ( plunge. )
G04 P0 ( dwell for no time -- G64 should not smooth over this point )
G01 F500.00000
G01 X-1.50000 Y-29.21000
G01 X-1.49276 Y-29.35699
G01 X-1.44396 Y-29.85252
G01 X-1.42237 Y-29.99816
G01 X-1.38659 Y-30.14099
G01 X-1.24203 Y-30.61746
G01 X-1.12954 Y-30.88909
G01 X-0.89482 Y-31.32823
G01 X-0.81912 Y-31.45450
G01 X-0.73142 Y-31.57273
G01 X-0.41554 Y-31.95762
G01 X-0.20764 Y-32.16552
G01 X0.17722 Y-32.48139
G01 X0.29545 Y-32.56910
G01 X0.42172 Y-32.64479
G01 X0.86086 Y-32.87951
G01 X1.13248 Y-32.99201
G01 X1.60896 Y-33.13656
G01 X1.75176 Y-33.17235
G01 X1.89738 Y-33.19394
G01 X2.39293 Y-33.24276
G01 X2.54000 Y-33.25000
G01 X72.39000 Y-33.25000
G01 X72.53704 Y-33.24276
G01 X73.03257 Y-33.19394
G01 X73.32099 Y-33.13656
G01 X73.79746 Y-32.99201
G01 X74.06909 Y-32.87951
G01 X74.50823 Y-32.64479
G01 X74.63450 Y-32.56910
G01 X74.75273 Y-32.48139
G01 X75.13762 Y-32.16552
G01 X75.34552 Y-31.95762
G01 X75.66139 Y-31.57273
G01 X75.74910 Y-31.45450
G01 X75.82479 Y-31.32823
G01 X76.05951 Y-30.88909
G01 X76.17201 Y-30.61746
G01 X76.31656 Y-30.14099
G01 X76.37394 Y-29.85257
G01 X76.42276 Y-29.35704
G01 X76.43000 Y-29.21000
G01 X76.43000 Y-2.54000
G01 X76.42474 Y-2.41452
G01 X76.38783 Y-1.97488
G01 X76.34333 Y-1.71724
G01 X76.23066 Y-1.29070
G01 X76.14211 Y-1.04473
G01 X75.95710 Y-0.64425
G01 X75.82718 Y-0.41735
G01 X75.57541 Y-0.05504
G01 X75.40803 Y0.14587
G01 X75.09718 Y0.45893
G01 X74.89749 Y0.62771
G01 X74.53699 Y0.88204
G01 X74.31103 Y1.01356
G01 X73.91187 Y1.20142
G01 X73.66650 Y1.29172
G01 X73.24077 Y1.40741
G01 X72.98365 Y1.45369
G01 X72.54428 Y1.49377
G01 X72.40803 Y1.50000
G01 X2.54000 Y1.50000
G01 X2.39301 Y1.49276
G01 X1.89746 Y1.44396
G01 X1.75181 Y1.42237
G01 X1.60896 Y1.38659
G01 X1.13248 Y1.24203
G01 X0.86086 Y1.12954
G01 X0.42172 Y0.89482
G01 X0.29545 Y0.81912
G01 X0.17722 Y0.73142
G01 X-0.20764 Y0.41554
G01 X-0.41554 Y0.20764
G01 X-0.73142 Y-0.17722
G01 X-0.81912 Y-0.29545
G01 X-0.89482 Y-0.42172
G01 X-1.12954 Y-0.86086
G01 X-1.24203 Y-1.13248
G01 X-1.38659 Y-1.60896
G01 X-1.42237 Y-1.75181
G01 X-1.44396 Y-1.89746
G01 X-1.49276 Y-2.39301
G01 X-1.50000 Y-2.54000
G01 Z-1.12500 F30.00000 ( plunge. )
G04 P0 ( dwell for no time -- G64 should not smooth over this point )
G01 F500.00000
G01 X-1.50000 Y-29.21000
G01 X-1.49276 Y-29.35699
G01 X-1.44396 Y-29.85252
G01 X-1.42237 Y-29.99816
G01 X-1.38659 Y-30.14099
G01 X-1.24203 Y-30.61746
G01 X-1.12954 Y-30.88909
G01 X-0.89482 Y-31.32823
G01 X-0.81912 Y-31.45450
G01 X-0.73142 Y-31.57273
G01 X-0.41554 Y-31.95762
G01 X-0.20764 Y-32.16552
G01 X0.17722 Y-32.48139
G01 X0.29545 Y-32.56910
G01 X0.42172 Y-32.64479
G01 X0.86086 Y-32.87951
G01 X1.13248 Y-32.99201
G01 X1.60896 Y-33.13656
G01 X1.75176 Y-33.17235
G01 X1.89738 Y-33.19394
G01 X2.39293 Y-33.24276
G01 X2.54000 Y-33.25000
G01 X72.39000 Y-33.25000
G01 X72.53704 Y-33.24276
G01 X73.03257 Y-33.19394
G01 X73.32099 Y-33.13656
G01 X73.79746 Y-32.99201
G01 X74.06909 Y-32.87951
G01 X74.50823 Y-32.64479
G01 X74.63450 Y-32.56910
G01 X74.75273 Y-32.48139
G01 X75.13762 Y-32.16552
G01 X75.34552 Y-31.95762
G01 X75.66139 Y-31.57273
G01 X75.74910 Y-31.45450
G01 X75.82479 Y-31.32823
G01 X76.05951 Y-30.88909
G01 X76.17201 Y-30.61746
G01 X76.31656 Y-30.14099
G01 X76.37394 Y-29.85257
G01 X76.42276 Y-29.35704
G01 X76.43000 Y-29.21000
G01 X76.43000 Y-2.54000
G01 X76.42474 Y-2.41452
G01 X76.38783 Y-1.97488
G01 X76.34333 Y-1.71724
G01 X76.23066 Y-1.29070
G01 X76.14211 Y-1.04473
G01 X75.95710 Y-0.64425
G01 X75.82718 Y-0.41735
G01 X75.57541 Y-0.05504
G01 X75.40803 Y0.14587
G01 X75.09718 Y0.45893
G01 X74.89749 Y0.62771
G01 X74.53699 Y0.88204
G01 X74.31103 Y1.01356
G01 X73.91187 Y1.20142
G01 X73.66650 Y1.29172
G01 X73.24077 Y1.40741
G01 X72.98365 Y1.45369
G01 X72.54428 Y1.49377
G01 X72.40803 Y1.50000
G01 X2.54000 Y1.50000
G01 X2.39301 Y1.49276
G01 X1.89746 Y1.44396
G01 X1.75181 Y1.42237
G01 X1.60896 Y1.38659
G01 X1.13248 Y1.24203
G01 X0.86086 Y1.12954
G01 X0.42172 Y0.89482
G01 X0.29545 Y0.81912
G01 X0.17722 Y0.73142
G01 X-0.20764 Y0.41554
G01 X-0.41554 Y0.20764
G01 X-0.73142 Y-0.17722
G01 X-0.81912 Y-0.29545
G01 X-0.89482 Y-0.42172
G01 X-1.12954 Y-0.86086
G01 X-1.24203 Y-1.13248
G01 X-1.38659 Y-1.60896
G01 X-1.42237 Y-1.75181
G01 X-1.44396 Y-1.89746
G01 X-1.49276 Y-2.39301
G01 X-1.50000 Y-2.54000
G01 Z-1.25000 F30.00000 ( plunge. )
G04 P0 ( dwell for no time -- G64 should not smooth over this point )
G01 F500.00000
G01 X-1.50000 Y-29.21000
G01 X-1.49276 Y-29.35699
G01 X-1.44396 Y-29.85252
G01 X-1.42237 Y-29.99816
G01 X-1.38659 Y-30.14099
G01 X-1.24203 Y-30.61746
G01 X-1.12954 Y-30.88909
G01 X-0.89482 Y-31.32823
G01 X-0.81912 Y-31.45450
G01 X-0.73142 Y-31.57273
G01 X-0.41554 Y-31.95762
G01 X-0.20764 Y-32.16552
G01 X0.17722 Y-32.48139
G01 X0.29545 Y-32.56910
G01 X0.42172 Y-32.64479
G01 X0.86086 Y-32.87951
G01 X1.13248 Y-32.99201
G01 X1.60896 Y-33.13656
G01 X1.75176 Y-33.17235
G01 X1.89738 Y-33.19394
G01 X2.39293 Y-33.24276
G01 X2.54000 Y-33.25000
G01 X72.39000 Y-33.25000
G01 X72.53704 Y-33.24276
G01 X73.03257 Y-33.19394
G01 X73.32099 Y-33.13656
G01 X73.79746 Y-32.99201
G01 X74.06909 Y-32.87951
G01 X74.50823 Y-32.64479
G01 X74.63450 Y-32.56910
G01 X74.75273 Y-32.48139
G01 X75.13762 Y-32.16552
G01 X75.34552 Y-31.95762
G01 X75.66139 Y-31.57273
G01 X75.74910 Y-31.45450
G01 X75.82479 Y-31.32823
G01 X76.05951 Y-30.88909
G01 X76.17201 Y-30.61746
G01 X76.31656 Y-30.14099
G01 X76.37394 Y-29.85257
G01 X76.42276 Y-29.35704
G01 X76.43000 Y-29.21000
G01 X76.43000 Y-2.54000
G01 X76.42474 Y-2.41452
G01 X76.38783 Y-1.97488
G01 X76.34333 Y-1.71724
G01 X76.23066 Y-1.29070
G01 X76.14211 Y-1.04473
G01 X75.95710 Y-0.64425
G01 X75.82718 Y-0.41735
G01 X75.57541 Y-0.05504
G01 X75.40803 Y0.14587
G01 X75.09718 Y0.45893
G01 X74.89749 Y0.62771
G01 X74.53699 Y0.88204
G01 X74.31103 Y1.01356
G01 X73.91187 Y1.20142
G01 X73.66650 Y1.29172
G01 X73.24077 Y1.40741
G01 X72.98365 Y1.45369
G01 X72.54428 Y1.49377
G01 X72.40803 Y1.50000
G01 X2.54000 Y1.50000
G01 X2.39301 Y1.49276
G01 X1.89746 Y1.44396
G01 X1.75181 Y1.42237
G01 X1.60896 Y1.38659
G01 X1.13248 Y1.24203
G01 X0.86086 Y1.12954
G01 X0.42172 Y0.89482
G01 X0.29545 Y0.81912
G01 X0.17722 Y0.73142
G01 X-0.20764 Y0.41554
G01 X-0.41554 Y0.20764
G01 X-0.73142 Y-0.17722
G01 X-0.81912 Y-0.29545
G01 X-0.89482 Y-0.42172
G01 X-1.12954 Y-0.86086
G01 X-1.24203 Y-1.13248
G01 X-1.38659 Y-1.60896
G01 X-1.42237 Y-1.75181
G01 X-1.44396 Y-1.89746
G01 X-1.49276 Y-2.39301
G01 X-1.50000 Y-2.54000
G01 Z-1.37500 F30.00000 ( plunge. )
G04 P0 ( dwell for no time -- G64 should not smooth over this point )
G01 F500.00000
G01 X-1.50000 Y-29.21000
G01 X-1.49276 Y-29.35699
G01 X-1.44396 Y-29.85252
G01 X-1.42237 Y-29.99816
G01 X-1.38659 Y-30.14099
G01 X-1.24203 Y-30.61746
G01 X-1.12954 Y-30.88909
G01 X-0.89482 Y-31.32823
G01 X-0.81912 Y-31.45450
G01 X-0.73142 Y-31.57273
G01 X-0.41554 Y-31.95762
G01 X-0.20764 Y-32.16552
G01 X0.17722 Y-32.48139
G01 X0.29545 Y-32.56910
G01 X0.42172 Y-32.64479
G01 X0.86086 Y-32.87951
G01 X1.13248 Y-32.99201
G01 X1.60896 Y-33.13656
G01 X1.75176 Y-33.17235
G01 X1.89738 Y-33.19394
G01 X2.39293 Y-33.24276
G01 X2.54000 Y-33.25000
G01 X72.39000 Y-33.25000
G01 X72.53704 Y-33.24276
G01 X73.03257 Y-33.19394
G01 X73.32099 Y-33.13656
G01 X73.79746 Y-32.99201
G01 X74.06909 Y-32.87951
G01 X74.50823 Y-32.64479
G01 X74.63450 Y-32.56910
G01 X74.75273 Y-32.48139
G01 X75.13762 Y-32.16552
G01 X75.34552 Y-31.95762
G01 X75.66139 Y-31.57273
G01 X75.74910 Y-31.45450
G01 X75.82479 Y-31.32823
G01 X76.05951 Y-30.88909
G01 X76.17201 Y-30.61746
G01 X76.31656 Y-30.14099
G01 X76.37394 Y-29.85257
G01 X76.42276 Y-29.35704
G01 X76.43000 Y-29.21000
G01 X76.43000 Y-2.54000
G01 X76.42474 Y-2.41452
G01 X76.38783 Y-1.97488
G01 X76.34333 Y-1.71724
G01 X76.23066 Y-1.29070
G01 X76.14211 Y-1.04473
G01 X75.95710 Y-0.64425
G01 X75.82718 Y-0.41735
G01 X75.57541 Y-0.05504
G01 X75.40803 Y0.14587
G01 X75.09718 Y0.45893
G01 X74.89749 Y0.62771
G01 X74.53699 Y0.88204
G01 X74.31103 Y1.01356
G01 X73.91187 Y1.20142
G01 X73.66650 Y1.29172
G01 X73.24077 Y1.40741
G01 X72.98365 Y1.45369
G01 X72.54428 Y1.49377
G01 X72.40803 Y1.50000
G01 X2.54000 Y1.50000
G01 X2.39301 Y1.49276
G01 X1.89746 Y1.44396
G01 X1.75181 Y1.42237
G01 X1.60896 Y1.38659
G01 X1.13248 Y1.24203
G01 X0.86086 Y1.12954
G01 X0.42172 Y0.89482
G01 X0.29545 Y0.81912
G01 X0.17722 Y0.73142
G01 X-0.20764 Y0.41554
G01 X-0.41554 Y0.20764
G01 X-0.73142 Y-0.17722
G01 X-0.81912 Y-0.29545
G01 X-0.89482 Y-0.42172
G01 X-1.12954 Y-0.86086
G01 X-1.24203 Y-1.13248
G01 X-1.38659 Y-1.60896
G01 X-1.42237 Y-1.75181
G01 X-1.44396 Y-1.89746
G01 X-1.49276 Y-2.39301
G01 X-1.50000 Y-2.54000
G01 Z-1.50000 F30.00000 ( plunge. )
G04 P0 ( dwell for no time -- G64 should not smooth over this point )
G01 F500.00000
G01 X-1.50000 Y-29.21000
G01 X-1.49276 Y-29.35699
G01 X-1.44396 Y-29.85252
G01 X-1.42237 Y-29.99816
G01 X-1.38659 Y-30.14099
G01 X-1.24203 Y-30.61746
G01 X-1.12954 Y-30.88909
G01 X-0.89482 Y-31.32823
G01 X-0.81912 Y-31.45450
G01 X-0.73142 Y-31.57273
G01 X-0.41554 Y-31.95762
G01 X-0.20764 Y-32.16552
G01 X0.17722 Y-32.48139
G01 X0.29545 Y-32.56910
G01 X0.42172 Y-32.64479
G01 X0.86086 Y-32.87951
G01 X1.13248 Y-32.99201
G01 X1.60896 Y-33.13656
G01 X1.75176 Y-33.17235
G01 X1.89738 Y-33.19394
G01 X2.39293 Y-33.24276
G01 X2.54000 Y-33.25000
G01 X72.39000 Y-33.25000
G01 X72.53704 Y-33.24276
G01 X73.03257 Y-33.19394
G01 X73.32099 Y-33.13656
G01 X73.79746 Y-32.99201
G01 X74.06909 Y-32.87951
G01 X74.50823 Y-32.64479
G01 X74.63450 Y-32.56910
G01 X74.75273 Y-32.48139
G01 X75.13762 Y-32.16552
G01 X75.34552 Y-31.95762
G01 X75.66139 Y-31.57273
G01 X75.74910 Y-31.45450
G01 X75.82479 Y-31.32823
G01 X76.05951 Y-30.88909
G01 X76.17201 Y-30.61746
G01 X76.31656 Y-30.14099
G01 X76.37394 Y-29.85257
G01 X76.42276 Y-29.35704
G01 X76.43000 Y-29.21000
G01 X76.43000 Y-2.54000
G01 X76.42474 Y-2.41452
G01 X76.38783 Y-1.97488
G01 X76.34333 Y-1.71724
G01 X76.23066 Y-1.29070
G01 X76.14211 Y-1.04473
G01 X75.95710 Y-0.64425
G01 X75.82718 Y-0.41735
G01 X75.57541 Y-0.05504
G01 X75.40803 Y0.14587
G01 X75.09718 Y0.45893
G01 X74.89749 Y0.62771
G01 X74.53699 Y0.88204
G01 X74.31103 Y1.01356
G01 X73.91187 Y1.20142
G01 X73.66650 Y1.29172
G01 X73.24077 Y1.40741
G01 X72.98365 Y1.45369
G01 X72.54428 Y1.49377
G01 X72.40803 Y1.50000
G01 X2.54000 Y1.50000
G01 X2.39301 Y1.49276
G01 X1.89746 Y1.44396
G01 X1.75181 Y1.42237
G01 X1.60896 Y1.38659
G01 X1.13248 Y1.24203
G01 X0.86086 Y1.12954
G01 X0.42172 Y0.89482
G01 X0.29545 Y0.81912
G01 X0.17722 Y0.73142
G01 X-0.20764 Y0.41554
G01 X-0.41554 Y0.20764
G01 X-0.73142 Y-0.17722
G01 X-0.81912 Y-0.29545
G01 X-0.89482 Y-0.42172
G01 X-1.12954 Y-0.86086
G01 X-1.24203 Y-1.13248
G01 X-1.38659 Y-1.60896
G01 X-1.42237 Y-1.75181
G01 X-1.44396 Y-1.89746
G01 X-1.49276 Y-2.39301
G01 X-1.50000 Y-2.54000
G01 Z-1.62500 F30.00000 ( plunge. )
G04 P0 ( dwell for no time -- G64 should not smooth over this point )
G01 F500.00000
G01 X-1.50000 Y-29.21000
G01 X-1.49276 Y-29.35699
G01 X-1.44396 Y-29.85252
G01 X-1.42237 Y-29.99816
G01 X-1.38659 Y-30.14099
G01 X-1.24203 Y-30.61746
G01 X-1.12954 Y-30.88909
G01 X-0.89482 Y-31.32823
G01 X-0.81912 Y-31.45450
G01 X-0.73142 Y-31.57273
G01 X-0.41554 Y-31.95762
G01 X-0.20764 Y-32.16552
G01 X0.17722 Y-32.48139
G01 X0.29545 Y-32.56910
G01 X0.42172 Y-32.64479
G01 X0.86086 Y-32.87951
G01 X1.13248 Y-32.99201
G01 X1.60896 Y-33.13656
G01 X1.75176 Y-33.17235
G01 X1.89738 Y-33.19394
G01 X2.39293 Y-33.24276
G01 X2.54000 Y-33.25000
G01 X72.39000 Y-33.25000
G01 X72.53704 Y-33.24276
G01 X73.03257 Y-33.19394
G01 X73.32099 Y-33.13656
G01 X73.79746 Y-32.99201
G01 X74.06909 Y-32.87951
G01 X74.50823 Y-32.64479
G01 X74.63450 Y-32.56910
G01 X74.75273 Y-32.48139
G01 X75.13762 Y-32.16552
G01 X75.34552 Y-31.95762
G01 X75.66139 Y-31.57273
G01 X75.74910 Y-31.45450
G01 X75.82479 Y-31.32823
G01 X76.05951 Y-30.88909
G01 X76.17201 Y-30.61746
G01 X76.31656 Y-30.14099
G01 X76.37394 Y-29.85257
G01 X76.42276 Y-29.35704
G01 X76.43000 Y-29.21000
G01 X76.43000 Y-2.54000
G01 X76.42474 Y-2.41452
G01 X76.38783 Y-1.97488
G01 X76.34333 Y-1.71724
G01 X76.23066 Y-1.29070
G01 X76.14211 Y-1.04473
G01 X75.95710 Y-0.64425
G01 X75.82718 Y-0.41735
G01 X75.57541 Y-0.05504
G01 X75.40803 Y0.14587
G01 X75.09718 Y0.45893
G01 X74.89749 Y0.62771
G01 X74.53699 Y0.88204
G01 X74.31103 Y1.01356
G01 X73.91187 Y1.20142
G01 X73.66650 Y1.29172
G01 X73.24077 Y1.40741
G01 X72.98365 Y1.45369
G01 X72.54428 Y1.49377
G01 X72.40803 Y1.50000
G01 X2.54000 Y1.50000
G01 X2.39301 Y1.49276
G01 X1.89746 Y1.44396
G01 X1.75181 Y1.42237
G01 X1.60896 Y1.38659
G01 X1.13248 Y1.24203
G01 X0.86086 Y1.12954
G01 X0.42172 Y0.89482
G01 X0.29545 Y0.81912
G01 X0.17722 Y0.73142
G01 X-0.20764 Y0.41554
G01 X-0.41554 Y0.20764
G01 X-0.73142 Y-0.17722
G01 X-0.81912 Y-0.29545
G01 X-0.89482 Y-0.42172
G01 X-1.12954 Y-0.86086
G01 X-1.24203 Y-1.13248
G01 X-1.38659 Y-1.60896
G01 X-1.42237 Y-1.75181
G01 X-1.44396 Y-1.89746
G01 X-1.49276 Y-2.39301
G01 X-1.50000 Y-2.54000
G01 Z-1.75000 F30.00000 ( plunge. )
G04 P0 ( dwell for no time -- G64 should not smooth over this point )
G01 F500.00000
G01 X-1.50000 Y-29.21000
G01 X-1.49276 Y-29.35699
G01 X-1.44396 Y-29.85252
G01 X-1.42237 Y-29.99816
G01 X-1.38659 Y-30.14099
G01 X-1.24203 Y-30.61746
G01 X-1.12954 Y-30.88909
G01 X-0.89482 Y-31.32823
G01 X-0.81912 Y-31.45450
G01 X-0.73142 Y-31.57273
G01 X-0.41554 Y-31.95762
G01 X-0.20764 Y-32.16552
G01 X0.17722 Y-32.48139
G01 X0.29545 Y-32.56910
G01 X0.42172 Y-32.64479
G01 X0.86086 Y-32.87951
G01 X1.13248 Y-32.99201
G01 X1.60896 Y-33.13656
G01 X1.75176 Y-33.17235
G01 X1.89738 Y-33.19394
G01 X2.39293 Y-33.24276
G01 X2.54000 Y-33.25000
G01 X72.39000 Y-33.25000
G01 X72.53704 Y-33.24276
G01 X73.03257 Y-33.19394
G01 X73.32099 Y-33.13656
G01 X73.79746 Y-32.99201
G01 X74.06909 Y-32.87951
G01 X74.50823 Y-32.64479
G01 X74.63450 Y-32.56910
G01 X74.75273 Y-32.48139
G01 X75.13762 Y-32.16552
G01 X75.34552 Y-31.95762
G01 X75.66139 Y-31.57273
G01 X75.74910 Y-31.45450
G01 X75.82479 Y-31.32823
G01 X76.05951 Y-30.88909
G01 X76.17201 Y-30.61746
G01 X76.31656 Y-30.14099
G01 X76.37394 Y-29.85257
G01 X76.42276 Y-29.35704
G01 X76.43000 Y-29.21000
G01 X76.43000 Y-2.54000
G01 X76.42474 Y-2.41452
G01 X76.38783 Y-1.97488
G01 X76.34333 Y-1.71724
G01 X76.23066 Y-1.29070
G01 X76.14211 Y-1.04473
G01 X75.95710 Y-0.64425
G01 X75.82718 Y-0.41735
G01 X75.57541 Y-0.05504
G01 X75.40803 Y0.14587
G01 X75.09718 Y0.45893
G01 X74.89749 Y0.62771
G01 X74.53699 Y0.88204
G01 X74.31103 Y1.01356
G01 X73.91187 Y1.20142
G01 X73.66650 Y1.29172
G01 X73.24077 Y1.40741
G01 X72.98365 Y1.45369
G01 X72.54428 Y1.49377
G01 X72.40803 Y1.50000
G01 X2.54000 Y1.50000
G01 X2.39301 Y1.49276
G01 X1.89746 Y1.44396
G01 X1.75181 Y1.42237
G01 X1.60896 Y1.38659
G01 X1.13248 Y1.24203
G01 X0.86086 Y1.12954
G01 X0.42172 Y0.89482
G01 X0.29545 Y0.81912
G01 X0.17722 Y0.73142
G01 X-0.20764 Y0.41554
G01 X-0.41554 Y0.20764
G01 X-0.73142 Y-0.17722
G01 X-0.81912 Y-0.29545
G01 X-0.89482 Y-0.42172
G01 X-1.12954 Y-0.86086
G01 X-1.24203 Y-1.13248
G01 X-1.38659 Y-1.60896
G01 X-1.42237 Y-1.75181
G01 X-1.44396 Y-1.89746
G01 X-1.49276 Y-2.39301
G01 X-1.50000 Y-2.54000
G01 Z-1.87500 F30.00000 ( plunge. )
G04 P0 ( dwell for no time -- G64 should not smooth over this point )
G01 F500.00000
G01 X-1.50000 Y-29.21000
G01 X-1.49276 Y-29.35699
G01 X-1.44396 Y-29.85252
G01 X-1.42237 Y-29.99816
G01 X-1.38659 Y-30.14099
G01 X-1.24203 Y-30.61746
G01 X-1.12954 Y-30.88909
G01 X-0.89482 Y-31.32823
G01 X-0.81912 Y-31.45450
G01 X-0.73142 Y-31.57273
G01 X-0.41554 Y-31.95762
G01 X-0.20764 Y-32.16552
G01 X0.17722 Y-32.48139
G01 X0.29545 Y-32.56910
G01 X0.42172 Y-32.64479
G01 X0.86086 Y-32.87951
G01 X1.13248 Y-32.99201
G01 X1.60896 Y-33.13656
G01 X1.75176 Y-33.17235
G01 X1.89738 Y-33.19394
G01 X2.39293 Y-33.24276
G01 X2.54000 Y-33.25000
G01 X72.39000 Y-33.25000
G01 X72.53704 Y-33.24276
G01 X73.03257 Y-33.19394
G01 X73.32099 Y-33.13656
G01 X73.79746 Y-32.99201
G01 X74.06909 Y-32.87951
G01 X74.50823 Y-32.64479
G01 X74.63450 Y-32.56910
G01 X74.75273 Y-32.48139
G01 X75.13762 Y-32.16552
G01 X75.34552 Y-31.95762
G01 X75.66139 Y-31.57273
G01 X75.74910 Y-31.45450
G01 X75.82479 Y-31.32823
G01 X76.05951 Y-30.88909
G01 X76.17201 Y-30.61746
G01 X76.31656 Y-30.14099
G01 X76.37394 Y-29.85257
G01 X76.42276 Y-29.35704
G01 X76.43000 Y-29.21000
G01 X76.43000 Y-2.54000
G01 X76.42474 Y-2.41452
G01 X76.38783 Y-1.97488
G01 X76.34333 Y-1.71724
G01 X76.23066 Y-1.29070
G01 X76.14211 Y-1.04473
G01 X75.95710 Y-0.64425
G01 X75.82718 Y-0.41735
G01 X75.57541 Y-0.05504
G01 X75.40803 Y0.14587
G01 X75.09718 Y0.45893
G01 X74.89749 Y0.62771
G01 X74.53699 Y0.88204
G01 X74.31103 Y1.01356
G01 X73.91187 Y1.20142
G01 X73.66650 Y1.29172
G01 X73.24077 Y1.40741
G01 X72.98365 Y1.45369
G01 X72.54428 Y1.49377
G01 X72.40803 Y1.50000
G01 X2.54000 Y1.50000
G01 X2.39301 Y1.49276
G01 X1.89746 Y1.44396
G01 X1.75181 Y1.42237
G01 X1.60896 Y1.38659
G01 X1.13248 Y1.24203
G01 X0.86086 Y1.12954
G01 X0.42172 Y0.89482
G01 X0.29545 Y0.81912
G01 X0.17722 Y0.73142
G01 X-0.20764 Y0.41554
G01 X-0.41554 Y0.20764
G01 X-0.73142 Y-0.17722
G01 X-0.81912 Y-0.29545
G01 X-0.89482 Y-0.42172
G01 X-1.12954 Y-0.86086
G01 X-1.24203 Y-1.13248
G01 X-1.38659 Y-1.60896
G01 X-1.42237 Y-1.75181
G01 X-1.44396 Y-1.89746
G01 X-1.49276 Y-2.39301
G01 X-1.50000 Y-2.54000
G01 Z-2.00000 F30.00000 ( plunge. )
G04 P0 ( dwell for no time -- G64 should not smooth over this point )
G01 F500.00000
G01 X-1.50000 Y-29.21000
G01 X-1.49276 Y-29.35699
G01 X-1.44396 Y-29.85252
G01 X-1.42237 Y-29.99816
G01 X-1.38659 Y-30.14099
G01 X-1.24203 Y-30.61746
G01 X-1.12954 Y-30.88909
G01 X-0.89482 Y-31.32823
G01 X-0.81912 Y-31.45450
G01 X-0.73142 Y-31.57273
G01 X-0.41554 Y-31.95762
G01 X-0.20764 Y-32.16552
G01 X0.17722 Y-32.48139
G01 X0.29545 Y-32.56910
G01 X0.42172 Y-32.64479
G01 X0.86086 Y-32.87951
G01 X1.13248 Y-32.99201
G01 X1.60896 Y-33.13656
G01 X1.75176 Y-33.17235
G01 X1.89738 Y-33.19394
G01 X2.39293 Y-33.24276
G01 X2.54000 Y-33.25000
G01 X72.39000 Y-33.25000
G01 X72.53704 Y-33.24276
G01 X73.03257 Y-33.19394
G01 X73.32099 Y-33.13656
G01 X73.79746 Y-32.99201
G01 X74.06909 Y-32.87951
G01 X74.50823 Y-32.64479
G01 X74.63450 Y-32.56910
G01 X74.75273 Y-32.48139
G01 X75.13762 Y-32.16552
G01 X75.34552 Y-31.95762
G01 X75.66139 Y-31.57273
G01 X75.74910 Y-31.45450
G01 X75.82479 Y-31.32823
G01 X76.05951 Y-30.88909
G01 X76.17201 Y-30.61746
G01 X76.31656 Y-30.14099
G01 X76.37394 Y-29.85257
G01 X76.42276 Y-29.35704
G01 X76.43000 Y-29.21000
G01 X76.43000 Y-2.54000
G01 X76.42474 Y-2.41452
G01 X76.38783 Y-1.97488
G01 X76.34333 Y-1.71724
G01 X76.23066 Y-1.29070
G01 X76.14211 Y-1.04473
G01 X75.95710 Y-0.64425
G01 X75.82718 Y-0.41735
G01 X75.57541 Y-0.05504
G01 X75.40803 Y0.14587
G01 X75.09718 Y0.45893
G01 X74.89749 Y0.62771
G01 X74.53699 Y0.88204
G01 X74.31103 Y1.01356
G01 X73.91187 Y1.20142
G01 X73.66650 Y1.29172
G01 X73.24077 Y1.40741
G01 X72.98365 Y1.45369
G01 X72.54428 Y1.49377
G01 X72.40803 Y1.50000
G01 X2.54000 Y1.50000
G01 X2.39301 Y1.49276
G01 X1.89746 Y1.44396
G01 X1.75181 Y1.42237
G01 X1.60896 Y1.38659
G01 X1.13248 Y1.24203
G01 X0.86086 Y1.12954
G01 X0.42172 Y0.89482
G01 X0.29545 Y0.81912
G01 X0.17722 Y0.73142
G01 X-0.20764 Y0.41554
G01 X-0.41554 Y0.20764
G01 X-0.73142 Y-0.17722
G01 X-0.81912 Y-0.29545
G01 X-0.89482 Y-0.42172
G01 X-1.12954 Y-0.86086
G01 X-1.24203 Y-1.13248
G01 X-1.38659 Y-1.60896
G01 X-1.42237 Y-1.75181
G01 X-1.44396 Y-1.89746
G01 X-1.49276 Y-2.39301
G01 X-1.50000 Y-2.54000
G01 Z-2.12500 F30.00000 ( plunge. )
G04 P0 ( dwell for no time -- G64 should not smooth over this point )
G01 F500.00000
G01 X-1.50000 Y-29.21000
G01 X-1.49276 Y-29.35699
G01 X-1.44396 Y-29.85252
G01 X-1.42237 Y-29.99816
G01 X-1.38659 Y-30.14099
G01 X-1.24203 Y-30.61746
G01 X-1.12954 Y-30.88909
G01 X-0.89482 Y-31.32823
G01 X-0.81912 Y-31.45450
G01 X-0.73142 Y-31.57273
G01 X-0.41554 Y-31.95762
G01 X-0.20764 Y-32.16552
G01 X0.17722 Y-32.48139
G01 X0.29545 Y-32.56910
G01 X0.42172 Y-32.64479
G01 X0.86086 Y-32.87951
G01 X1.13248 Y-32.99201
G01 X1.60896 Y-33.13656
G01 X1.75176 Y-33.17235
G01 X1.89738 Y-33.19394
G01 X2.39293 Y-33.24276
G01 X2.54000 Y-33.25000
G01 X72.39000 Y-33.25000
G01 X72.53704 Y-33.24276
G01 X73.03257 Y-33.19394
G01 X73.32099 Y-33.13656
G01 X73.79746 Y-32.99201
G01 X74.06909 Y-32.87951
G01 X74.50823 Y-32.64479
G01 X74.63450 Y-32.56910
G01 X74.75273 Y-32.48139
G01 X75.13762 Y-32.16552
G01 X75.34552 Y-31.95762
G01 X75.66139 Y-31.57273
G01 X75.74910 Y-31.45450
G01 X75.82479 Y-31.32823
G01 X76.05951 Y-30.88909
G01 X76.17201 Y-30.61746
G01 X76.31656 Y-30.14099
G01 X76.37394 Y-29.85257
G01 X76.42276 Y-29.35704
G01 X76.43000 Y-29.21000
G01 X76.43000 Y-2.54000
G01 X76.42474 Y-2.41452
G01 X76.38783 Y-1.97488
G01 X76.34333 Y-1.71724
G01 X76.23066 Y-1.29070
G01 X76.14211 Y-1.04473
G01 X75.95710 Y-0.64425
G01 X75.82718 Y-0.41735
G01 X75.57541 Y-0.05504
G01 X75.40803 Y0.14587
G01 X75.09718 Y0.45893
G01 X74.89749 Y0.62771
G01 X74.53699 Y0.88204
G01 X74.31103 Y1.01356
G01 X73.91187 Y1.20142
G01 X73.66650 Y1.29172
G01 X73.24077 Y1.40741
G01 X72.98365 Y1.45369
G01 X72.54428 Y1.49377
G01 X72.40803 Y1.50000
G01 X2.54000 Y1.50000
G01 X2.39301 Y1.49276
G01 X1.89746 Y1.44396
G01 X1.75181 Y1.42237
G01 X1.60896 Y1.38659
G01 X1.13248 Y1.24203
G01 X0.86086 Y1.12954
G01 X0.42172 Y0.89482
G01 X0.29545 Y0.81912
G01 X0.17722 Y0.73142
G01 X-0.20764 Y0.41554
G01 X-0.41554 Y0.20764
G01 X-0.73142 Y-0.17722
G01 X-0.81912 Y-0.29545
G01 X-0.89482 Y-0.42172
G01 X-1.12954 Y-0.86086
G01 X-1.24203 Y-1.13248
G01 X-1.38659 Y-1.60896
G01 X-1.42237 Y-1.75181
G01 X-1.44396 Y-1.89746
G01 X-1.49276 Y-2.39301
G01 X-1.50000 Y-2.54000
G01 Z-2.25000 F30.00000 ( plunge. )
G04 P0 ( dwell for no time -- G64 should not smooth over this point )
G01 F500.00000
G01 X-1.50000 Y-29.21000
G01 X-1.49276 Y-29.35699
G01 X-1.44396 Y-29.85252
G01 X-1.42237 Y-29.99816
G01 X-1.38659 Y-30.14099
G01 X-1.24203 Y-30.61746
G01 X-1.12954 Y-30.88909
G01 X-0.89482 Y-31.32823
G01 X-0.81912 Y-31.45450
G01 X-0.73142 Y-31.57273
G01 X-0.41554 Y-31.95762
G01 X-0.20764 Y-32.16552
G01 X0.17722 Y-32.48139
G01 X0.29545 Y-32.56910
G01 X0.42172 Y-32.64479
G01 X0.86086 Y-32.87951
G01 X1.13248 Y-32.99201
G01 X1.60896 Y-33.13656
G01 X1.75176 Y-33.17235
G01 X1.89738 Y-33.19394
G01 X2.39293 Y-33.24276
G01 X2.54000 Y-33.25000
G01 X72.39000 Y-33.25000
G01 X72.53704 Y-33.24276
G01 X73.03257 Y-33.19394
G01 X73.32099 Y-33.13656
G01 X73.79746 Y-32.99201
G01 X74.06909 Y-32.87951
G01 X74.50823 Y-32.64479
G01 X74.63450 Y-32.56910
G01 X74.75273 Y-32.48139
G01 X75.13762 Y-32.16552
G01 X75.34552 Y-31.95762
G01 X75.66139 Y-31.57273
G01 X75.74910 Y-31.45450
G01 X75.82479 Y-31.32823
G01 X76.05951 Y-30.88909
G01 X76.17201 Y-30.61746
G01 X76.31656 Y-30.14099
G01 X76.37394 Y-29.85257
G01 X76.42276 Y-29.35704
G01 X76.43000 Y-29.21000
G01 X76.43000 Y-2.54000
G01 X76.42474 Y-2.41452
G01 X76.38783 Y-1.97488
G01 X76.34333 Y-1.71724
G01 X76.23066 Y-1.29070
G01 X76.14211 Y-1.04473
G01 X75.95710 Y-0.64425
G01 X75.82718 Y-0.41735
G01 X75.57541 Y-0.05504
G01 X75.40803 Y0.14587
G01 X75.09718 Y0.45893
G01 X74.89749 Y0.62771
G01 X74.53699 Y0.88204
G01 X74.31103 Y1.01356
G01 X73.91187 Y1.20142
G01 X73.66650 Y1.29172
G01 X73.24077 Y1.40741
G01 X72.98365 Y1.45369
G01 X72.54428 Y1.49377
G01 X72.40803 Y1.50000
G01 X2.54000 Y1.50000
G01 X2.39301 Y1.49276
G01 X1.89746 Y1.44396
G01 X1.75181 Y1.42237
G01 X1.60896 Y1.38659
G01 X1.13248 Y1.24203
G01 X0.86086 Y1.12954
G01 X0.42172 Y0.89482
G01 X0.29545 Y0.81912
G01 X0.17722 Y0.73142
G01 X-0.20764 Y0.41554
G01 X-0.41554 Y0.20764
G01 X-0.73142 Y-0.17722
G01 X-0.81912 Y-0.29545
G01 X-0.89482 Y-0.42172
G01 X-1.12954 Y-0.86086
G01 X-1.24203 Y-1.13248
G01 X-1.38659 Y-1.60896
G01 X-1.42237 Y-1.75181
G01 X-1.44396 Y-1.89746
G01 X-1.49276 Y-2.39301
G01 X-1.50000 Y-2.54000
G01 Z-2.37500 F30.00000 ( plunge. )
G04 P0 ( dwell for no time -- G64 should not smooth over this point )
G01 F500.00000
G01 X-1.50000 Y-29.21000
G01 X-1.49276 Y-29.35699
G01 X-1.44396 Y-29.85252
G01 X-1.42237 Y-29.99816
G01 X-1.38659 Y-30.14099
G01 X-1.24203 Y-30.61746
G01 X-1.12954 Y-30.88909
G01 X-0.89482 Y-31.32823
G01 X-0.81912 Y-31.45450
G01 X-0.73142 Y-31.57273
G01 X-0.41554 Y-31.95762
G01 X-0.20764 Y-32.16552
G01 X0.17722 Y-32.48139
G01 X0.29545 Y-32.56910
G01 X0.42172 Y-32.64479
G01 X0.86086 Y-32.87951
G01 X1.13248 Y-32.99201
G01 X1.60896 Y-33.13656
G01 X1.75176 Y-33.17235
G01 X1.89738 Y-33.19394
G01 X2.39293 Y-33.24276
G01 X2.54000 Y-33.25000
G01 X72.39000 Y-33.25000
G01 X72.53704 Y-33.24276
G01 X73.03257 Y-33.19394
G01 X73.32099 Y-33.13656
G01 X73.79746 Y-32.99201
G01 X74.06909 Y-32.87951
G01 X74.50823 Y-32.64479
G01 X74.63450 Y-32.56910
G01 X74.75273 Y-32.48139
G01 X75.13762 Y-32.16552
G01 X75.34552 Y-31.95762
G01 X75.66139 Y-31.57273
G01 X75.74910 Y-31.45450
G01 X75.82479 Y-31.32823
G01 X76.05951 Y-30.88909
G01 X76.17201 Y-30.61746
G01 X76.31656 Y-30.14099
G01 X76.37394 Y-29.85257
G01 X76.42276 Y-29.35704
G01 X76.43000 Y-29.21000
G01 X76.43000 Y-2.54000
G01 X76.42474 Y-2.41452
G01 X76.38783 Y-1.97488
G01 X76.34333 Y-1.71724
G01 X76.23066 Y-1.29070
G01 X76.14211 Y-1.04473
G01 X75.95710 Y-0.64425
G01 X75.82718 Y-0.41735
G01 X75.57541 Y-0.05504
G01 X75.40803 Y0.14587
G01 X75.09718 Y0.45893
G01 X74.89749 Y0.62771
G01 X74.53699 Y0.88204
G01 X74.31103 Y1.01356
G01 X73.91187 Y1.20142
G01 X73.66650 Y1.29172
G01 X73.24077 Y1.40741
G01 X72.98365 Y1.45369
G01 X72.54428 Y1.49377
G01 X72.40803 Y1.50000
G01 X2.54000 Y1.50000
G01 X2.39301 Y1.49276
G01 X1.89746 Y1.44396
G01 X1.75181 Y1.42237
G01 X1.60896 Y1.38659
G01 X1.13248 Y1.24203
G01 X0.86086 Y1.12954
G01 X0.42172 Y0.89482
G01 X0.29545 Y0.81912
G01 X0.17722 Y0.73142
G01 X-0.20764 Y0.41554
G01 X-0.41554 Y0.20764
G01 X-0.73142 Y-0.17722
G01 X-0.81912 Y-0.29545
G01 X-0.89482 Y-0.42172
G01 X-1.12954 Y-0.86086
G01 X-1.24203 Y-1.13248
G01 X-1.38659 Y-1.60896
G01 X-1.42237 Y-1.75181
G01 X-1.44396 Y-1.89746
G01 X-1.49276 Y-2.39301
G01 X-1.50000 Y-2.54000
G01 Z-2.50000 F30.00000 ( plunge. )
G04 P0 ( dwell for no time -- G64 should not smooth over this point )
G01 F500.00000
G01 X-1.50000 Y-29.21000
G01 X-1.49276 Y-29.35699
G01 X-1.44396 Y-29.85252
G01 X-1.42237 Y-29.99816
G01 X-1.38659 Y-30.14099
G01 X-1.24203 Y-30.61746
G01 X-1.12954 Y-30.88909
G01 X-0.89482 Y-31.32823
G01 X-0.81912 Y-31.45450
G01 X-0.73142 Y-31.57273
G01 X-0.41554 Y-31.95762
G01 X-0.20764 Y-32.16552
G01 X0.17722 Y-32.48139
G01 X0.29545 Y-32.56910
G01 X0.42172 Y-32.64479
G01 X0.86086 Y-32.87951
G01 X1.13248 Y-32.99201
G01 X1.60896 Y-33.13656
G01 X1.75176 Y-33.17235
G01 X1.89738 Y-33.19394
G01 X2.39293 Y-33.24276
G01 X2.54000 Y-33.25000
G01 X72.39000 Y-33.25000
G01 X72.53704 Y-33.24276
G01 X73.03257 Y-33.19394
G01 X73.32099 Y-33.13656
G01 X73.79746 Y-32.99201
G01 X74.06909 Y-32.87951
G01 X74.50823 Y-32.64479
G01 X74.63450 Y-32.56910
G01 X74.75273 Y-32.48139
G01 X75.13762 Y-32.16552
G01 X75.34552 Y-31.95762
G01 X75.66139 Y-31.57273
G01 X75.74910 Y-31.45450
G01 X75.82479 Y-31.32823
G01 X76.05951 Y-30.88909
G01 X76.17201 Y-30.61746
G01 X76.31656 Y-30.14099
G01 X76.37394 Y-29.85257
G01 X76.42276 Y-29.35704
G01 X76.43000 Y-29.21000
G01 X76.43000 Y-2.54000
G01 X76.42474 Y-2.41452
G01 X76.38783 Y-1.97488
G01 X76.34333 Y-1.71724
G01 X76.23066 Y-1.29070
G01 X76.14211 Y-1.04473
G01 X75.95710 Y-0.64425
G01 X75.82718 Y-0.41735
G01 X75.57541 Y-0.05504
G01 X75.40803 Y0.14587
G01 X75.09718 Y0.45893
G01 X74.89749 Y0.62771
G01 X74.53699 Y0.88204
G01 X74.31103 Y1.01356
G01 X73.91187 Y1.20142
G01 X73.66650 Y1.29172
G01 X73.24077 Y1.40741
G01 X72.98365 Y1.45369
G01 X72.54428 Y1.49377
G01 X72.40803 Y1.50000
G01 X2.54000 Y1.50000
G01 X2.39301 Y1.49276
G01 X1.89746 Y1.44396
G01 X1.75181 Y1.42237
G01 X1.60896 Y1.38659
G01 X1.13248 Y1.24203
G01 X0.86086 Y1.12954
G01 X0.42172 Y0.89482
G01 X0.29545 Y0.81912
G01 X0.17722 Y0.73142
G01 X-0.20764 Y0.41554
G01 X-0.41554 Y0.20764
G01 X-0.73142 Y-0.17722
G01 X-0.81912 Y-0.29545
G01 X-0.89482 Y-0.42172
G01 X-1.12954 Y-0.86086
G01 X-1.24203 Y-1.13248
G01 X-1.38659 Y-1.60896
G01 X-1.42237 Y-1.75181
G01 X-1.44396 Y-1.89746
G01 X-1.49276 Y-2.39301
G01 X-1.50000 Y-2.54000

G04 P0 ( dwell for no time -- G64 should not smooth over this point )
G00 Z18.835000 ( retract )

M5 ( Spindle off. )
G04 P1.000000
M9 ( Coolant off. )
M2 ( Program end. )

