( pcb2gcode 2.5.0 )
( Software-independent Gcode )

G0 F200

G94 ( Millimeters per minute feed rate. )
G21 ( Units == Millimeters. )

G90 ( Absolute coordinates. )
G00 S10000 ( RPM spindle speed. )
G64 P0.01016 ( set maximum deviation from commanded toolpath )
G01 F200.00000 ( Feedrate. )


G00 Z17.83500 (Retract to tool change height)
T1
M5      (Spindle stop.)
G04 P1.00000 (Wait for spindle to stop)
(MSG, Change tool bit to mill diameter 0.80000mm)
M6      (Tool change.)
M0      (Temporary machine stop.)
M3 ( Spindle on clockwise. )
G04 P1.00000 (Wait for spindle to get up to speed)
G04 P0 ( dwell for no time -- G64 should not smooth over this point )
G00 Z1.27000 ( retract )

G00 X6.69983 Y-7.71726 ( rapid move to begin. )
G01 F30.00000
( Mill infeed pass 1/1 )
G01 Z-0.14000
G04 P0 ( dwell for no time -- G64 should not smooth over this point )
G01 F200.00000
G01 X6.69983 Y-7.71726
G01 X6.58066 Y-7.86552
G01 X6.46514 Y-8.08164
G01 X6.40354 Y-8.27804
G01 X6.38825 Y-8.35495
G01 X6.36996 Y-8.55998
G01 X6.36996 Y-9.85998
G01 X6.38825 Y-10.06503
G01 X6.40354 Y-10.14194
G01 X6.45190 Y-10.30138
G01 X6.48190 Y-10.37382
G01 X6.56046 Y-10.52078
G01 X6.60400 Y-10.58598
G01 X6.69983 Y-10.70272
G01 X6.69983 Y-11.40010
G01 X8.81024 Y-11.40010
G01 X8.91868 Y-11.31113
G01 X8.99864 Y-11.23864
G01 X9.07113 Y-11.15868
G01 X9.17684 Y-11.02987
G01 X9.29660 Y-10.85063
G01 X9.34182 Y-10.76602
G01 X9.09582 Y-10.55456
G01 X8.79396 Y-10.28189
G01 X8.75805 Y-10.37382
G01 X8.67951 Y-10.52078
G01 X8.63595 Y-10.58598
G01 X8.53023 Y-10.71479
G01 X8.47479 Y-10.77023
G01 X8.34598 Y-10.87595
G01 X8.28078 Y-10.91951
G01 X8.09833 Y-11.01484
G01 X7.90194 Y-11.07643
G01 X7.82503 Y-11.09172
G01 X7.65919 Y-11.10806
G01 X7.58078 Y-11.10806
G01 X7.41495 Y-11.09172
G01 X7.33803 Y-11.07643
G01 X7.17860 Y-11.02807
G01 X7.10616 Y-10.99805
G01 X6.95919 Y-10.91951
G01 X6.89399 Y-10.87595
G01 X6.76519 Y-10.77023
G01 X6.73611 Y-10.74387
G01 X6.69983 Y-10.70272
G01 X6.73611 Y-10.74387
G01 X6.76519 Y-10.77023
G01 X6.89399 Y-10.87595
G01 X6.95919 Y-10.91951
G01 X7.10616 Y-10.99805
G01 X7.17860 Y-11.02807
G01 X7.33803 Y-11.07643
G01 X7.41495 Y-11.09172
G01 X7.58078 Y-11.10806
G01 X7.65919 Y-11.10806
G01 X7.82503 Y-11.09172
G01 X7.90194 Y-11.07643
G01 X8.09833 Y-11.01484
G01 X8.28078 Y-10.91951
G01 X8.34598 Y-10.87595
G01 X8.50387 Y-10.74387
G01 X8.63595 Y-10.58598
G01 X8.67951 Y-10.52078
G01 X8.75805 Y-10.37382
G01 X8.78807 Y-10.30138
G01 X8.84596 Y-10.10384
G01 X8.86983 Y-9.86333
G01 X8.75711 Y-9.73384
G01 X8.68937 Y-9.63813
G01 X8.65952 Y-9.58832
G01 X8.61708 Y-9.50333
G01 X8.58771 Y-9.42574
G01 X8.56846 Y-9.35358
G01 X8.55731 Y-9.28484
G01 X8.55317 Y-9.21814
G01 X8.55563 Y-9.15198
G01 X8.56468 Y-9.08528
G01 X8.58093 Y-9.01657
G01 X8.61078 Y-8.93077
G01 X8.77600 Y-8.52983
G01 X8.84644 Y-8.32863
G01 X8.83643 Y-8.27804
G01 X8.77484 Y-8.08164
G01 X8.65932 Y-7.86552
G01 X8.53023 Y-7.70519
G01 X8.47479 Y-7.64974
G01 X8.34598 Y-7.54403
G01 X8.28078 Y-7.50047
G01 X8.13382 Y-7.42193
G01 X8.06138 Y-7.39191
G01 X7.90194 Y-7.34355
G01 X7.82503 Y-7.32826
G01 X7.65919 Y-7.31192
G01 X7.58078 Y-7.31192
G01 X7.41495 Y-7.32826
G01 X7.33803 Y-7.34355
G01 X7.17860 Y-7.39191
G01 X7.10616 Y-7.42193
G01 X6.92551 Y-7.52066
G01 X6.76519 Y-7.64974
G01 X6.69983 Y-7.71726
G01 X6.69983 Y-6.84571
G01 X6.77631 Y-6.80481
G01 X6.97547 Y-6.72231
G01 X7.13494 Y-6.67395
G01 X7.34637 Y-6.63189
G01 X7.51220 Y-6.61556
G01 X7.62000 Y-6.61027
G01 X7.72777 Y-6.61556
G01 X7.89361 Y-6.63189
G01 X8.10895 Y-6.67515
G01 X8.29795 Y-6.97880
G01 X8.51985 Y-7.31337
G01 X8.61769 Y-7.45157
G01 X8.63851 Y-7.50824
G01 X8.62033 Y-7.70258
G01 X8.60621 Y-7.79775
G01 X8.65932 Y-7.86552
G01 X8.67951 Y-7.89920
G01 X8.77484 Y-8.08164
G01 X8.83643 Y-8.27804
G01 X8.84644 Y-8.32863
G01 X9.50598 Y-7.66907
G01 X9.50598 Y-7.12950
G01 X9.47463 Y-7.08078
G01 X9.43767 Y-7.01162
G01 X9.40765 Y-6.93918
G01 X9.38489 Y-6.86415
G01 X9.36960 Y-6.78724
G01 X9.35998 Y-6.66999
G01 X9.36960 Y-6.55274
G01 X9.38489 Y-6.47583
G01 X9.40765 Y-6.40080
G01 X9.43767 Y-6.32836
G01 X9.47463 Y-6.25920
G01 X9.50598 Y-6.21228
G01 X9.50598 Y-5.67088
G01 X8.61908 Y-4.78399
G01 X7.81025 Y-4.78399
G01 X7.77669 Y-4.86806
G01 X7.75419 Y-4.91023
G01 X7.71060 Y-4.97540
G01 X7.65393 Y-5.04144
G01 X7.58792 Y-5.09811
G01 X7.52272 Y-5.14167
G01 X7.48058 Y-5.16420
G01 X7.40814 Y-5.19420
G01 X7.36239 Y-5.20809
G01 X7.28551 Y-5.22338
G01 X7.19874 Y-5.22999
G01 X6.67202 Y-5.22806
G01 X6.62445 Y-5.22338
G01 X6.54756 Y-5.20809
G01 X6.50182 Y-5.19420
G01 X6.46488 Y-5.18099
G01 X6.38726 Y-5.14167
G01 X6.32206 Y-5.09811
G01 X6.28513 Y-5.06781
G01 X6.25605 Y-5.04144
G01 X6.19935 Y-4.97540
G01 X6.15579 Y-4.91023
G01 X6.13326 Y-4.86806
G01 X6.11650 Y-4.83258
G01 X6.08940 Y-4.74990
G01 X6.07985 Y-4.71183
G01 X6.06941 Y-4.62544
G01 X6.06748 Y-3.67373
G01 X6.07411 Y-3.58699
G01 X6.08940 Y-3.51008
G01 X6.11650 Y-3.42737
G01 X6.15579 Y-3.34975
G01 X6.19935 Y-3.28455
G01 X6.22968 Y-3.24762
G01 X6.25605 Y-3.21854
G01 X6.32206 Y-3.16187
G01 X6.38726 Y-3.11831
G01 X6.42940 Y-3.09578
G01 X6.46488 Y-3.07899
G01 X6.54756 Y-3.05189
G01 X6.62445 Y-3.03660
G01 X6.71124 Y-3.02999
G01 X7.19874 Y-3.02999
G01 X7.28551 Y-3.03660
G01 X7.36239 Y-3.05189
G01 X7.40814 Y-3.06575
G01 X7.48058 Y-3.09578
G01 X7.55637 Y-3.13847
G01 X7.62485 Y-3.19217
G01 X7.68030 Y-3.24762
G01 X7.71060 Y-3.28455
G01 X7.75419 Y-3.34975
G01 X7.79348 Y-3.42737
G01 X7.81025 Y-3.47596
G01 X8.92919 Y-3.47789
G01 X9.01758 Y-3.48854
G01 X9.10331 Y-3.51254
G01 X9.17575 Y-3.54254
G01 X9.25332 Y-3.58620
G01 X9.35243 Y-3.66753
G01 X10.64374 Y-4.96059
G01 X10.66965 Y-4.99090
G01 X10.72736 Y-5.07566
G01 X10.77110 Y-5.16842
G01 X10.79980 Y-5.26687
G01 X10.80963 Y-5.32887
G01 X10.81400 Y-5.39996
G01 X10.81400 Y-6.21228
G01 X10.84534 Y-6.25920
G01 X10.88230 Y-6.32836
G01 X10.91232 Y-6.40080
G01 X10.93508 Y-6.47583
G01 X10.95037 Y-6.55274
G01 X10.96000 Y-6.66999
G01 X10.95037 Y-6.78724
G01 X10.93508 Y-6.86415
G01 X10.91232 Y-6.93918
G01 X10.88230 Y-7.01162
G01 X10.84534 Y-7.08078
G01 X10.81400 Y-7.12770
G01 X10.81275 Y-7.97136
G01 X10.80963 Y-8.01108
G01 X10.79050 Y-8.11185
G01 X10.75586 Y-8.20837
G01 X10.70653 Y-8.29828
G01 X10.66965 Y-8.34906
G01 X10.62243 Y-8.40242
G01 X9.32335 Y-9.69879
G01 X9.28487 Y-9.73038
G01 X9.21967 Y-9.77395
G01 X9.17575 Y-9.79741
G01 X9.10331 Y-9.82741
G01 X9.05566 Y-9.84187
G01 X8.97875 Y-9.85718
G01 X8.86948 Y-9.86297
G01 X8.97875 Y-9.85718
G01 X9.05566 Y-9.84187
G01 X9.10331 Y-9.82741
G01 X9.17575 Y-9.79741
G01 X9.25192 Y-9.75238
G01 X9.55756 Y-10.02881
G01 X9.78444 Y-10.22408
G01 X9.84722 Y-10.16721
G01 X11.11722 Y-8.89721
G01 X11.20170 Y-8.80349
G01 X11.30315 Y-8.66386
G01 X11.32398 Y-8.62990
G01 X11.40231 Y-8.47613
G01 X11.47089 Y-8.27519
G01 X11.48019 Y-8.23643
G01 X11.50719 Y-8.06600
G01 X11.51372 Y-7.93999
G01 X11.51372 Y-7.31121
G01 X11.50290 Y-7.30926
G01 X11.51372 Y-7.31121
G01 X11.54554 Y-7.24390
G01 X11.60468 Y-7.06725
G01 X11.64674 Y-6.85582
G01 X11.65972 Y-6.66999
G01 X11.64674 Y-6.48416
G01 X11.60468 Y-6.27271
G01 X11.54554 Y-6.09608
G01 X11.51372 Y-6.02874
G01 X11.50315 Y-6.03070
G01 X11.51372 Y-6.02874
G01 X11.51372 Y-5.39996
G01 X11.50719 Y-5.27395
G01 X11.47089 Y-5.06476
G01 X11.40231 Y-4.86382
G01 X11.32398 Y-4.71005
G01 X11.20170 Y-4.53647
G01 X11.17582 Y-4.50616
G01 X11.11722 Y-4.44274
G01 X9.84722 Y-3.17274
G01 X9.72876 Y-3.06868
G01 X9.64207 Y-3.00439
G01 X9.50559 Y-2.92544
G01 X9.30643 Y-2.84295
G01 X9.15408 Y-2.80228
G01 X9.04733 Y-2.78643
G01 X8.89000 Y-2.77625
G01 X8.19630 Y-2.77625
G01 X8.17700 Y-2.82397
G01 X8.19630 Y-2.77625
G01 X8.14873 Y-2.72377
G01 X8.06874 Y-2.65128
G01 X7.94512 Y-2.55669
G01 X7.81042 Y-2.47868
G01 X7.61124 Y-2.39619
G01 X7.56552 Y-2.38232
G01 X7.35409 Y-2.34025
G01 X7.19874 Y-2.33027
G01 X6.71124 Y-2.33027
G01 X6.55589 Y-2.34025
G01 X6.36732 Y-2.37774
G01 X6.36732 Y-3.13162
G01 X6.32206 Y-3.16187
G01 X6.25605 Y-3.21854
G01 X6.19935 Y-3.28455
G01 X6.15579 Y-3.34975
G01 X6.11650 Y-3.42737
G01 X6.10326 Y-3.46436
G01 X6.07985 Y-3.54815
G01 X6.06941 Y-3.63454
G01 X6.06748 Y-4.58625
G01 X6.07411 Y-4.67299
G01 X6.07985 Y-4.71183
G01 X6.10326 Y-4.79562
G01 X6.11650 Y-4.83258
G01 X6.15579 Y-4.91023
G01 X6.19935 Y-4.97540
G01 X6.25605 Y-5.04144
G01 X6.32206 Y-5.09811
G01 X6.36732 Y-5.12836
G01 X6.36735 Y-5.88223
G01 X6.55589 Y-5.91972
G01 X6.60344 Y-5.92442
G01 X6.71124 Y-5.92971
G01 X7.19874 Y-5.92971
G01 X7.35409 Y-5.91972
G01 X7.56552 Y-5.87766
G01 X7.71286 Y-5.82745
G01 X7.81042 Y-5.78129
G01 X7.85256 Y-5.75876
G01 X8.03181 Y-5.63900
G01 X8.14873 Y-5.53621
G01 X8.19630 Y-5.48371
G01 X8.17664 Y-5.43420
G01 X8.19630 Y-5.48371
G01 X8.32927 Y-5.48371
G01 X8.35132 Y-5.43044
G01 X8.32927 Y-5.48371
G01 X8.80626 Y-5.96069
G01 X8.85952 Y-5.93865
G01 X8.80626 Y-5.96069
G01 X8.80626 Y-6.02874
G01 X8.81609 Y-6.03042
G01 X8.80626 Y-6.02874
G01 X8.77443 Y-6.09608
G01 X8.73806 Y-6.19768
G01 X8.71530 Y-6.27271
G01 X8.70742 Y-6.31241
G01 X8.88284 Y-6.59473
G01 X9.10082 Y-6.92338
G01 X9.23630 Y-7.11807
G01 X9.24090 Y-7.11578
G01 X9.23630 Y-7.11807
G01 X9.25548 Y-7.16006
G01 X9.32078 Y-7.33806
G01 X9.33745 Y-7.40458
G01 X9.34789 Y-7.40283
G01 X9.33745 Y-7.40458
G01 X9.34080 Y-7.47309
G01 X9.33729 Y-7.56323
G01 X9.31596 Y-7.77867
G01 X9.30250 Y-7.87258
G01 X2.63190 Y-4.78399
G01 X2.23792 Y-4.78399
G01 X2.20596 Y-4.82303
G01 X2.15052 Y-4.87848
G01 X2.08110 Y-4.93293
G01 X2.04744 Y-4.95313
G01 X2.00421 Y-4.97622
G01 X1.93177 Y-5.00624
G01 X1.84681 Y-5.02999
G01 X1.80797 Y-5.03575
G01 X1.72032 Y-5.04246
G01 X0.81966 Y-5.04246
G01 X0.69317 Y-5.02999
G01 X0.60820 Y-5.00624
G01 X0.53576 Y-4.97622
G01 X0.45888 Y-4.93293
G01 X0.38946 Y-4.87848
G01 X0.33401 Y-4.82303
G01 X0.27953 Y-4.75361
G01 X0.25936 Y-4.71993
G01 X0.23625 Y-4.67672
G01 X0.20625 Y-4.60428
G01 X0.19202 Y-4.55737
G01 X0.17671 Y-4.48046
G01 X0.16998 Y-4.39250
G01 X0.16998 Y-3.86748
G01 X-0.52972 Y-3.86748
G01 X0.16998 Y-3.86748
G01 X0.17671 Y-3.77952
G01 X0.19202 Y-3.70261
G01 X0.20625 Y-3.65569
G01 X0.23625 Y-3.58325
G01 X0.25936 Y-3.54002
G01 X0.27953 Y-3.50637
G01 X0.33401 Y-3.43695
G01 X0.38946 Y-3.38150
G01 X0.42733 Y-3.35041
G01 X0.45888 Y-3.32699
G01 X0.53576 Y-3.28374
G01 X0.60820 Y-3.25369
G01 X0.69317 Y-3.22997
G01 X0.73200 Y-3.22423
G01 X0.81999 Y-3.21749
G01 X1.71999 Y-3.21749
G01 X1.84681 Y-3.22997
G01 X1.93177 Y-3.25369
G01 X2.00421 Y-3.28374
G01 X2.08110 Y-3.32699
G01 X2.15052 Y-3.38150
G01 X2.20596 Y-3.43695
G01 X2.23789 Y-3.47596
G01 X4.22473 Y-3.47596
G01 X4.25828 Y-3.39189
G01 X4.30098 Y-3.31610
G01 X4.38104 Y-3.21854
G01 X4.44706 Y-3.16187
G01 X4.51226 Y-3.11831
G01 X4.58988 Y-3.07899
G01 X4.67256 Y-3.05189
G01 X4.74947 Y-3.03660
G01 X4.83624 Y-3.02999
G01 X5.32374 Y-3.02999
G01 X5.41050 Y-3.03660
G01 X5.48742 Y-3.05189
G01 X5.57009 Y-3.07899
G01 X5.60558 Y-3.09578
G01 X5.66760 Y-3.13159
G01 X5.74985 Y-3.19217
G01 X5.77893 Y-3.21854
G01 X5.83562 Y-3.28455
G01 X5.85899 Y-3.31610
G01 X5.90169 Y-3.39189
G01 X5.93171 Y-3.46436
G01 X5.95511 Y-3.54815
G01 X5.96748 Y-3.67373
G01 X5.96557 Y-4.62544
G01 X5.95511 Y-4.71183
G01 X5.93171 Y-4.79562
G01 X5.91848 Y-4.83258
G01 X5.87919 Y-4.91023
G01 X5.83562 Y-4.97540
G01 X5.77893 Y-5.04144
G01 X5.71292 Y-5.09811
G01 X5.66760 Y-5.12839
G01 X5.66760 Y-5.88223
G01 X5.47908 Y-5.91972
G01 X5.33933 Y-5.92894
G01 X5.22148 Y-5.92358
G01 X4.93852 Y-5.92358
G01 X4.82062 Y-5.92894
G01 X4.68089 Y-5.91972
G01 X4.46946 Y-5.87766
G01 X4.32211 Y-5.82745
G01 X4.18241 Y-5.75876
G01 X4.00317 Y-5.63900
G01 X3.96624 Y-5.60870
G01 X3.88625 Y-5.53621
G01 X3.83865 Y-5.48371
G01 X3.85834 Y-5.43423
G01 X3.83865 Y-5.48371
G01 X3.56448 Y-5.48371
G01 X3.34162 Y-5.27121
G01 X3.10825 Y-5.07870
G01 X2.85849 Y-4.90766
G01 X2.63190 Y-4.78399
G01 X2.23792 Y-4.78399
G01 X2.20596 Y-4.82303
G01 X2.15052 Y-4.87848
G01 X2.08110 Y-4.93293
G01 X2.04744 Y-4.95313
G01 X2.00421 Y-4.97622
G01 X1.93177 Y-5.00624
G01 X1.84681 Y-5.02999
G01 X1.80797 Y-5.03575
G01 X1.72032 Y-5.04246
G01 X0.81966 Y-5.04246
G01 X0.69317 Y-5.02999
G01 X0.60820 Y-5.00624
G01 X0.53576 Y-4.97622
G01 X0.45888 Y-4.93293
G01 X0.38946 Y-4.87848
G01 X0.33401 Y-4.82303
G01 X0.27953 Y-4.75361
G01 X0.24475 Y-4.69262
G01 X-0.49106 Y-4.69262
G01 X-0.51961 Y-4.54906
G01 X-0.52972 Y-4.39250
G01 X-0.52972 Y-3.86748
G01 X-0.51961 Y-3.71091
G01 X-0.47755 Y-3.49948
G01 X-0.46332 Y-3.45260
G01 X-0.38082 Y-3.25341
G01 X-0.30223 Y-3.11762
G01 X-0.20686 Y-2.99306
G01 X-0.05441 Y-2.84061
G01 X0.07013 Y-2.74523
G01 X0.20592 Y-2.66664
G01 X0.40508 Y-2.58415
G01 X0.55667 Y-2.54371
G01 X0.66342 Y-2.52786
G01 X0.81999 Y-2.51777
G01 X1.71999 Y-2.51777
G01 X1.82778 Y-2.52306
G01 X1.98331 Y-2.54371
G01 X2.13490 Y-2.58415
G01 X2.33406 Y-2.66664
G01 X2.37729 Y-2.68976
G01 X2.46985 Y-2.74523
G01 X2.51168 Y-2.77625
G01 X2.50414 Y-2.80281
G01 X2.51168 Y-2.77625
G01 X3.83868 Y-2.77625
G01 X3.85834 Y-2.82572
G01 X3.83868 Y-2.77625
G01 X3.88625 Y-2.72377
G01 X4.00317 Y-2.62098
G01 X4.18241 Y-2.50119
G01 X4.22455 Y-2.47868
G01 X4.32211 Y-2.43253
G01 X4.46946 Y-2.38232
G01 X4.68089 Y-2.34025
G01 X4.83624 Y-2.33027
G01 X5.32374 Y-2.33027
G01 X5.43154 Y-2.33556
G01 X5.47908 Y-2.34025
G01 X5.66760 Y-2.37774
G01 X5.66760 Y-3.13159
G01 X5.71292 Y-3.16187
G01 X5.77893 Y-3.21854
G01 X5.83562 Y-3.28455
G01 X5.87919 Y-3.34975
G01 X5.90169 Y-3.39189
G01 X5.93171 Y-3.46436
G01 X5.94558 Y-3.51008
G01 X5.96087 Y-3.58699
G01 X5.96748 Y-3.67373
G01 X5.96748 Y-4.58625
G01 X5.95511 Y-4.71183
G01 X5.91848 Y-4.83258
G01 X5.87919 Y-4.91023
G01 X5.83562 Y-4.97540
G01 X5.80530 Y-5.01236
G01 X5.77893 Y-5.04144
G01 X5.71292 Y-5.09811
G01 X5.64772 Y-5.14167
G01 X5.57009 Y-5.18099
G01 X5.48742 Y-5.20809
G01 X5.41050 Y-5.22338
G01 X5.32374 Y-5.22999
G01 X4.83624 Y-5.22999
G01 X4.74947 Y-5.22338
G01 X4.67256 Y-5.20809
G01 X4.58988 Y-5.18099
G01 X4.51226 Y-5.14167
G01 X4.44706 Y-5.09811
G01 X4.41013 Y-5.06781
G01 X4.35468 Y-5.01236
G01 X4.30098 Y-4.94388
G01 X4.25828 Y-4.86806
G01 X4.22473 Y-4.78399
G01 X2.63190 Y-4.78399
G01 X6.00011 Y-7.71723
G01 X6.11932 Y-7.86552
G01 X6.21805 Y-8.04614
G01 X6.24807 Y-8.11860
G01 X6.29643 Y-8.27804
G01 X6.31172 Y-8.35495
G01 X6.32998 Y-8.55998
G01 X6.32998 Y-9.85998
G01 X6.31172 Y-10.06503
G01 X6.29643 Y-10.14194
G01 X6.23484 Y-10.33833
G01 X6.13951 Y-10.52078
G01 X6.09595 Y-10.58598
G01 X5.96387 Y-10.74387
G01 X5.80598 Y-10.87595
G01 X5.74078 Y-10.91951
G01 X5.55833 Y-11.01484
G01 X5.36194 Y-11.07643
G01 X5.28503 Y-11.09172
G01 X5.08000 Y-11.10999
G01 X4.87495 Y-11.09172
G01 X4.79803 Y-11.07643
G01 X4.60164 Y-11.01484
G01 X4.41919 Y-10.91951
G01 X4.35399 Y-10.87595
G01 X4.19611 Y-10.74387
G01 X4.06403 Y-10.58598
G01 X4.02046 Y-10.52078
G01 X3.94193 Y-10.37382
G01 X3.91190 Y-10.30138
G01 X3.86354 Y-10.14194
G01 X3.84825 Y-10.06503
G01 X3.83019 Y-9.86396
G01 X1.72954 Y-9.86399
G01 X1.68077 Y-9.89533
G01 X1.61163 Y-9.93231
G01 X1.53916 Y-9.96231
G01 X1.46413 Y-9.98507
G01 X1.38722 Y-10.00039
G01 X1.27000 Y-10.00999
G01 X1.15275 Y-10.00039
G01 X1.07584 Y-9.98507
G01 X0.96383 Y-9.94908
G01 X0.85921 Y-9.89533
G01 X0.79400 Y-9.85177
G01 X0.70429 Y-9.77567
G01 X0.60480 Y-9.65444
G01 X0.54767 Y-9.55162
G01 X0.51765 Y-9.47918
G01 X0.49489 Y-9.40415
G01 X0.47960 Y-9.32724
G01 X0.47191 Y-9.24921
G01 X0.47191 Y-9.17077
G01 X0.47960 Y-9.09274
G01 X0.49489 Y-9.01583
G01 X0.51765 Y-8.94080
G01 X0.54767 Y-8.86836
G01 X0.58463 Y-8.79919
G01 X0.61598 Y-8.75045
G01 X0.61598 Y-6.83359
G01 X0.57125 Y-6.81802
G01 X0.49253 Y-6.77812
G01 X0.42733 Y-6.73456
G01 X0.36038 Y-6.67710
G01 X0.30292 Y-6.61012
G01 X0.25936 Y-6.54494
G01 X0.21946 Y-6.46623
G01 X0.20625 Y-6.42925
G01 X0.19202 Y-6.38239
G01 X0.17671 Y-6.30547
G01 X0.16998 Y-6.21749
G01 X0.16998 Y-5.69250
G01 X0.17671 Y-5.60451
G01 X0.19202 Y-5.52760
G01 X0.20625 Y-5.48071
G01 X0.23625 Y-5.40827
G01 X0.27953 Y-5.33136
G01 X0.33401 Y-5.26197
G01 X0.38946 Y-5.20652
G01 X0.42733 Y-5.17543
G01 X0.49253 Y-5.13184
G01 X0.57125 Y-5.09196
G01 X0.69317 Y-5.05498
G01 X0.78077 Y-5.04441
G01 X1.71999 Y-5.04248
G01 X1.84681 Y-5.05498
G01 X1.96873 Y-5.09196
G01 X2.08110 Y-5.15203
G01 X2.15052 Y-5.20652
G01 X2.20596 Y-5.26197
G01 X2.26045 Y-5.33136
G01 X2.28062 Y-5.36504
G01 X2.30373 Y-5.40827
G01 X2.33373 Y-5.48071
G01 X2.34795 Y-5.52760
G01 X2.36327 Y-5.60451
G01 X2.36807 Y-5.65328
G01 X2.37000 Y-6.21749
G01 X2.35750 Y-6.34428
G01 X2.33373 Y-6.42925
G01 X2.30373 Y-6.50171
G01 X2.28062 Y-6.54494
G01 X2.23705 Y-6.61012
G01 X2.20596 Y-6.64802
G01 X2.17960 Y-6.67710
G01 X2.11264 Y-6.73456
G01 X2.04744 Y-6.77812
G01 X1.96873 Y-6.81802
G01 X1.92400 Y-6.83359
G01 X1.92400 Y-8.55596
G01 X3.83019 Y-8.55596
G01 X3.84825 Y-8.35495
G01 X3.86354 Y-8.27804
G01 X3.91190 Y-8.11860
G01 X3.94193 Y-8.04614
G01 X4.02046 Y-7.89920
G01 X4.06403 Y-7.83399
G01 X4.16974 Y-7.70519
G01 X4.22519 Y-7.64974
G01 X4.38551 Y-7.52066
G01 X4.60164 Y-7.40514
G01 X4.79803 Y-7.34355
G01 X4.87495 Y-7.32826
G01 X5.04078 Y-7.31192
G01 X5.11919 Y-7.31192
G01 X5.28503 Y-7.32826
G01 X5.36194 Y-7.34355
G01 X5.52138 Y-7.39191
G01 X5.59382 Y-7.42193
G01 X5.77446 Y-7.52066
G01 X5.93479 Y-7.64974
G01 X6.00011 Y-7.71723
G01 X6.00011 Y-6.84568
G01 X5.82612 Y-6.75869
G01 X5.72450 Y-6.72231
G01 X5.56504 Y-6.67395
G01 X5.35361 Y-6.63189
G01 X5.31721 Y-6.62831
G01 X5.21292 Y-6.62330
G01 X4.94711 Y-6.62330
G01 X4.80637 Y-6.63189
G01 X4.59494 Y-6.67395
G01 X4.43547 Y-6.72231
G01 X4.33385 Y-6.75869
G01 X4.23631 Y-6.80481
G01 X4.08935 Y-6.88337
G01 X3.99679 Y-6.93885
G01 X3.91010 Y-7.00314
G01 X3.78130 Y-7.10885
G01 X3.62885 Y-7.26130
G01 X3.52313 Y-7.39010
G01 X3.45884 Y-7.47677
G01 X3.40337 Y-7.56935
G01 X3.32478 Y-7.71629
G01 X3.26685 Y-7.85625
G01 X3.34564 Y-7.97418
G01 X3.26685 Y-7.85625
G01 X2.62372 Y-7.85625
G01 X2.41877 Y-8.06120
G01 X2.62372 Y-7.85625
G01 X2.62372 Y-7.21782
G01 X2.57439 Y-7.19823
G01 X2.62372 Y-7.21782
G01 X2.67439 Y-7.17189
G01 X2.74686 Y-7.09191
G01 X2.77795 Y-7.05404
G01 X2.89773 Y-6.87479
G01 X2.96697 Y-6.73400
G01 X3.01755 Y-6.58546
G01 X3.04378 Y-6.48081
G01 X3.05961 Y-6.37403
G01 X3.06972 Y-6.21749
G01 X3.06972 Y-5.97847
G01 X2.87764 Y-5.79564
G01 X2.68384 Y-5.63598
G01 X2.49065 Y-5.50393
G01 X2.29979 Y-5.40090
G01 X2.26045 Y-5.33136
G01 X2.20596 Y-5.26197
G01 X2.15052 Y-5.20652
G01 X2.11264 Y-5.17543
G01 X2.04744 Y-5.13184
G01 X1.96873 Y-5.09196
G01 X1.88488 Y-5.06451
G01 X1.84681 Y-5.05498
G01 X1.75920 Y-5.04441
G01 X0.81999 Y-5.04248
G01 X0.73200 Y-5.04922
G01 X0.65509 Y-5.06451
G01 X0.57125 Y-5.09196
G01 X0.49253 Y-5.13184
G01 X0.42733 Y-5.17543
G01 X0.38946 Y-5.20652
G01 X0.33401 Y-5.26197
G01 X0.27953 Y-5.33136
G01 X0.24475 Y-5.39234
G01 X-0.49106 Y-5.39234
G01 X-0.51961 Y-5.53593
G01 X-0.52972 Y-5.69250
G01 X-0.52972 Y-6.21749
G01 X-0.52441 Y-6.32529
G01 X-0.51961 Y-6.37403
G01 X-0.47755 Y-6.58546
G01 X-0.46332 Y-6.63240
G01 X-0.42697 Y-6.73400
G01 X-0.35773 Y-6.87479
G01 X-0.23795 Y-7.05404
G01 X-0.13439 Y-7.17189
G01 X-0.08372 Y-7.21782
G01 X-0.03439 Y-7.19823
G01 X-0.08372 Y-7.21782
G01 X-0.08372 Y-8.57303
G01 X-0.07026 Y-8.57570
G01 X-0.08372 Y-8.57303
G01 X-0.15192 Y-8.73768
G01 X-0.20086 Y-8.91741
G01 X-0.21674 Y-9.02416
G01 X-0.22441 Y-9.10219
G01 X-0.22441 Y-9.31779
G01 X-0.20086 Y-9.50257
G01 X-0.15192 Y-9.68230
G01 X-0.06942 Y-9.88146
G01 X0.02301 Y-10.04319
G01 X0.08730 Y-10.12988
G01 X0.20952 Y-10.27044
G01 X0.35011 Y-10.39266
G01 X0.52936 Y-10.51245
G01 X0.59850 Y-10.54941
G01 X0.69606 Y-10.59556
G01 X0.79769 Y-10.63191
G01 X0.87272 Y-10.65466
G01 X1.08415 Y-10.69673
G01 X1.27000 Y-10.70971
G01 X1.45583 Y-10.69673
G01 X1.66726 Y-10.65466
G01 X1.74229 Y-10.63191
G01 X1.90696 Y-10.56371
G01 X1.90485 Y-10.55223
G01 X1.90696 Y-10.56371
G01 X3.26685 Y-10.56371
G01 X3.33512 Y-10.45558
G01 X3.26685 Y-10.56371
G01 X3.32478 Y-10.70366
G01 X3.40337 Y-10.85063
G01 X3.52313 Y-11.02987
G01 X3.62885 Y-11.15868
G01 X3.70134 Y-11.23864
G01 X3.78130 Y-11.31113
G01 X3.88973 Y-11.40013
G01 X6.00011 Y-11.40013
G01 X6.00011 Y-10.70275
G01 X6.00011 Y-12.79723
G01 X6.11932 Y-12.94549
G01 X6.21805 Y-13.12614
G01 X6.24807 Y-13.19860
G01 X6.30596 Y-13.39611
G01 X6.32998 Y-13.63998
G01 X6.32998 Y-14.93998
G01 X6.31172 Y-15.14503
G01 X6.29643 Y-15.22194
G01 X6.23484 Y-15.41833
G01 X6.13951 Y-15.60078
G01 X6.09595 Y-15.66598
G01 X5.96387 Y-15.82387
G01 X5.80598 Y-15.95595
G01 X5.74078 Y-15.99951
G01 X5.59382 Y-16.07805
G01 X5.52138 Y-16.10807
G01 X5.32384 Y-16.16596
G01 X5.08000 Y-16.18999
G01 X4.87495 Y-16.17172
G01 X4.79803 Y-16.15643
G01 X4.60164 Y-16.09484
G01 X4.38551 Y-15.97932
G01 X4.22519 Y-15.85023
G01 X4.16974 Y-15.79479
G01 X4.04066 Y-15.63446
G01 X3.94193 Y-15.45382
G01 X3.91190 Y-15.38138
G01 X3.85402 Y-15.18384
G01 X3.83019 Y-14.94399
G01 X1.92400 Y-14.94399
G01 X1.92400 Y-16.66639
G01 X2.00421 Y-16.69875
G01 X2.08110 Y-16.74203
G01 X2.15052 Y-16.79651
G01 X2.20596 Y-16.85196
G01 X2.23705 Y-16.88983
G01 X2.28062 Y-16.95503
G01 X2.30373 Y-16.99826
G01 X2.32052 Y-17.03375
G01 X2.34795 Y-17.11759
G01 X2.36327 Y-17.19450
G01 X2.37000 Y-17.28249
G01 X2.37000 Y-17.80748
G01 X2.35750 Y-17.93430
G01 X2.32052 Y-18.05623
G01 X2.28062 Y-18.13494
G01 X2.23705 Y-18.20014
G01 X2.20596 Y-18.23801
G01 X2.15052 Y-18.29346
G01 X2.11264 Y-18.32455
G01 X2.08110 Y-18.34794
G01 X2.00421 Y-18.39123
G01 X1.93177 Y-18.42122
G01 X1.84681 Y-18.44500
G01 X1.71999 Y-18.45749
G01 X0.81986 Y-18.45747
G01 X0.69317 Y-18.44500
G01 X0.60820 Y-18.42122
G01 X0.53576 Y-18.39123
G01 X0.49253 Y-18.36811
G01 X0.45888 Y-18.34794
G01 X0.38946 Y-18.29346
G01 X0.33401 Y-18.23801
G01 X0.30292 Y-18.20014
G01 X0.25936 Y-18.13494
G01 X0.21946 Y-18.05623
G01 X0.19202 Y-17.97238
G01 X0.17671 Y-17.89547
G01 X0.17191 Y-17.84670
G01 X0.16998 Y-17.28249
G01 X-0.52972 Y-17.28249
G01 X0.16998 Y-17.28249
G01 X0.17671 Y-17.19450
G01 X0.19202 Y-17.11759
G01 X0.20625 Y-17.07071
G01 X0.23625 Y-16.99826
G01 X0.25936 Y-16.95503
G01 X0.30292 Y-16.88983
G01 X0.33401 Y-16.85196
G01 X0.38946 Y-16.79651
G01 X0.45888 Y-16.74203
G01 X0.53576 Y-16.69875
G01 X0.61598 Y-16.66639
G01 X0.61598 Y-14.74950
G01 X0.58463 Y-14.70078
G01 X0.54767 Y-14.63162
G01 X0.51765 Y-14.55918
G01 X0.48537 Y-14.44607
G01 X0.46998 Y-14.28999
G01 X0.48537 Y-14.13391
G01 X0.51765 Y-14.02080
G01 X0.54767 Y-13.94836
G01 X0.60480 Y-13.84554
G01 X0.67795 Y-13.75339
G01 X0.70429 Y-13.72431
G01 X0.79400 Y-13.64821
G01 X0.85921 Y-13.60462
G01 X0.96383 Y-13.55087
G01 X1.07584 Y-13.51491
G01 X1.15275 Y-13.49959
G01 X1.23078 Y-13.49192
G01 X1.30919 Y-13.49192
G01 X1.38722 Y-13.49959
G01 X1.46413 Y-13.51491
G01 X1.57615 Y-13.55087
G01 X1.68077 Y-13.60462
G01 X1.72768 Y-13.63599
G01 X3.83019 Y-13.63599
G01 X3.85402 Y-13.39611
G01 X3.91190 Y-13.19860
G01 X3.94193 Y-13.12614
G01 X4.04066 Y-12.94549
G01 X4.16974 Y-12.78517
G01 X4.22519 Y-12.72974
G01 X4.35399 Y-12.62403
G01 X4.41919 Y-12.58047
G01 X4.60164 Y-12.48514
G01 X4.79803 Y-12.42355
G01 X4.87495 Y-12.40826
G01 X5.04078 Y-12.39192
G01 X5.11919 Y-12.39192
G01 X5.28503 Y-12.40826
G01 X5.36194 Y-12.42355
G01 X5.55833 Y-12.48514
G01 X5.74078 Y-12.58047
G01 X5.80598 Y-12.62403
G01 X5.93479 Y-12.72974
G01 X6.00011 Y-12.79723
G01 X6.00011 Y-12.09985
G01 X3.88976 Y-12.09985
G01 X3.78130 Y-12.18885
G01 X3.62885 Y-12.34130
G01 X3.52313 Y-12.47010
G01 X3.45884 Y-12.55677
G01 X3.40337 Y-12.64935
G01 X3.32478 Y-12.79629
G01 X3.26685 Y-12.93625
G01 X3.33515 Y-13.04435
G01 X3.26685 Y-12.93625
G01 X1.91120 Y-12.93625
G01 X1.90919 Y-12.94737
G01 X1.91120 Y-12.93625
G01 X1.84391 Y-12.90442
G01 X1.66726 Y-12.84531
G01 X1.45583 Y-12.80325
G01 X1.37777 Y-12.79555
G01 X1.16220 Y-12.79555
G01 X1.08415 Y-12.80325
G01 X0.87272 Y-12.84531
G01 X0.69606 Y-12.90442
G01 X0.52936 Y-12.98753
G01 X0.35011 Y-13.10731
G01 X0.20952 Y-13.22949
G01 X0.08730 Y-13.37010
G01 X0.02301 Y-13.45679
G01 X-0.06942 Y-13.61851
G01 X-0.15192 Y-13.81768
G01 X-0.20086 Y-13.99741
G01 X-0.22441 Y-14.18219
G01 X-0.22441 Y-14.39779
G01 X-0.21674 Y-14.47582
G01 X-0.20086 Y-14.58257
G01 X-0.15192 Y-14.76230
G01 X-0.08372 Y-14.92694
G01 X-0.07026 Y-14.92425
G01 X-0.08372 Y-14.92694
G01 X-0.08372 Y-16.28491
G01 X-0.03330 Y-16.30515
G01 X-0.08372 Y-16.28491
G01 X-0.20686 Y-16.40804
G01 X-0.23795 Y-16.44594
G01 X-0.35773 Y-16.62519
G01 X-0.38082 Y-16.66842
G01 X-0.42697 Y-16.76598
G01 X-0.47755 Y-16.91449
G01 X-0.51961 Y-17.12592
G01 X-0.52972 Y-17.28249
G01 X-0.52972 Y-17.80748
G01 X-0.51961 Y-17.96405
G01 X-0.49106 Y-18.10761
G01 X0.24475 Y-18.10761
G01 X0.30292 Y-18.20014
G01 X0.33401 Y-18.23801
G01 X0.38946 Y-18.29346
G01 X0.45888 Y-18.34794
G01 X0.49253 Y-18.36811
G01 X0.53576 Y-18.39123
G01 X0.60820 Y-18.42122
G01 X0.69317 Y-18.44500
G01 X0.81986 Y-18.45747
G01 X1.71999 Y-18.45749
G01 X1.84681 Y-18.46997
G01 X1.96873 Y-18.50697
G01 X2.04744 Y-18.54685
G01 X2.11264 Y-18.59041
G01 X2.15052 Y-18.62150
G01 X2.17960 Y-18.64787
G01 X2.23782 Y-18.71596
G01 X4.22473 Y-18.71596
G01 X4.24150 Y-18.66737
G01 X4.28079 Y-18.58975
G01 X4.32435 Y-18.52455
G01 X4.38104 Y-18.45854
G01 X4.47858 Y-18.37847
G01 X4.55440 Y-18.33578
G01 X4.62684 Y-18.30575
G01 X4.67256 Y-18.29189
G01 X4.74947 Y-18.27660
G01 X4.83624 Y-18.26999
G01 X5.32374 Y-18.26999
G01 X5.41050 Y-18.27660
G01 X5.48742 Y-18.29189
G01 X5.57009 Y-18.31899
G01 X5.64772 Y-18.35831
G01 X5.71292 Y-18.40187
G01 X5.77893 Y-18.45854
G01 X5.83562 Y-18.52455
G01 X5.87919 Y-18.58975
G01 X5.91848 Y-18.66737
G01 X5.94558 Y-18.75008
G01 X5.96087 Y-18.82699
G01 X5.96748 Y-18.91373
G01 X5.96748 Y-19.82625
G01 X5.96087 Y-19.91299
G01 X5.95511 Y-19.95183
G01 X5.93171 Y-20.03562
G01 X5.90169 Y-20.10806
G01 X5.87919 Y-20.15023
G01 X5.83562 Y-20.21540
G01 X5.77893 Y-20.28144
G01 X5.68140 Y-20.36150
G01 X5.57009 Y-20.42099
G01 X5.48742 Y-20.44809
G01 X5.41050 Y-20.46338
G01 X5.36296 Y-20.46806
G01 X4.79702 Y-20.46806
G01 X4.74947 Y-20.46338
G01 X4.67256 Y-20.44809
G01 X4.58988 Y-20.42099
G01 X4.47858 Y-20.36150
G01 X4.38104 Y-20.28144
G01 X4.32435 Y-20.21540
G01 X4.28079 Y-20.15023
G01 X4.24150 Y-20.07258
G01 X4.22473 Y-20.02399
G01 X2.23784 Y-20.02399
G01 X2.17960 Y-20.09211
G01 X2.15052 Y-20.11848
G01 X2.11264 Y-20.14957
G01 X2.04744 Y-20.19313
G01 X1.96873 Y-20.23300
G01 X1.84681 Y-20.26999
G01 X1.71999 Y-20.28248
G01 X0.81999 Y-20.28248
G01 X0.73200 Y-20.27575
G01 X0.65509 Y-20.26046
G01 X0.57125 Y-20.23300
G01 X0.49253 Y-20.19313
G01 X0.42733 Y-20.14957
G01 X0.38946 Y-20.11848
G01 X0.36038 Y-20.09211
G01 X0.30292 Y-20.02513
G01 X0.25936 Y-19.95993
G01 X0.21946 Y-19.88124
G01 X0.19202 Y-19.79737
G01 X0.17671 Y-19.72046
G01 X0.17191 Y-19.67169
G01 X0.17191 Y-19.06829
G01 X0.17671 Y-19.01952
G01 X0.19202 Y-18.94261
G01 X0.21946 Y-18.85874
G01 X0.25936 Y-18.78002
G01 X0.30292 Y-18.71485
G01 X0.36038 Y-18.64787
G01 X0.42733 Y-18.59041
G01 X0.49253 Y-18.54685
G01 X0.57125 Y-18.50697
G01 X0.69317 Y-18.46997
G01 X0.81986 Y-18.45747
G01 X0.73200 Y-18.46423
G01 X0.65509 Y-18.47952
G01 X0.57125 Y-18.50697
G01 X0.49253 Y-18.54685
G01 X0.42733 Y-18.59041
G01 X0.36038 Y-18.64787
G01 X0.30292 Y-18.71485
G01 X0.24475 Y-18.80733
G01 X-0.49106 Y-18.80733
G01 X-0.51961 Y-18.95091
G01 X-0.52972 Y-19.10748
G01 X-0.52972 Y-19.63250
G01 X-0.51961 Y-19.78906
G01 X-0.47755 Y-20.00049
G01 X-0.42697 Y-20.14901
G01 X-0.35773 Y-20.28977
G01 X-0.23795 Y-20.46905
G01 X-0.13439 Y-20.58688
G01 X-0.01654 Y-20.69046
G01 X0.16269 Y-20.81022
G01 X0.30348 Y-20.87946
G01 X0.40508 Y-20.91583
G01 X0.55667 Y-20.95627
G01 X0.66342 Y-20.97212
G01 X0.81999 Y-20.98220
G01 X1.71999 Y-20.98220
G01 X1.82778 Y-20.97692
G01 X1.98331 Y-20.95627
G01 X2.13490 Y-20.91583
G01 X2.23650 Y-20.87946
G01 X2.37729 Y-20.81022
G01 X2.50678 Y-20.72371
G01 X2.49870 Y-20.69589
G01 X2.50678 Y-20.72371
G01 X3.83865 Y-20.72371
G01 X3.85544 Y-20.67903
G01 X3.83865 Y-20.72371
G01 X3.88625 Y-20.77621
G01 X3.96624 Y-20.84870
G01 X4.08986 Y-20.94329
G01 X4.22455 Y-21.02129
G01 X4.32211 Y-21.06745
G01 X4.46946 Y-21.11766
G01 X4.68089 Y-21.15972
G01 X4.83624 Y-21.16971
G01 X5.32374 Y-21.16971
G01 X5.43154 Y-21.16442
G01 X5.47908 Y-21.15972
G01 X5.66760 Y-21.12223
G01 X5.66760 Y-20.36976
G01 X5.71292 Y-20.33811
G01 X5.77893 Y-20.28144
G01 X5.83562 Y-20.21540
G01 X5.87919 Y-20.15023
G01 X5.91848 Y-20.07258
G01 X5.94558 Y-19.98990
G01 X5.96087 Y-19.91299
G01 X5.96748 Y-19.82625
G01 X5.96748 Y-18.91373
G01 X5.96087 Y-18.82699
G01 X5.95511 Y-18.78815
G01 X5.93171 Y-18.70436
G01 X5.91848 Y-18.66737
G01 X5.87919 Y-18.58975
G01 X5.83562 Y-18.52455
G01 X5.77893 Y-18.45854
G01 X5.71292 Y-18.40187
G01 X5.66760 Y-18.37019
G01 X5.66760 Y-17.61774
G01 X5.47908 Y-17.58025
G01 X5.43154 Y-17.57556
G01 X5.33905 Y-17.57101
G01 X5.22148 Y-17.57637
G01 X4.93852 Y-17.57637
G01 X4.82087 Y-17.57103
G01 X4.68089 Y-17.58025
G01 X4.46946 Y-17.62232
G01 X4.32211 Y-17.67253
G01 X4.18241 Y-17.74119
G01 X4.08986 Y-17.79669
G01 X3.96624 Y-17.89128
G01 X3.88625 Y-17.96377
G01 X3.83868 Y-18.01625
G01 X3.85544 Y-18.06092
G01 X3.83868 Y-18.01625
G01 X3.56446 Y-18.01625
G01 X3.34157 Y-18.22879
G01 X3.10843 Y-18.42110
G01 X2.85826 Y-18.59244
G01 X2.63190 Y-18.71596
G01 X2.23782 Y-18.71596
G01 X2.17960 Y-18.64787
G01 X2.15052 Y-18.62150
G01 X2.11264 Y-18.59041
G01 X2.04744 Y-18.54685
G01 X2.00421 Y-18.52374
G01 X1.93177 Y-18.49374
G01 X1.84681 Y-18.46997
G01 X1.71999 Y-18.45749
G01 X1.80797 Y-18.45076
G01 X1.88488 Y-18.43547
G01 X1.93177 Y-18.42122
G01 X2.00421 Y-18.39123
G01 X2.08110 Y-18.34794
G01 X2.15052 Y-18.29346
G01 X2.20596 Y-18.23801
G01 X2.23705 Y-18.20014
G01 X2.28062 Y-18.13494
G01 X2.29982 Y-18.09905
G01 X2.49044 Y-17.99615
G01 X2.68399 Y-17.86385
G01 X2.87757 Y-17.70438
G01 X3.06972 Y-17.52145
G01 X3.06972 Y-17.28249
G01 X3.05961 Y-17.12592
G01 X3.01755 Y-16.91449
G01 X2.96697 Y-16.76598
G01 X2.89773 Y-16.62519
G01 X2.77795 Y-16.44594
G01 X2.74686 Y-16.40804
G01 X2.62372 Y-16.28491
G01 X2.57330 Y-16.30515
G01 X2.62372 Y-16.28491
G01 X2.62372 Y-15.64371
G01 X2.41877 Y-15.43875
G01 X2.62372 Y-15.64371
G01 X3.26685 Y-15.64371
G01 X3.34564 Y-15.52578
G01 X3.26685 Y-15.64371
G01 X3.32478 Y-15.78366
G01 X3.40337 Y-15.93063
G01 X3.45884 Y-16.02318
G01 X3.52313 Y-16.10987
G01 X3.62885 Y-16.23868
G01 X3.78130 Y-16.39113
G01 X3.91010 Y-16.49684
G01 X3.99679 Y-16.56113
G01 X4.08935 Y-16.61660
G01 X4.23631 Y-16.69514
G01 X4.33385 Y-16.74129
G01 X4.43547 Y-16.77764
G01 X4.59494 Y-16.82603
G01 X4.80637 Y-16.86809
G01 X4.94708 Y-16.87665
G01 X5.21287 Y-16.87665
G01 X5.35361 Y-16.86809
G01 X5.46036 Y-16.85224
G01 X5.56504 Y-16.82603
G01 X5.72450 Y-16.77764
G01 X5.92366 Y-16.69514
G01 X6.00011 Y-16.65430
G01 X6.00011 Y-15.78275
G01 X6.69983 Y-15.78272
G01 X6.76519 Y-15.85023
G01 X6.89399 Y-15.95595
G01 X6.95919 Y-15.99951
G01 X7.14164 Y-16.09484
G01 X7.33803 Y-16.15643
G01 X7.41495 Y-16.17172
G01 X7.62000 Y-16.18999
G01 X7.82503 Y-16.17172
G01 X7.90194 Y-16.15643
G01 X8.06138 Y-16.10807
G01 X8.13382 Y-16.07805
G01 X8.28078 Y-15.99951
G01 X8.34598 Y-15.95595
G01 X8.50387 Y-15.82387
G01 X8.63595 Y-15.66598
G01 X8.67951 Y-15.60078
G01 X8.77484 Y-15.41833
G01 X8.83643 Y-15.22194
G01 X8.84738 Y-15.17437
G01 X8.77600 Y-14.97010
G01 X8.61078 Y-14.56916
G01 X8.58093 Y-14.48336
G01 X8.56468 Y-14.41465
G01 X8.55317 Y-14.29817
G01 X8.55731 Y-14.21508
G01 X8.56846 Y-14.14635
G01 X8.58771 Y-14.07419
G01 X8.60552 Y-14.02441
G01 X8.65952 Y-13.91161
G01 X8.68937 Y-13.86180
G01 X8.75711 Y-13.76609
G01 X8.86983 Y-13.63662
G01 X8.85172 Y-13.43495
G01 X8.83643 Y-13.35804
G01 X8.79396 Y-13.21803
G01 X9.09577 Y-12.94539
G01 X9.34179 Y-12.73391
G01 X9.24113 Y-12.55677
G01 X9.17684 Y-12.47010
G01 X9.07113 Y-12.34130
G01 X8.91868 Y-12.18885
G01 X8.81022 Y-12.09982
G01 X6.69983 Y-12.09982
G01 X6.69983 Y-12.79726
G01 X6.76519 Y-12.72974
G01 X6.89399 Y-12.62403
G01 X6.95919 Y-12.58047
G01 X7.10616 Y-12.50193
G01 X7.17860 Y-12.47191
G01 X7.33803 Y-12.42355
G01 X7.41495 Y-12.40826
G01 X7.58078 Y-12.39192
G01 X7.65919 Y-12.39192
G01 X7.82503 Y-12.40826
G01 X7.90194 Y-12.42355
G01 X8.09833 Y-12.48514
G01 X8.28078 Y-12.58047
G01 X8.34598 Y-12.62403
G01 X8.47479 Y-12.72974
G01 X8.53023 Y-12.78517
G01 X8.65932 Y-12.94549
G01 X8.75805 Y-13.12614
G01 X8.79396 Y-13.21803
G01 X8.75805 Y-13.12614
G01 X8.65932 Y-12.94549
G01 X8.53023 Y-12.78517
G01 X8.47479 Y-12.72974
G01 X8.34598 Y-12.62403
G01 X8.28078 Y-12.58047
G01 X8.13382 Y-12.50193
G01 X8.06138 Y-12.47191
G01 X7.90194 Y-12.42355
G01 X7.82503 Y-12.40826
G01 X7.65919 Y-12.39192
G01 X7.58078 Y-12.39192
G01 X7.41495 Y-12.40826
G01 X7.33803 Y-12.42355
G01 X7.14164 Y-12.48514
G01 X6.95919 Y-12.58047
G01 X6.89399 Y-12.62403
G01 X6.76519 Y-12.72974
G01 X6.70974 Y-12.78517
G01 X6.58066 Y-12.94549
G01 X6.48190 Y-13.12614
G01 X6.45190 Y-13.19860
G01 X6.40354 Y-13.35804
G01 X6.38825 Y-13.43495
G01 X6.36996 Y-13.63998
G01 X6.36996 Y-14.93998
G01 X6.38825 Y-15.14503
G01 X6.40354 Y-15.22194
G01 X6.45190 Y-15.38138
G01 X6.48190 Y-15.45382
G01 X6.56046 Y-15.60078
G01 X6.60400 Y-15.66598
G01 X6.69983 Y-15.78272
G01 X6.69983 Y-16.65427
G01 X6.87385 Y-16.74129
G01 X6.97547 Y-16.77764
G01 X7.13494 Y-16.82603
G01 X7.34637 Y-16.86809
G01 X7.51220 Y-16.88442
G01 X7.62000 Y-16.88970
G01 X7.72777 Y-16.88442
G01 X7.89361 Y-16.86809
G01 X8.10892 Y-16.82483
G01 X8.29793 Y-16.52115
G01 X8.51979 Y-16.18666
G01 X8.61771 Y-16.04833
G01 X8.63851 Y-15.99171
G01 X8.62035 Y-15.79743
G01 X8.60623 Y-15.70218
G01 X8.63595 Y-15.66598
G01 X8.67951 Y-15.60078
G01 X8.77484 Y-15.41833
G01 X8.83643 Y-15.22194
G01 X8.84646 Y-15.17134
G01 X9.50598 Y-15.83088
G01 X9.50598 Y-16.37228
G01 X9.47463 Y-16.41919
G01 X9.43767 Y-16.48836
G01 X9.40765 Y-16.56080
G01 X9.38489 Y-16.63583
G01 X9.36960 Y-16.71274
G01 X9.35998 Y-16.82999
G01 X9.36960 Y-16.94724
G01 X9.38489 Y-17.02415
G01 X9.40765 Y-17.09918
G01 X9.43767 Y-17.17162
G01 X9.47463 Y-17.24078
G01 X9.50598 Y-17.28950
G01 X9.50598 Y-17.82907
G01 X8.61908 Y-18.71596
G01 X7.81025 Y-18.71596
G01 X7.79348 Y-18.66737
G01 X7.75419 Y-18.58975
G01 X7.71060 Y-18.52455
G01 X7.68030 Y-18.48762
G01 X7.62485 Y-18.43217
G01 X7.55637 Y-18.37847
G01 X7.48058 Y-18.33578
G01 X7.40814 Y-18.30575
G01 X7.32432 Y-18.28236
G01 X7.19874 Y-18.26999
G01 X6.67202 Y-18.27192
G01 X6.58561 Y-18.28236
G01 X6.50182 Y-18.30575
G01 X6.46488 Y-18.31899
G01 X6.38726 Y-18.35831
G01 X6.32206 Y-18.40187
G01 X6.28513 Y-18.43217
G01 X6.25605 Y-18.45854
G01 X6.19935 Y-18.52455
G01 X6.15579 Y-18.58975
G01 X6.13326 Y-18.63189
G01 X6.11650 Y-18.66737
G01 X6.08940 Y-18.75008
G01 X6.07411 Y-18.82699
G01 X6.06748 Y-18.91373
G01 X6.06941 Y-19.86544
G01 X6.07411 Y-19.91299
G01 X6.08940 Y-19.98990
G01 X6.11650 Y-20.07258
G01 X6.15579 Y-20.15023
G01 X6.19935 Y-20.21540
G01 X6.25605 Y-20.28144
G01 X6.32206 Y-20.33811
G01 X6.36732 Y-20.36836
G01 X6.46488 Y-20.42099
G01 X6.54756 Y-20.44809
G01 X6.62445 Y-20.46338
G01 X6.71124 Y-20.46999
G01 X7.23793 Y-20.46806
G01 X7.32432 Y-20.45762
G01 X7.44510 Y-20.42099
G01 X7.52272 Y-20.38167
G01 X7.58792 Y-20.33811
G01 X7.65393 Y-20.28144
G01 X7.71060 Y-20.21540
G01 X7.75419 Y-20.15023
G01 X7.79348 Y-20.07258
G01 X7.81025 Y-20.02399
G01 X8.89000 Y-20.02399
G01 X8.97875 Y-20.01718
G01 X9.05566 Y-20.00186
G01 X9.10331 Y-19.98741
G01 X9.17575 Y-19.95741
G01 X9.25332 Y-19.91375
G01 X9.35243 Y-19.83242
G01 X10.62243 Y-18.56242
G01 X10.66965 Y-18.50906
G01 X10.72736 Y-18.42430
G01 X10.75586 Y-18.36837
G01 X10.79050 Y-18.27185
G01 X10.80963 Y-18.17108
G01 X10.81275 Y-18.13136
G01 X10.81400 Y-17.28770
G01 X10.84534 Y-17.24078
G01 X10.88230 Y-17.17162
G01 X10.91232 Y-17.09918
G01 X10.93508 Y-17.02415
G01 X10.95037 Y-16.94724
G01 X10.96000 Y-16.82999
G01 X10.95037 Y-16.71274
G01 X10.93508 Y-16.63583
G01 X10.91232 Y-16.56080
G01 X10.88230 Y-16.48836
G01 X10.84534 Y-16.41919
G01 X10.81400 Y-16.37228
G01 X10.81275 Y-15.52859
G01 X10.79980 Y-15.42687
G01 X10.77110 Y-15.32842
G01 X10.75586 Y-15.29159
G01 X10.70653 Y-15.20167
G01 X10.66965 Y-15.15090
G01 X10.62243 Y-15.09753
G01 X9.32335 Y-13.80117
G01 X9.25332 Y-13.74620
G01 X9.21967 Y-13.72601
G01 X9.17575 Y-13.70254
G01 X9.10331 Y-13.67254
G01 X9.05566 Y-13.65809
G01 X8.97875 Y-13.64277
G01 X8.86948 Y-13.63696
G01 X8.97875 Y-13.64277
G01 X9.05566 Y-13.65809
G01 X9.10331 Y-13.67254
G01 X9.17575 Y-13.70254
G01 X9.25332 Y-13.74620
G01 X9.55751 Y-13.47117
G01 X9.78441 Y-13.27584
G01 X9.84722 Y-13.33274
G01 X11.11722 Y-14.60274
G01 X11.20170 Y-14.69647
G01 X11.32398 Y-14.87005
G01 X11.40231 Y-15.02382
G01 X11.41755 Y-15.06065
G01 X11.47089 Y-15.22476
G01 X11.48019 Y-15.26352
G01 X11.50719 Y-15.43395
G01 X11.51372 Y-15.55999
G01 X11.51372 Y-16.19303
G01 X11.50059 Y-16.19567
G01 X11.51372 Y-16.19303
G01 X11.58192 Y-16.35768
G01 X11.60468 Y-16.43271
G01 X11.63089 Y-16.53741
G01 X11.64674 Y-16.64416
G01 X11.65972 Y-16.82999
G01 X11.64674 Y-17.01582
G01 X11.60468 Y-17.22725
G01 X11.54554 Y-17.40390
G01 X11.51372 Y-17.47124
G01 X11.50315 Y-17.46928
G01 X11.51372 Y-17.47124
G01 X11.51372 Y-18.09996
G01 X11.50719 Y-18.22600
G01 X11.48019 Y-18.39643
G01 X11.47089 Y-18.43519
G01 X11.41755 Y-18.59930
G01 X11.40231 Y-18.63613
G01 X11.32398 Y-18.78990
G01 X11.20170 Y-18.96349
G01 X11.11722 Y-19.05721
G01 X9.84722 Y-20.32721
G01 X9.72876 Y-20.43128
G01 X9.64207 Y-20.49556
G01 X9.50559 Y-20.57451
G01 X9.30643 Y-20.65701
G01 X9.25878 Y-20.67146
G01 X9.04733 Y-20.71352
G01 X8.99777 Y-20.71840
G01 X8.89000 Y-20.72371
G01 X8.19633 Y-20.72371
G01 X8.17702 Y-20.67598
G01 X8.19633 Y-20.72371
G01 X8.14873 Y-20.77621
G01 X8.03181 Y-20.87900
G01 X7.85256 Y-20.99876
G01 X7.71286 Y-21.06745
G01 X7.61124 Y-21.10379
G01 X7.46084 Y-21.14390
G01 X7.30654 Y-21.16442
G01 X7.19874 Y-21.16971
G01 X6.71124 Y-21.16971
G01 X6.55589 Y-21.15972
G01 X6.36732 Y-21.12221
G01 X6.36732 Y-20.36836
G01 X6.32206 Y-20.33811
G01 X6.25605 Y-20.28144
G01 X6.19935 Y-20.21540
G01 X6.15579 Y-20.15023
G01 X6.11650 Y-20.07258
G01 X6.08940 Y-19.98990
G01 X6.07411 Y-19.91299
G01 X6.06748 Y-19.82625
G01 X6.06748 Y-18.91373
G01 X6.07411 Y-18.82699
G01 X6.08940 Y-18.75008
G01 X6.10326 Y-18.70436
G01 X6.11650 Y-18.66737
G01 X6.15579 Y-18.58975
G01 X6.19935 Y-18.52455
G01 X6.25605 Y-18.45854
G01 X6.32206 Y-18.40187
G01 X6.36732 Y-18.37162
G01 X6.36732 Y-17.61658
G01 X6.44914 Y-17.59608
G01 X6.55589 Y-17.58025
G01 X6.71124 Y-17.57027
G01 X7.19874 Y-17.57027
G01 X7.30654 Y-17.57556
G01 X7.46084 Y-17.59608
G01 X7.61124 Y-17.63619
G01 X7.71286 Y-17.67253
G01 X7.85256 Y-17.74119
G01 X7.94512 Y-17.79669
G01 X8.06874 Y-17.89128
G01 X8.14873 Y-17.96377
G01 X8.19630 Y-18.01625
G01 X8.17662 Y-18.06572
G01 X8.19630 Y-18.01625
G01 X8.32927 Y-18.01625
G01 X8.35132 Y-18.06951
G01 X8.32927 Y-18.01625
G01 X8.80626 Y-17.53926
G01 X8.85952 Y-17.56131
G01 X8.80626 Y-17.53926
G01 X8.80626 Y-17.46694
G01 X8.81680 Y-17.46509
G01 X8.80626 Y-17.46694
G01 X8.73806 Y-17.30230
G01 X8.70595 Y-17.18988
G01 X8.88279 Y-16.90527
G01 X9.10074 Y-16.57667
G01 X9.23633 Y-16.38183
G01 X9.24093 Y-16.38412
G01 X9.23633 Y-16.38183
G01 X9.25551 Y-16.33985
G01 X9.32078 Y-16.16189
G01 X9.33745 Y-16.09534
G01 X9.34789 Y-16.09712
G01 X9.33745 Y-16.09534
G01 X9.34080 Y-16.02687
G01 X9.33729 Y-15.93670
G01 X9.31598 Y-15.72133
G01 X9.30250 Y-15.62740

G04 P0 ( dwell for no time -- G64 should not smooth over this point )
G00 Z17.835000 ( retract )

M5 ( Spindle off. )
G04 P1.000000
M9 ( Coolant off. )
M2 ( Program end. )

