( pcb2gcode 2.5.0 )
( Software-independent Gcode )

G0 F200

G94 ( Millimeters per minute feed rate. )
G21 ( Units == Millimeters. )

G90 ( Absolute coordinates. )
G00 S10000 ( RPM spindle speed. )
G64 P0.01016 ( set maximum deviation from commanded toolpath )
G01 F200.00000 ( Feedrate. )


G00 Z7.62000 (Retract to tool change height)
T1
M5      (Spindle stop.)
G04 P1.00000 (Wait for spindle to stop)
(MSG, Change tool bit to mill diameter 0.15000mm)
M6      (Tool change.)
M0      (Temporary machine stop.)
M3 ( Spindle on clockwise. )
G04 P1.00000 (Wait for spindle to get up to speed)
G04 P0 ( dwell for no time -- G64 should not smooth over this point )
G00 Z1.27000 ( retract )

G00 X6.07022 Y-3.62948 ( rapid move to begin. )
G01 F30.00000
( Mill infeed pass 1/1 )
G01 Z-0.14000
G04 P0 ( dwell for no time -- G64 should not smooth over this point )
G01 F200.00000
G01 X6.07022 Y-3.62948
G01 X6.07022 Y-4.95577
G01 X6.12442 Y-5.03692
G01 X6.18747 Y-5.11000
G01 X6.26054 Y-5.17307
G01 X6.34154 Y-5.22719
G01 X6.42777 Y-5.27055
G01 X6.51942 Y-5.30085
G01 X6.61497 Y-5.31988
G01 X6.66252 Y-5.32455
G01 X7.19874 Y-5.32694
G01 X7.29501 Y-5.31988
G01 X7.39056 Y-5.30085
G01 X7.48220 Y-5.27055
G01 X7.56841 Y-5.22719
G01 X7.64941 Y-5.17307
G01 X7.72249 Y-5.11000
G01 X7.78556 Y-5.03692
G01 X7.83968 Y-4.95592
G01 X7.86221 Y-4.91378
G01 X7.87773 Y-4.88094
G01 X7.86983 Y-4.86707
G01 X7.87773 Y-4.88094
G01 X8.57893 Y-4.88094
G01 X8.58225 Y-4.87291
G01 X8.57893 Y-4.88094
G01 X9.40902 Y-5.71104
G01 X9.41705 Y-5.70771
G01 X9.40902 Y-5.71104
G01 X9.40902 Y-6.18371
G01 X9.41227 Y-6.18452
G01 X9.40902 Y-6.18371
G01 X9.38911 Y-6.21350
G01 X9.35215 Y-6.28264
G01 X9.31487 Y-6.37266
G01 X9.29211 Y-6.44769
G01 X9.27311 Y-6.54324
G01 X9.26302 Y-6.66999
G01 X9.27311 Y-6.79674
G01 X9.29211 Y-6.89229
G01 X9.31487 Y-6.96732
G01 X9.35215 Y-7.05731
G01 X9.38911 Y-7.12648
G01 X9.40902 Y-7.15970
G01 X9.41240 Y-7.15881
G01 X9.40902 Y-7.15970
G01 X9.40902 Y-7.62892
G01 X9.41705 Y-7.63224
G01 X9.40902 Y-7.62892
G01 X8.96732 Y-8.07065
G01 X8.91543 Y-8.28243
G01 X8.88776 Y-8.37405
G01 X8.81360 Y-8.57893
G01 X8.64428 Y-8.99269
G01 X8.74789 Y-8.73757
G01 X9.72551 Y-7.76000
G01 X9.73353 Y-7.76333
G01 X9.72551 Y-7.76000
G01 X9.72551 Y-7.05256
G01 X9.72942 Y-7.05145
G01 X9.72551 Y-7.05256
G01 X9.67732 Y-6.99249
G01 X9.63125 Y-6.90814
G01 X9.61771 Y-6.87545
G01 X9.59066 Y-6.78325
G01 X9.57951 Y-6.66999
G01 X9.59066 Y-6.55673
G01 X9.61771 Y-6.46450
G01 X9.66823 Y-6.36267
G01 X9.72551 Y-6.28741
G01 X9.72942 Y-6.28851
G01 X9.72551 Y-6.28741
G01 X9.72551 Y-5.57995
G01 X9.73353 Y-5.57662
G01 X9.72551 Y-5.57995
G01 X8.71002 Y-4.56446
G01 X8.71334 Y-4.55643
G01 X8.71002 Y-4.56446
G01 X7.62297 Y-4.56446
G01 X7.59844 Y-4.53728
G01 X7.62297 Y-4.56446
G01 X7.61743 Y-4.65148
G01 X7.61053 Y-4.68617
G01 X7.59069 Y-4.74858
G01 X7.56059 Y-4.80675
G01 X7.54093 Y-4.83616
G01 X7.48558 Y-4.89811
G01 X7.41924 Y-4.94810
G01 X7.36110 Y-4.97817
G01 X7.29869 Y-4.99801
G01 X7.21642 Y-5.00962
G01 X6.71124 Y-5.01048
G01 X6.64599 Y-5.00492
G01 X6.61129 Y-4.99801
G01 X6.54888 Y-4.97817
G01 X6.49074 Y-4.94810
G01 X6.46133 Y-4.92844
G01 X6.41126 Y-4.88622
G01 X6.36902 Y-4.83616
G01 X6.34939 Y-4.80675
G01 X6.31929 Y-4.74858
G01 X6.29945 Y-4.68617
G01 X6.29255 Y-4.65148
G01 X6.28701 Y-4.58625
G01 X6.28701 Y-3.67373
G01 X6.29255 Y-3.60850
G01 X6.29945 Y-3.57378
G01 X6.32686 Y-3.49537
G01 X6.36902 Y-3.42382
G01 X6.42437 Y-3.36187
G01 X6.49074 Y-3.31188
G01 X6.54888 Y-3.28178
G01 X6.61129 Y-3.26194
G01 X6.64599 Y-3.25501
G01 X6.71124 Y-3.24945
G01 X7.21642 Y-3.25036
G01 X7.29869 Y-3.26194
G01 X7.34441 Y-3.27581
G01 X7.41924 Y-3.31188
G01 X7.44865 Y-3.33154
G01 X7.49871 Y-3.37375
G01 X7.54093 Y-3.42382
G01 X7.56059 Y-3.45323
G01 X7.59069 Y-3.51140
G01 X7.61053 Y-3.57378
G01 X7.61743 Y-3.60850
G01 X7.62297 Y-3.69550
G01 X7.59844 Y-3.72267
G01 X7.62297 Y-3.69550
G01 X8.89000 Y-3.69550
G01 X8.97476 Y-3.70383
G01 X9.03958 Y-3.72260
G01 X9.07227 Y-3.73614
G01 X9.13138 Y-3.76870
G01 X9.19721 Y-3.82275
G01 X10.46721 Y-5.09275
G01 X10.51936 Y-5.15638
G01 X10.55306 Y-5.21559
G01 X10.57707 Y-5.27934
G01 X10.58636 Y-5.31810
G01 X10.59447 Y-5.39996
G01 X10.59447 Y-6.28741
G01 X10.59056 Y-6.28851
G01 X10.59447 Y-6.28741
G01 X10.65174 Y-6.36267
G01 X10.70226 Y-6.46450
G01 X10.72932 Y-6.55673
G01 X10.74047 Y-6.66999
G01 X10.72932 Y-6.78325
G01 X10.70226 Y-6.87545
G01 X10.65174 Y-6.97730
G01 X10.59447 Y-7.05256
G01 X10.59058 Y-7.05145
G01 X10.59447 Y-7.05256
G01 X10.59447 Y-7.93999
G01 X10.59078 Y-7.99386
G01 X10.57707 Y-8.06061
G01 X10.54019 Y-8.14959
G01 X10.50272 Y-8.20649
G01 X10.46721 Y-8.24720
G01 X9.19721 Y-9.51720
G01 X9.13138 Y-9.57125
G01 X9.07227 Y-9.60382
G01 X9.03958 Y-9.61735
G01 X8.95723 Y-9.63872
G01 X8.89000 Y-9.64446
G01 X8.82274 Y-9.63872
G01 X8.78804 Y-9.63181
G01 X8.73849 Y-9.61669
G01 X8.68774 Y-9.52937
G01 X8.64428 Y-9.42726
G01 X8.68774 Y-9.52937
G01 X8.76328 Y-9.65363
G01 X8.84715 Y-9.76020
G01 X9.02444 Y-9.94646
G01 X9.08380 Y-9.93465
G01 X9.13145 Y-9.92020
G01 X9.22144 Y-9.88291
G01 X9.26536 Y-9.85944
G01 X9.34636 Y-9.80531
G01 X9.42099 Y-9.74098
G01 X10.69099 Y-8.47098
G01 X10.74336 Y-8.41202
G01 X10.81004 Y-8.31494
G01 X10.84544 Y-8.24547
G01 X10.88479 Y-8.13448
G01 X10.90628 Y-8.01870
G01 X10.91095 Y-7.93999
G01 X10.91095 Y-7.15627
G01 X10.90773 Y-7.15546
G01 X10.91095 Y-7.15627
G01 X10.93086 Y-7.12648
G01 X10.96782 Y-7.05731
G01 X11.00511 Y-6.96732
G01 X11.02787 Y-6.89229
G01 X11.04687 Y-6.79674
G01 X11.05695 Y-6.66999
G01 X11.04687 Y-6.54324
G01 X11.02787 Y-6.44769
G01 X11.00511 Y-6.37266
G01 X10.96782 Y-6.28264
G01 X10.93086 Y-6.21350
G01 X10.91095 Y-6.18371
G01 X10.90773 Y-6.18452
G01 X10.91095 Y-6.18371
G01 X10.91095 Y-5.39996
G01 X10.90628 Y-5.32125
G01 X10.88479 Y-5.20548
G01 X10.84544 Y-5.09448
G01 X10.81004 Y-5.02501
G01 X10.74336 Y-4.92793
G01 X10.69099 Y-4.86898
G01 X9.42099 Y-3.59898
G01 X9.34636 Y-3.53464
G01 X9.26536 Y-3.48051
G01 X9.22144 Y-3.45704
G01 X9.13145 Y-3.41975
G01 X9.03648 Y-3.39344
G01 X8.93869 Y-3.38140
G01 X7.87773 Y-3.37901
G01 X7.87057 Y-3.39207
G01 X7.87773 Y-3.37901
G01 X7.86221 Y-3.34620
G01 X7.83968 Y-3.30406
G01 X7.78556 Y-3.22306
G01 X7.72249 Y-3.14998
G01 X7.61025 Y-3.05786
G01 X7.52627 Y-3.01026
G01 X7.43628 Y-2.97299
G01 X7.39056 Y-2.95910
G01 X7.29501 Y-2.94010
G01 X7.24746 Y-2.93543
G01 X6.71124 Y-2.93304
G01 X6.61497 Y-2.94010
G01 X6.51942 Y-2.95910
G01 X6.47370 Y-2.97299
G01 X6.42777 Y-2.98940
G01 X6.34154 Y-3.03279
G01 X6.26054 Y-3.08691
G01 X6.22361 Y-3.11721
G01 X6.18747 Y-3.14998
G01 X6.12442 Y-3.22306
G01 X6.07022 Y-3.30421
G01 X6.07022 Y-3.62948
G01 X6.07601 Y-3.67373
G01 X6.39247 Y-3.67373
G01 X6.39247 Y-4.58625
G01 X6.39752 Y-4.64114
G01 X6.41424 Y-4.70129
G01 X6.45058 Y-4.76923
G01 X6.48584 Y-4.81162
G01 X6.54045 Y-4.85506
G01 X6.58924 Y-4.88071
G01 X6.64190 Y-4.89707
G01 X6.71124 Y-4.90499
G01 X7.19874 Y-4.90499
G01 X7.26806 Y-4.89707
G01 X7.32071 Y-4.88071
G01 X7.38175 Y-4.84688
G01 X7.42412 Y-4.81162
G01 X7.45940 Y-4.76923
G01 X7.49323 Y-4.70822
G01 X7.50959 Y-4.65557
G01 X7.51713 Y-4.59359
G01 X7.51749 Y-4.45897
G01 X8.75370 Y-4.45897
G01 X9.83099 Y-5.53626
G01 X9.83099 Y-6.32800
G01 X9.76942 Y-6.40016
G01 X9.72114 Y-6.48818
G01 X9.69589 Y-6.57017
G01 X9.68499 Y-6.66999
G01 X9.69589 Y-6.76979
G01 X9.72429 Y-6.85841
G01 X9.76503 Y-6.93390
G01 X9.83099 Y-7.01197
G01 X9.83099 Y-7.80369
G01 X8.65736 Y-8.97735
G01 X8.61266 Y-9.03351
G01 X8.58604 Y-9.08408
G01 X8.56623 Y-9.15307
G01 X8.56099 Y-9.20996
G01 X8.56623 Y-9.26689
G01 X8.58355 Y-9.32894
G01 X8.61266 Y-9.38644
G01 X8.65736 Y-9.44260
G01 X8.70130 Y-9.47915
G01 X8.76409 Y-9.51393
G01 X8.83308 Y-9.53374
G01 X8.89000 Y-9.53897
G01 X8.94690 Y-9.53374
G01 X9.02254 Y-9.51078
G01 X9.07278 Y-9.48352
G01 X9.11718 Y-9.44756
G01 X10.39261 Y-8.17260
G01 X10.42942 Y-8.12846
G01 X10.45561 Y-8.08398
G01 X10.47085 Y-8.04718
G01 X10.48380 Y-7.99722
G01 X10.48898 Y-7.93999
G01 X10.48898 Y-7.01197
G01 X10.55055 Y-6.93979
G01 X10.59884 Y-6.85175
G01 X10.62408 Y-6.76979
G01 X10.63498 Y-6.66999
G01 X10.62408 Y-6.57017
G01 X10.59884 Y-6.48818
G01 X10.55055 Y-6.40016
G01 X10.48898 Y-6.32800
G01 X10.48898 Y-5.39996
G01 X10.48380 Y-5.34274
G01 X10.47085 Y-5.29278
G01 X10.45561 Y-5.25597
G01 X10.42942 Y-5.21150
G01 X10.39261 Y-5.16735
G01 X9.12261 Y-3.89735
G01 X9.07278 Y-3.85643
G01 X9.02254 Y-3.82918
G01 X8.95416 Y-3.80731
G01 X8.89000 Y-3.80098
G01 X7.51749 Y-3.80098
G01 X7.51749 Y-3.67373
G01 X7.51136 Y-3.61155
G01 X7.49569 Y-3.55869
G01 X7.46755 Y-3.50296
G01 X7.42412 Y-3.44835
G01 X7.37583 Y-3.40871
G01 X7.31378 Y-3.37678
G01 X7.25363 Y-3.36004
G01 X7.19874 Y-3.35498
G01 X6.71124 Y-3.35498
G01 X6.64190 Y-3.36291
G01 X6.58924 Y-3.37924
G01 X6.54045 Y-3.40492
G01 X6.49127 Y-3.44340
G01 X6.45058 Y-3.49075
G01 X6.41988 Y-3.54510
G01 X6.39862 Y-3.61155
G01 X6.39247 Y-3.67373
G01 X6.36293 Y-5.11520
G01 X6.39127 Y-5.13415
G01 X6.46816 Y-5.17309
G01 X6.55005 Y-5.19991
G01 X6.62531 Y-5.21490
G01 X6.71124 Y-5.22145
G01 X7.19874 Y-5.22145
G01 X7.28467 Y-5.21490
G01 X7.35993 Y-5.19991
G01 X7.44182 Y-5.17309
G01 X7.51870 Y-5.13415
G01 X7.58251 Y-5.09151
G01 X7.61944 Y-5.06120
G01 X7.64791 Y-5.03540
G01 X7.70402 Y-4.96999
G01 X7.74664 Y-4.90619
G01 X7.78561 Y-4.82933
G01 X7.79854 Y-4.79316
G01 X7.80392 Y-4.77545
G01 X7.79267 Y-4.75826
G01 X7.80392 Y-4.77545
G01 X8.62261 Y-4.77545
G01 X8.62594 Y-4.76740
G01 X8.62261 Y-4.77545
G01 X9.51451 Y-5.66735
G01 X9.52254 Y-5.66402
G01 X9.51451 Y-5.66735
G01 X9.51451 Y-6.21480
G01 X9.51758 Y-6.21553
G01 X9.51451 Y-6.21480
G01 X9.48215 Y-6.26323
G01 X9.42876 Y-6.36707
G01 X9.41583 Y-6.40329
G01 X9.39307 Y-6.47832
G01 X9.37809 Y-6.55358
G01 X9.36851 Y-6.66999
G01 X9.37809 Y-6.78640
G01 X9.39307 Y-6.86166
G01 X9.41583 Y-6.93669
G01 X9.44519 Y-7.00761
G01 X9.48215 Y-7.07674
G01 X9.50191 Y-7.10971
G01 X9.51451 Y-7.12671
G01 X9.51753 Y-7.12597
G01 X9.51451 Y-7.12671
G01 X9.51451 Y-7.67260
G01 X9.52254 Y-7.67593
G01 X9.51451 Y-7.67260
G01 X8.91901 Y-8.26811
G01 X8.88776 Y-8.37405
G01 X8.84624 Y-8.49005
G01 X9.62000 Y-7.71632
G01 X9.62805 Y-7.71964
G01 X9.62000 Y-7.71632
G01 X9.62000 Y-7.09031
G01 X9.62342 Y-7.08939
G01 X9.62000 Y-7.09031
G01 X9.60633 Y-7.07365
G01 X9.57519 Y-7.02704
G01 X9.53823 Y-6.95787
G01 X9.51677 Y-6.90608
G01 X9.49401 Y-6.83105
G01 X9.48306 Y-6.77606
G01 X9.47400 Y-6.66999
G01 X9.48306 Y-6.56389
G01 X9.49401 Y-6.50893
G01 X9.51677 Y-6.43390
G01 X9.53823 Y-6.38211
G01 X9.57519 Y-6.31294
G01 X9.60633 Y-6.26633
G01 X9.62000 Y-6.24967
G01 X9.62342 Y-6.25056
G01 X9.62000 Y-6.24967
G01 X9.62000 Y-5.62364
G01 X9.62805 Y-5.62031
G01 X9.62000 Y-5.62364
G01 X8.66633 Y-4.66997
G01 X8.66965 Y-4.66192
G01 X8.66633 Y-4.66997
G01 X7.72079 Y-4.66997
G01 X7.70560 Y-4.64937
G01 X7.72079 Y-4.66997
G01 X7.71147 Y-4.71681
G01 X7.68815 Y-4.78897
G01 X7.65363 Y-4.85645
G01 X7.62246 Y-4.90309
G01 X7.57331 Y-4.96082
G01 X7.51558 Y-5.00997
G01 X7.42683 Y-5.06364
G01 X7.37504 Y-5.08511
G01 X7.27433 Y-5.10990
G01 X7.19874 Y-5.11597
G01 X6.68320 Y-5.11459
G01 X6.58066 Y-5.09897
G01 X6.53491 Y-5.08511
G01 X6.50852 Y-5.07563
G01 X6.44101 Y-5.04111
G01 X6.35747 Y-4.97967
G01 X6.33666 Y-4.96082
G01 X6.28749 Y-4.90309
G01 X6.25635 Y-4.85645
G01 X6.22183 Y-4.78897
G01 X6.19851 Y-4.71681
G01 X6.18757 Y-4.66181
G01 X6.18150 Y-4.58625
G01 X6.18150 Y-3.67373
G01 X6.18757 Y-3.59816
G01 X6.19851 Y-3.54317
G01 X6.22183 Y-3.47101
G01 X6.25635 Y-3.40350
G01 X6.28749 Y-3.35689
G01 X6.33666 Y-3.29916
G01 X6.39440 Y-3.25001
G01 X6.44101 Y-3.21887
G01 X6.50852 Y-3.18432
G01 X6.53491 Y-3.17487
G01 X6.63562 Y-3.15006
G01 X6.71124 Y-3.14401
G01 X7.22676 Y-3.14538
G01 X7.27433 Y-3.15006
G01 X7.32930 Y-3.16100
G01 X7.37504 Y-3.17487
G01 X7.42683 Y-3.19634
G01 X7.49305 Y-3.23324
G01 X7.57331 Y-3.29916
G01 X7.62246 Y-3.35689
G01 X7.65363 Y-3.40350
G01 X7.68815 Y-3.47101
G01 X7.71147 Y-3.54317
G01 X7.72079 Y-3.58999
G01 X7.70560 Y-3.61058
G01 X7.72079 Y-3.58999
G01 X8.89000 Y-3.58999
G01 X8.99533 Y-3.60037
G01 X9.07021 Y-3.62166
G01 X9.12200 Y-3.64310
G01 X9.18997 Y-3.68099
G01 X9.27181 Y-3.74815
G01 X10.54181 Y-5.01815
G01 X10.60933 Y-5.10126
G01 X10.65052 Y-5.17522
G01 X10.67963 Y-5.25473
G01 X10.69597 Y-5.33781
G01 X10.69909 Y-5.37754
G01 X10.69998 Y-6.24967
G01 X10.69655 Y-6.25056
G01 X10.69998 Y-6.24967
G01 X10.71364 Y-6.26633
G01 X10.74478 Y-6.31294
G01 X10.78174 Y-6.38211
G01 X10.80320 Y-6.43390
G01 X10.82596 Y-6.50893
G01 X10.83691 Y-6.56389
G01 X10.84598 Y-6.66999
G01 X10.83691 Y-6.77606
G01 X10.82596 Y-6.83105
G01 X10.80320 Y-6.90608
G01 X10.78174 Y-6.95787
G01 X10.74478 Y-7.02704
G01 X10.71364 Y-7.07365
G01 X10.69998 Y-7.09031
G01 X10.69655 Y-7.08942
G01 X10.69998 Y-7.09031
G01 X10.69998 Y-7.93999
G01 X10.68893 Y-8.04647
G01 X10.66576 Y-8.12790
G01 X10.65052 Y-8.16473
G01 X10.60933 Y-8.23869
G01 X10.54181 Y-8.32180
G01 X9.25101 Y-9.61065
G01 X9.21253 Y-9.64225
G01 X9.16592 Y-9.67339
G01 X9.12200 Y-9.69686
G01 X9.07021 Y-9.71829
G01 X9.02256 Y-9.73277
G01 X8.96757 Y-9.74369
G01 X8.89000 Y-9.74997
G01 X8.83542 Y-9.74595
G01 X8.93270 Y-9.85312
G01 X8.97791 Y-9.84867
G01 X9.05317 Y-9.83371
G01 X9.10082 Y-9.81926
G01 X9.17174 Y-9.78990
G01 X9.21563 Y-9.76640
G01 X9.27946 Y-9.72378
G01 X9.31794 Y-9.69218
G01 X10.61641 Y-8.39640
G01 X10.66315 Y-8.34352
G01 X10.69927 Y-8.29381
G01 X10.74798 Y-8.20509
G01 X10.76322 Y-8.16828
G01 X10.79152 Y-8.07110
G01 X10.80112 Y-8.01042
G01 X10.80546 Y-7.93999
G01 X10.80546 Y-7.12518
G01 X10.80242 Y-7.12445
G01 X10.80546 Y-7.12518
G01 X10.83782 Y-7.07674
G01 X10.87478 Y-7.00761
G01 X10.90414 Y-6.93669
G01 X10.92690 Y-6.86166
G01 X10.94189 Y-6.78640
G01 X10.95146 Y-6.66999
G01 X10.94189 Y-6.55358
G01 X10.92690 Y-6.47832
G01 X10.90414 Y-6.40329
G01 X10.89122 Y-6.36707
G01 X10.83782 Y-6.26323
G01 X10.80546 Y-6.21480
G01 X10.80242 Y-6.21553
G01 X10.80546 Y-6.21480
G01 X10.80425 Y-5.36926
G01 X10.79152 Y-5.26885
G01 X10.78220 Y-5.23009
G01 X10.74798 Y-5.13486
G01 X10.72010 Y-5.08013
G01 X10.66315 Y-4.99643
G01 X10.61641 Y-4.94355
G01 X9.34641 Y-3.67355
G01 X9.27946 Y-3.61617
G01 X9.21563 Y-3.57355
G01 X9.17174 Y-3.55006
G01 X9.10082 Y-3.52069
G01 X9.01591 Y-3.49692
G01 X8.92835 Y-3.48640
G01 X7.80392 Y-3.48450
G01 X7.79267 Y-3.50169
G01 X7.80392 Y-3.48450
G01 X7.79854 Y-3.46682
G01 X7.78561 Y-3.43065
G01 X7.74664 Y-3.35379
G01 X7.70402 Y-3.28996
G01 X7.67370 Y-3.25298
G01 X7.61944 Y-3.19872
G01 X7.58251 Y-3.16845
G01 X7.51870 Y-3.12583
G01 X7.47654 Y-3.10330
G01 X7.40565 Y-3.07393
G01 X7.35993 Y-3.06006
G01 X7.28467 Y-3.04508
G01 X7.23712 Y-3.04041
G01 X6.71124 Y-3.03853
G01 X6.62531 Y-3.04508
G01 X6.55005 Y-3.06006
G01 X6.46816 Y-3.08686
G01 X6.43341 Y-3.10330
G01 X6.39127 Y-3.12583
G01 X6.32747 Y-3.16845
G01 X6.26207 Y-3.22458
G01 X6.23626 Y-3.25298
G01 X6.20596 Y-3.28996
G01 X6.16331 Y-3.35379
G01 X6.12437 Y-3.43065
G01 X6.09755 Y-3.51254
G01 X6.08823 Y-3.54980
G01 X6.07792 Y-3.63537
G01 X6.07601 Y-4.58625
G01 X6.08259 Y-4.67215
G01 X6.08823 Y-4.71015
G01 X6.11142 Y-4.79316
G01 X6.12437 Y-4.82933
G01 X6.16331 Y-4.90619
G01 X6.20596 Y-4.96999
G01 X6.26207 Y-5.03540
G01 X6.32747 Y-5.09151
G01 X6.36293 Y-5.11520
G01 X6.29722 Y-8.32559
G01 X1.94945 Y-4.98973
G01 X2.04340 Y-4.94561
G01 X2.10723 Y-4.90296
G01 X2.14511 Y-4.87187
G01 X2.19936 Y-4.81762
G01 X2.23363 Y-4.77545
G01 X2.23025 Y-4.76733
G01 X2.23363 Y-4.77545
G01 X4.23106 Y-4.77545
G01 X4.24147 Y-4.75902
G01 X4.23106 Y-4.77545
G01 X4.26580 Y-4.86405
G01 X4.30807 Y-4.93916
G01 X4.38706 Y-5.03540
G01 X4.45247 Y-5.09151
G01 X4.51627 Y-5.13415
G01 X4.59316 Y-5.17309
G01 X4.67505 Y-5.19991
G01 X4.75031 Y-5.21490
G01 X4.83624 Y-5.22145
G01 X5.32374 Y-5.22145
G01 X5.40967 Y-5.21490
G01 X5.48493 Y-5.19991
G01 X5.56682 Y-5.17309
G01 X5.60156 Y-5.15668
G01 X5.64370 Y-5.13415
G01 X5.70751 Y-5.09151
G01 X5.77291 Y-5.03540
G01 X5.82902 Y-4.96999
G01 X5.87164 Y-4.90619
G01 X5.91061 Y-4.82933
G01 X5.93743 Y-4.74744
G01 X5.95239 Y-4.67215
G01 X5.95897 Y-4.58625
G01 X5.95897 Y-3.67373
G01 X5.94675 Y-3.54980
G01 X5.92353 Y-3.46682
G01 X5.89417 Y-3.39593
G01 X5.85191 Y-3.32082
G01 X5.77291 Y-3.22458
G01 X5.70751 Y-3.16845
G01 X5.64370 Y-3.12583
G01 X5.56682 Y-3.08686
G01 X5.53065 Y-3.07393
G01 X5.48493 Y-3.06006
G01 X5.40967 Y-3.04508
G01 X5.36212 Y-3.04041
G01 X4.83624 Y-3.03853
G01 X4.75031 Y-3.04508
G01 X4.67505 Y-3.06006
G01 X4.59316 Y-3.08686
G01 X4.51627 Y-3.12583
G01 X4.45247 Y-3.16845
G01 X4.38706 Y-3.22458
G01 X4.30807 Y-3.32082
G01 X4.26580 Y-3.39593
G01 X4.23106 Y-3.48450
G01 X4.24150 Y-3.50093
G01 X4.23106 Y-3.48450
G01 X2.23363 Y-3.48450
G01 X2.23058 Y-3.49209
G01 X2.23363 Y-3.48450
G01 X2.19936 Y-3.44236
G01 X2.14511 Y-3.38811
G01 X2.07637 Y-3.33413
G01 X2.00020 Y-3.29128
G01 X1.92931 Y-3.26189
G01 X1.84513 Y-3.23835
G01 X1.71999 Y-3.22603
G01 X0.81999 Y-3.22603
G01 X0.69484 Y-3.23835
G01 X0.61067 Y-3.26189
G01 X0.53978 Y-3.29128
G01 X0.46360 Y-3.33413
G01 X0.39487 Y-3.38811
G01 X0.34061 Y-3.44236
G01 X0.28661 Y-3.51112
G01 X0.24376 Y-3.58727
G01 X0.21440 Y-3.65818
G01 X0.20018 Y-3.70507
G01 X0.18522 Y-3.78033
G01 X0.17851 Y-3.86748
G01 X0.17851 Y-4.39250
G01 X0.18522 Y-4.47962
G01 X0.20018 Y-4.55491
G01 X0.21440 Y-4.60179
G01 X0.24376 Y-4.67269
G01 X0.28661 Y-4.74886
G01 X0.30950 Y-4.77972
G01 X0.34061 Y-4.81762
G01 X0.39487 Y-4.87187
G01 X0.43274 Y-4.90296
G01 X0.49657 Y-4.94561
G01 X0.59055 Y-4.98973
G01 X2.16710 Y-4.98973
G01 X2.21204 Y-4.95341
G01 X2.28092 Y-4.88452
G01 X2.28387 Y-4.88094
G01 X2.28097 Y-4.87360
G01 X2.28387 Y-4.88094
G01 X4.15915 Y-4.88094
G01 X4.16837 Y-4.86570
G01 X4.15915 Y-4.88094
G01 X4.19529 Y-4.95592
G01 X4.24942 Y-5.03692
G01 X4.31249 Y-5.11000
G01 X4.38554 Y-5.17307
G01 X4.46656 Y-5.22719
G01 X4.55277 Y-5.27055
G01 X4.59870 Y-5.28698
G01 X4.64442 Y-5.30085
G01 X4.73997 Y-5.31988
G01 X4.83624 Y-5.32694
G01 X5.32374 Y-5.32694
G01 X5.42000 Y-5.31988
G01 X5.51556 Y-5.30085
G01 X5.60720 Y-5.27055
G01 X5.65127 Y-5.24972
G01 X5.69341 Y-5.22719
G01 X5.77444 Y-5.17307
G01 X5.84749 Y-5.11000
G01 X5.88025 Y-5.07385
G01 X5.91055 Y-5.03692
G01 X5.96468 Y-4.95592
G01 X5.96468 Y-3.30406
G01 X5.91055 Y-3.22306
G01 X5.84749 Y-3.14998
G01 X5.77444 Y-3.08691
G01 X5.69341 Y-3.03279
G01 X5.60720 Y-2.98940
G01 X5.51556 Y-2.95910
G01 X5.42000 Y-2.94010
G01 X5.37246 Y-2.93543
G01 X4.83624 Y-2.93304
G01 X4.73997 Y-2.94010
G01 X4.64442 Y-2.95910
G01 X4.55277 Y-2.98940
G01 X4.46656 Y-3.03279
G01 X4.38554 Y-3.08691
G01 X4.31249 Y-3.14998
G01 X4.24942 Y-3.22306
G01 X4.19529 Y-3.30406
G01 X4.15917 Y-3.37901
G01 X4.16839 Y-3.39425
G01 X4.15917 Y-3.37901
G01 X2.28384 Y-3.37901
G01 X2.28161 Y-3.38526
G01 X2.28384 Y-3.37901
G01 X2.28092 Y-3.37543
G01 X2.21204 Y-3.30650
G01 X2.13497 Y-3.24642
G01 X2.04993 Y-3.19824
G01 X1.95991 Y-3.16095
G01 X1.86571 Y-3.13489
G01 X1.71999 Y-3.12052
G01 X0.81999 Y-3.12052
G01 X0.72250 Y-3.12773
G01 X0.67427 Y-3.13489
G01 X0.58006 Y-3.16095
G01 X0.49004 Y-3.19824
G01 X0.44684 Y-3.22128
G01 X0.40500 Y-3.24642
G01 X0.32794 Y-3.30650
G01 X0.25905 Y-3.37543
G01 X0.19888 Y-3.45249
G01 X0.17384 Y-3.49433
G01 X0.15075 Y-3.53756
G01 X0.11346 Y-3.62755
G01 X0.09924 Y-3.67447
G01 X0.08024 Y-3.76999
G01 X0.07541 Y-3.81879
G01 X0.07302 Y-3.86748
G01 X0.49500 Y-3.86748
G01 X0.49500 Y-4.39250
G01 X0.50015 Y-4.44861
G01 X0.51725 Y-4.50992
G01 X0.54976 Y-4.57304
G01 X0.59563 Y-4.62725
G01 X0.63942 Y-4.66270
G01 X0.68895 Y-4.68960
G01 X0.75659 Y-4.71124
G01 X0.81999 Y-4.71749
G01 X1.71999 Y-4.71749
G01 X1.78338 Y-4.71124
G01 X1.85102 Y-4.68960
G01 X1.90055 Y-4.66270
G01 X1.94434 Y-4.62725
G01 X1.99400 Y-4.56674
G01 X2.02024 Y-4.51686
G01 X2.03794 Y-4.45897
G01 X4.51749 Y-4.45897
G01 X4.51749 Y-4.58625
G01 X4.52252 Y-4.64114
G01 X4.54490 Y-4.71488
G01 X4.57121 Y-4.76331
G01 X4.61084 Y-4.81162
G01 X4.65323 Y-4.84688
G01 X4.70761 Y-4.87759
G01 X4.76692 Y-4.89707
G01 X4.83624 Y-4.90499
G01 X5.32374 Y-4.90499
G01 X5.37865 Y-4.89994
G01 X5.45236 Y-4.87759
G01 X5.50675 Y-4.84688
G01 X5.55407 Y-4.80616
G01 X5.59255 Y-4.75701
G01 X5.61823 Y-4.70822
G01 X5.63636 Y-4.64843
G01 X5.64248 Y-4.58625
G01 X5.64248 Y-3.67373
G01 X5.63636 Y-3.61155
G01 X5.61508 Y-3.54510
G01 X5.58876 Y-3.49664
G01 X5.54914 Y-3.44835
G01 X5.49450 Y-3.40492
G01 X5.44571 Y-3.37924
G01 X5.39306 Y-3.36291
G01 X5.32374 Y-3.35498
G01 X4.83624 Y-3.35498
G01 X4.76692 Y-3.36291
G01 X4.70761 Y-3.38239
G01 X4.65323 Y-3.41310
G01 X4.61084 Y-3.44835
G01 X4.57121 Y-3.49664
G01 X4.54490 Y-3.54510
G01 X4.52252 Y-3.61884
G01 X4.51749 Y-3.67373
G01 X4.51749 Y-3.80098
G01 X2.03794 Y-3.80098
G01 X2.02273 Y-3.75006
G01 X1.99400 Y-3.69324
G01 X1.94434 Y-3.63273
G01 X1.90055 Y-3.59725
G01 X1.85102 Y-3.57038
G01 X1.78338 Y-3.54874
G01 X1.71999 Y-3.54249
G01 X0.81999 Y-3.54249
G01 X0.75659 Y-3.54874
G01 X0.70254 Y-3.56474
G01 X0.63353 Y-3.60164
G01 X0.58524 Y-3.64312
G01 X0.54976 Y-3.68694
G01 X0.52288 Y-3.73647
G01 X0.50302 Y-3.79694
G01 X0.49500 Y-3.86748
G01 X0.38951 Y-3.86748
G01 X0.39517 Y-3.80103
G01 X0.41631 Y-3.71942
G01 X0.42984 Y-3.68673
G01 X0.46205 Y-3.62831
G01 X0.50368 Y-3.57622
G01 X0.52870 Y-3.55120
G01 X0.58082 Y-3.50954
G01 X0.63924 Y-3.47734
G01 X0.67193 Y-3.46380
G01 X0.75352 Y-3.44267
G01 X0.81999 Y-3.43700
G01 X1.71999 Y-3.43700
G01 X1.80398 Y-3.44528
G01 X1.86804 Y-3.46380
G01 X1.90073 Y-3.47734
G01 X1.95915 Y-3.50954
G01 X2.01127 Y-3.55120
G01 X2.06738 Y-3.61409
G01 X2.08704 Y-3.64350
G01 X2.11376 Y-3.69550
G01 X2.10546 Y-3.70977
G01 X2.11376 Y-3.69550
G01 X4.41201 Y-3.69550
G01 X4.43654 Y-3.72267
G01 X4.41201 Y-3.69550
G01 X4.41754 Y-3.60850
G01 X4.43832 Y-3.52806
G01 X4.47439 Y-3.45323
G01 X4.52435 Y-3.38689
G01 X4.54937 Y-3.36187
G01 X4.61574 Y-3.31188
G01 X4.67388 Y-3.28178
G01 X4.77098 Y-3.25501
G01 X4.83624 Y-3.24945
G01 X5.32374 Y-3.24945
G01 X5.38899 Y-3.25501
G01 X5.42369 Y-3.26194
G01 X5.48610 Y-3.28178
G01 X5.54424 Y-3.31188
G01 X5.57365 Y-3.33154
G01 X5.62371 Y-3.37375
G01 X5.67647 Y-3.43804
G01 X5.70812 Y-3.49537
G01 X5.72165 Y-3.52806
G01 X5.73982 Y-3.59098
G01 X5.74797 Y-3.67373
G01 X5.74797 Y-4.58625
G01 X5.73982 Y-4.66900
G01 X5.72165 Y-4.73192
G01 X5.68559 Y-4.80675
G01 X5.63562 Y-4.87309
G01 X5.61061 Y-4.89811
G01 X5.54424 Y-4.94810
G01 X5.48610 Y-4.97817
G01 X5.42369 Y-4.99801
G01 X5.38899 Y-5.00492
G01 X5.32374 Y-5.01048
G01 X4.83624 Y-5.01048
G01 X4.77098 Y-5.00492
G01 X4.73629 Y-4.99801
G01 X4.65788 Y-4.97060
G01 X4.58633 Y-4.92844
G01 X4.53626 Y-4.88622
G01 X4.48351 Y-4.82194
G01 X4.45186 Y-4.76461
G01 X4.43832 Y-4.73192
G01 X4.42016 Y-4.66900
G01 X4.41287 Y-4.60393
G01 X4.41201 Y-4.56446
G01 X4.43365 Y-4.53916
G01 X4.41201 Y-4.56446
G01 X2.11430 Y-4.56446
G01 X2.10741 Y-4.55176
G01 X2.11430 Y-4.56446
G01 X2.07792 Y-4.63166
G01 X2.03629 Y-4.68376
G01 X2.01127 Y-4.70878
G01 X1.95915 Y-4.75043
G01 X1.90073 Y-4.78264
G01 X1.86804 Y-4.79618
G01 X1.80398 Y-4.81470
G01 X1.71999 Y-4.82298
G01 X0.81999 Y-4.82298
G01 X0.73599 Y-4.81470
G01 X0.67193 Y-4.79618
G01 X0.63924 Y-4.78264
G01 X0.56660 Y-4.73987
G01 X0.52870 Y-4.70878
G01 X0.47259 Y-4.64589
G01 X0.42984 Y-4.57324
G01 X0.40208 Y-4.49364
G01 X0.39037 Y-4.41018
G01 X0.38951 Y-3.86748
G01 X0.28400 Y-3.86748
G01 X0.29019 Y-3.79070
G01 X0.30112 Y-3.73571
G01 X0.31534 Y-3.68879
G01 X0.33680 Y-3.63700
G01 X0.35992 Y-3.59380
G01 X0.37435 Y-3.56972
G01 X0.42215 Y-3.50929
G01 X0.46180 Y-3.46964
G01 X0.49967 Y-3.43855
G01 X0.52222 Y-3.42184
G01 X0.58951 Y-3.38430
G01 X0.64130 Y-3.36286
G01 X0.68819 Y-3.34863
G01 X0.74318 Y-3.33769
G01 X0.81999 Y-3.33151
G01 X1.71999 Y-3.33151
G01 X1.82456 Y-3.34180
G01 X1.89868 Y-3.36286
G01 X1.95047 Y-3.38430
G01 X2.01775 Y-3.42184
G01 X2.04031 Y-3.43855
G01 X2.07818 Y-3.46964
G01 X2.11783 Y-3.50929
G01 X2.14892 Y-3.54716
G01 X2.17780 Y-3.58999
G01 X2.17213 Y-3.60124
G01 X2.17780 Y-3.58999
G01 X4.31378 Y-3.58999
G01 X4.32887 Y-3.61051
G01 X4.31378 Y-3.58999
G01 X4.32351 Y-3.54317
G01 X4.35884 Y-3.44564
G01 X4.39577 Y-3.37944
G01 X4.44282 Y-3.31991
G01 X4.48246 Y-3.28031
G01 X4.56601 Y-3.21887
G01 X4.63352 Y-3.18432
G01 X4.70568 Y-3.16100
G01 X4.76065 Y-3.15006
G01 X4.83624 Y-3.14401
G01 X5.32374 Y-3.14401
G01 X5.39933 Y-3.15006
G01 X5.45429 Y-3.16100
G01 X5.52646 Y-3.18432
G01 X5.55183 Y-3.19634
G01 X5.64058 Y-3.25001
G01 X5.69831 Y-3.29916
G01 X5.74746 Y-3.35689
G01 X5.77863 Y-3.40350
G01 X5.82259 Y-3.49745
G01 X5.84330 Y-3.57040
G01 X5.85346 Y-3.67373
G01 X5.85346 Y-4.58625
G01 X5.84330 Y-4.68958
G01 X5.82259 Y-4.76253
G01 X5.80113 Y-4.81432
G01 X5.77863 Y-4.85645
G01 X5.71716 Y-4.94002
G01 X5.69831 Y-4.96082
G01 X5.64058 Y-5.00997
G01 X5.59397 Y-5.04111
G01 X5.52646 Y-5.07563
G01 X5.45429 Y-5.09897
G01 X5.39933 Y-5.10990
G01 X5.32374 Y-5.11597
G01 X4.83624 Y-5.11597
G01 X4.76065 Y-5.10990
G01 X4.65993 Y-5.08511
G01 X4.60814 Y-5.06364
G01 X4.51940 Y-5.00997
G01 X4.46166 Y-4.96082
G01 X4.41251 Y-4.90309
G01 X4.38135 Y-4.85645
G01 X4.33738 Y-4.76253
G01 X4.31378 Y-4.66997
G01 X4.32719 Y-4.65084
G01 X4.31378 Y-4.66997
G01 X2.17780 Y-4.66997
G01 X2.17310 Y-4.65991
G01 X2.17780 Y-4.66997
G01 X2.16563 Y-4.69026
G01 X2.11783 Y-4.75069
G01 X2.07818 Y-4.79034
G01 X2.04031 Y-4.82143
G01 X2.01775 Y-4.83814
G01 X1.95047 Y-4.87566
G01 X1.89868 Y-4.89712
G01 X1.82456 Y-4.91818
G01 X1.71999 Y-4.92846
G01 X0.81999 Y-4.92846
G01 X0.71542 Y-4.91818
G01 X0.64130 Y-4.89712
G01 X0.58951 Y-4.87566
G01 X0.52222 Y-4.83814
G01 X0.46180 Y-4.79034
G01 X0.42215 Y-4.75069
G01 X0.37435 Y-4.69026
G01 X0.33680 Y-4.62298
G01 X0.31534 Y-4.57116
G01 X0.30112 Y-4.52427
G01 X0.29019 Y-4.46928
G01 X0.28400 Y-4.39250
G01 X0.28400 Y-3.86748
G01 X0.07302 Y-3.86748
G01 X0.07541 Y-4.44119
G01 X0.08024 Y-4.48996
G01 X0.09924 Y-4.58551
G01 X0.11346 Y-4.63243
G01 X0.15075 Y-4.72242
G01 X0.19888 Y-4.80748
G01 X0.25905 Y-4.88452
G01 X0.32794 Y-4.95341
G01 X0.37287 Y-4.98973
G01 X0.59055 Y-4.98973
G04 P0 ( dwell for no time -- G64 should not smooth over this point )
G00 Z1.27000 ( retract )

G00 X8.64428 Y-14.07267 ( rapid move to begin. )
G01 F30.00000
( Mill infeed pass 1/1 )
G01 Z-0.14000
G04 P0 ( dwell for no time -- G64 should not smooth over this point )
G01 F200.00000
G01 X8.64428 Y-14.07267
G01 X8.68774 Y-13.97056
G01 X8.73849 Y-13.88328
G01 X8.78804 Y-13.86815
G01 X8.82274 Y-13.86124
G01 X8.88997 Y-13.85550
G01 X8.95723 Y-13.86124
G01 X9.03958 Y-13.88260
G01 X9.07227 Y-13.89614
G01 X9.13138 Y-13.92870
G01 X9.19721 Y-13.98275
G01 X10.46721 Y-15.25275
G01 X10.51936 Y-15.31638
G01 X10.55306 Y-15.37559
G01 X10.57707 Y-15.43934
G01 X10.58636 Y-15.47810
G01 X10.59447 Y-15.55999
G01 X10.59447 Y-16.44741
G01 X10.59056 Y-16.44851
G01 X10.59447 Y-16.44741
G01 X10.64265 Y-16.50749
G01 X10.68873 Y-16.59184
G01 X10.70226 Y-16.62453
G01 X10.72932 Y-16.71673
G01 X10.74047 Y-16.82999
G01 X10.73193 Y-16.92572
G01 X10.72502 Y-16.96042
G01 X10.69630 Y-17.05214
G01 X10.65174 Y-17.13730
G01 X10.59447 Y-17.21256
G01 X10.59028 Y-17.21134
G01 X10.59447 Y-17.21256
G01 X10.59447 Y-18.09996
G01 X10.58636 Y-18.18185
G01 X10.57707 Y-18.22061
G01 X10.55306 Y-18.28437
G01 X10.51936 Y-18.34358
G01 X10.46721 Y-18.40720
G01 X9.19721 Y-19.67720
G01 X9.13138 Y-19.73125
G01 X9.07227 Y-19.76382
G01 X9.03958 Y-19.77735
G01 X8.95723 Y-19.79872
G01 X8.89000 Y-19.80446
G01 X7.62297 Y-19.80446
G01 X7.59844 Y-19.77728
G01 X7.62297 Y-19.80446
G01 X7.61743 Y-19.89148
G01 X7.61053 Y-19.92617
G01 X7.59069 Y-19.98858
G01 X7.56059 Y-20.04675
G01 X7.54093 Y-20.07616
G01 X7.49871 Y-20.12622
G01 X7.44865 Y-20.16844
G01 X7.41924 Y-20.18810
G01 X7.36110 Y-20.21817
G01 X7.29869 Y-20.23801
G01 X7.21642 Y-20.24962
G01 X6.71124 Y-20.25048
G01 X6.64599 Y-20.24492
G01 X6.61129 Y-20.23801
G01 X6.54888 Y-20.21817
G01 X6.49074 Y-20.18810
G01 X6.42437 Y-20.13811
G01 X6.36902 Y-20.07616
G01 X6.34939 Y-20.04675
G01 X6.31929 Y-19.98858
G01 X6.29945 Y-19.92617
G01 X6.29255 Y-19.89148
G01 X6.28701 Y-19.82625
G01 X6.28701 Y-18.91373
G01 X6.29255 Y-18.84850
G01 X6.29945 Y-18.81378
G01 X6.31929 Y-18.75140
G01 X6.34939 Y-18.69323
G01 X6.36902 Y-18.66382
G01 X6.41126 Y-18.61375
G01 X6.46133 Y-18.57154
G01 X6.49074 Y-18.55188
G01 X6.54888 Y-18.52178
G01 X6.61129 Y-18.50194
G01 X6.64599 Y-18.49506
G01 X6.71124 Y-18.48950
G01 X7.21642 Y-18.49036
G01 X7.28149 Y-18.49765
G01 X7.36110 Y-18.52178
G01 X7.43443 Y-18.56100
G01 X7.48558 Y-18.60187
G01 X7.54093 Y-18.66382
G01 X7.56059 Y-18.69323
G01 X7.59069 Y-18.75140
G01 X7.61053 Y-18.81378
G01 X7.61743 Y-18.84850
G01 X7.62297 Y-18.93550
G01 X7.59844 Y-18.96267
G01 X7.62297 Y-18.93550
G01 X8.71002 Y-18.93550
G01 X8.71334 Y-18.94352
G01 X8.71002 Y-18.93550
G01 X9.72551 Y-17.92000
G01 X9.73353 Y-17.92333
G01 X9.72551 Y-17.92000
G01 X9.72551 Y-17.21256
G01 X9.72942 Y-17.21145
G01 X9.72551 Y-17.21256
G01 X9.67732 Y-17.15249
G01 X9.63125 Y-17.06814
G01 X9.61771 Y-17.03545
G01 X9.59066 Y-16.94325
G01 X9.57951 Y-16.82999
G01 X9.59066 Y-16.71673
G01 X9.61771 Y-16.62453
G01 X9.63125 Y-16.59184
G01 X9.67732 Y-16.50749
G01 X9.72551 Y-16.44741
G01 X9.72942 Y-16.44851
G01 X9.72551 Y-16.44741
G01 X9.72551 Y-15.73995
G01 X9.73353 Y-15.73662
G01 X9.72551 Y-15.73995
G01 X8.74791 Y-14.76235
G01 X8.64428 Y-14.50726
G01 X9.83099 Y-15.69626
G01 X9.83099 Y-16.48800
G01 X9.76942 Y-16.56019
G01 X9.72429 Y-16.64155
G01 X9.69411 Y-16.73733
G01 X9.68499 Y-16.82999
G01 X9.69411 Y-16.92265
G01 X9.72429 Y-17.01841
G01 X9.76503 Y-17.09390
G01 X9.83099 Y-17.17197
G01 X9.83099 Y-17.96369
G01 X8.75370 Y-19.04098
G01 X7.51749 Y-19.04098
G01 X7.51713 Y-18.90639
G01 X7.51136 Y-18.85155
G01 X7.49323 Y-18.79176
G01 X7.45940 Y-18.73075
G01 X7.42412 Y-18.68835
G01 X7.37583 Y-18.64871
G01 X7.32071 Y-18.61924
G01 X7.26092 Y-18.60111
G01 X7.19874 Y-18.59498
G01 X6.71124 Y-18.59498
G01 X6.64190 Y-18.60291
G01 X6.58924 Y-18.61924
G01 X6.54045 Y-18.64492
G01 X6.48584 Y-18.68835
G01 X6.44243 Y-18.74296
G01 X6.41424 Y-18.79869
G01 X6.39862 Y-18.85155
G01 X6.39285 Y-18.90639
G01 X6.39247 Y-19.82625
G01 X6.39862 Y-19.88843
G01 X6.41988 Y-19.95487
G01 X6.45058 Y-20.00923
G01 X6.48584 Y-20.05162
G01 X6.52823 Y-20.08688
G01 X6.58924 Y-20.12071
G01 X6.64906 Y-20.13887
G01 X6.71124 Y-20.14499
G01 X7.19874 Y-20.14499
G01 X7.25363 Y-20.13994
G01 X7.32071 Y-20.12071
G01 X7.38175 Y-20.08688
G01 X7.42412 Y-20.05162
G01 X7.46755 Y-19.99701
G01 X7.49323 Y-19.94822
G01 X7.51136 Y-19.88843
G01 X7.51749 Y-19.82625
G01 X7.51749 Y-19.69897
G01 X8.89000 Y-19.69897
G01 X8.96132 Y-19.69087
G01 X9.02254 Y-19.67078
G01 X9.07278 Y-19.64352
G01 X9.12261 Y-19.60260
G01 X10.39261 Y-18.33260
G01 X10.42942 Y-18.28846
G01 X10.45561 Y-18.24398
G01 X10.47085 Y-18.20718
G01 X10.48380 Y-18.15722
G01 X10.48898 Y-18.09996
G01 X10.48898 Y-17.17197
G01 X10.55055 Y-17.09979
G01 X10.59884 Y-17.01175
G01 X10.62408 Y-16.92979
G01 X10.63498 Y-16.82999
G01 X10.62586 Y-16.73733
G01 X10.59569 Y-16.64155
G01 X10.55055 Y-16.56019
G01 X10.48898 Y-16.48800
G01 X10.48898 Y-15.55999
G01 X10.48380 Y-15.50274
G01 X10.47085 Y-15.45278
G01 X10.45561 Y-15.41597
G01 X10.42942 Y-15.37150
G01 X10.39261 Y-15.32735
G01 X9.11718 Y-14.05240
G01 X9.07278 Y-14.01643
G01 X9.02254 Y-13.98918
G01 X8.94690 Y-13.96622
G01 X8.88997 Y-13.96098
G01 X8.83308 Y-13.96622
G01 X8.76409 Y-13.98603
G01 X8.71352 Y-14.01265
G01 X8.66280 Y-14.05240
G01 X8.61266 Y-14.11351
G01 X8.58604 Y-14.16408
G01 X8.56910 Y-14.21864
G01 X8.56099 Y-14.28999
G01 X8.56623 Y-14.34689
G01 X8.58919 Y-14.42253
G01 X8.61644 Y-14.47277
G01 X8.64428 Y-14.50726
G01 X8.81311 Y-14.91978
G01 X8.88776 Y-15.12590
G01 X8.91903 Y-15.23185
G01 X9.51451 Y-15.82735
G01 X9.52254 Y-15.82402
G01 X9.51451 Y-15.82735
G01 X9.51451 Y-16.37480
G01 X9.51758 Y-16.37553
G01 X9.51451 Y-16.37480
G01 X9.48215 Y-16.42323
G01 X9.44519 Y-16.49237
G01 X9.41583 Y-16.56329
G01 X9.38373 Y-16.67558
G01 X9.36851 Y-16.82999
G01 X9.38373 Y-16.98440
G01 X9.41583 Y-17.09669
G01 X9.44519 Y-17.16761
G01 X9.48215 Y-17.23674
G01 X9.50191 Y-17.26971
G01 X9.51451 Y-17.28671
G01 X9.51753 Y-17.28597
G01 X9.51451 Y-17.28671
G01 X9.51451 Y-17.83260
G01 X9.52254 Y-17.83593
G01 X9.51451 Y-17.83260
G01 X8.62261 Y-18.72450
G01 X8.62594 Y-18.73255
G01 X8.62261 Y-18.72450
G01 X7.80392 Y-18.72450
G01 X7.79267 Y-18.74169
G01 X7.80392 Y-18.72450
G01 X7.79854 Y-18.70682
G01 X7.78561 Y-18.67065
G01 X7.74664 Y-18.59379
G01 X7.70402 Y-18.52996
G01 X7.64791 Y-18.46458
G01 X7.61944 Y-18.43877
G01 X7.55165 Y-18.38556
G01 X7.44182 Y-18.32686
G01 X7.35993 Y-18.30007
G01 X7.28467 Y-18.28508
G01 X7.19874 Y-18.27853
G01 X6.71124 Y-18.27853
G01 X6.62531 Y-18.28508
G01 X6.55005 Y-18.30007
G01 X6.46816 Y-18.32686
G01 X6.39127 Y-18.36583
G01 X6.32747 Y-18.40845
G01 X6.26207 Y-18.46458
G01 X6.23626 Y-18.49303
G01 X6.20596 Y-18.52996
G01 X6.16331 Y-18.59379
G01 X6.12437 Y-18.67065
G01 X6.11142 Y-18.70682
G01 X6.08823 Y-18.78980
G01 X6.08259 Y-18.82780
G01 X6.07601 Y-18.91373
G01 X6.07601 Y-19.82625
G01 X6.08823 Y-19.95015
G01 X6.11142 Y-20.03316
G01 X6.14081 Y-20.10405
G01 X6.16331 Y-20.14619
G01 X6.20596 Y-20.20999
G01 X6.26207 Y-20.27540
G01 X6.29054 Y-20.30120
G01 X6.35833 Y-20.35439
G01 X6.39127 Y-20.37415
G01 X6.46816 Y-20.41309
G01 X6.50433 Y-20.42604
G01 X6.55005 Y-20.43991
G01 X6.62531 Y-20.45490
G01 X6.67286 Y-20.45957
G01 X7.19874 Y-20.46145
G01 X7.32267 Y-20.44926
G01 X7.40565 Y-20.42604
G01 X7.44182 Y-20.41309
G01 X7.51870 Y-20.37415
G01 X7.58251 Y-20.33151
G01 X7.64791 Y-20.27540
G01 X7.67370 Y-20.24695
G01 X7.70402 Y-20.20999
G01 X7.74664 Y-20.14619
G01 X7.78561 Y-20.06933
G01 X7.79854 Y-20.03316
G01 X7.80392 Y-20.01545
G01 X7.79267 Y-19.99826
G01 X7.80392 Y-20.01545
G01 X8.89000 Y-20.01545
G01 X8.97791 Y-20.00867
G01 X9.05317 Y-19.99371
G01 X9.10082 Y-19.97926
G01 X9.17174 Y-19.94990
G01 X9.24860 Y-19.90667
G01 X9.34641 Y-19.82640
G01 X10.61641 Y-18.55640
G01 X10.66315 Y-18.50352
G01 X10.69927 Y-18.45381
G01 X10.74798 Y-18.36509
G01 X10.76322 Y-18.32828
G01 X10.79152 Y-18.23110
G01 X10.80425 Y-18.13070
G01 X10.80546 Y-17.28518
G01 X10.80242 Y-17.28445
G01 X10.80546 Y-17.28518
G01 X10.83782 Y-17.23674
G01 X10.87478 Y-17.16761
G01 X10.90414 Y-17.09669
G01 X10.92690 Y-17.02166
G01 X10.94189 Y-16.94640
G01 X10.95146 Y-16.82999
G01 X10.93625 Y-16.67558
G01 X10.90414 Y-16.56329
G01 X10.87478 Y-16.49237
G01 X10.83782 Y-16.42323
G01 X10.80546 Y-16.37480
G01 X10.80242 Y-16.37553
G01 X10.80546 Y-16.37480
G01 X10.80546 Y-15.55999
G01 X10.80112 Y-15.48953
G01 X10.79152 Y-15.42885
G01 X10.76322 Y-15.33167
G01 X10.74798 Y-15.29486
G01 X10.69927 Y-15.20614
G01 X10.66315 Y-15.15643
G01 X10.61641 Y-15.10355
G01 X9.34641 Y-13.83355
G01 X9.24860 Y-13.75329
G01 X9.17174 Y-13.71006
G01 X9.10082 Y-13.68069
G01 X9.05317 Y-13.66624
G01 X8.97791 Y-13.65128
G01 X8.93270 Y-13.64681
G01 X9.02444 Y-13.55349
G01 X9.08380 Y-13.56530
G01 X9.13145 Y-13.57975
G01 X9.22144 Y-13.61704
G01 X9.30720 Y-13.66558
G01 X9.42099 Y-13.75898
G01 X10.69099 Y-15.02898
G01 X10.74336 Y-15.08793
G01 X10.78921 Y-15.15102
G01 X10.84544 Y-15.25448
G01 X10.86068 Y-15.29131
G01 X10.89409 Y-15.40424
G01 X10.90940 Y-15.52097
G01 X10.91095 Y-16.34371
G01 X10.90737 Y-16.34465
G01 X10.91095 Y-16.34371
G01 X10.93086 Y-16.37350
G01 X10.96782 Y-16.44264
G01 X11.00511 Y-16.53266
G01 X11.03970 Y-16.65501
G01 X11.05695 Y-16.82999
G01 X11.04687 Y-16.95674
G01 X11.02787 Y-17.05229
G01 X11.00511 Y-17.12732
G01 X10.96782 Y-17.21731
G01 X10.93086 Y-17.28648
G01 X10.91095 Y-17.31627
G01 X10.90778 Y-17.31546
G01 X10.91095 Y-17.31627
G01 X10.90940 Y-18.13898
G01 X10.89409 Y-18.25572
G01 X10.86068 Y-18.36865
G01 X10.84544 Y-18.40547
G01 X10.78921 Y-18.50893
G01 X10.74336 Y-18.57202
G01 X10.69099 Y-18.63098
G01 X9.42099 Y-19.90098
G01 X9.30720 Y-19.99437
G01 X9.22144 Y-20.04291
G01 X9.13145 Y-20.08020
G01 X9.08380 Y-20.09465
G01 X8.98825 Y-20.11365
G01 X8.89000 Y-20.12094
G01 X7.87773 Y-20.12094
G01 X7.87060 Y-20.10796
G01 X7.87773 Y-20.12094
G01 X7.86221 Y-20.15378
G01 X7.83968 Y-20.19592
G01 X7.78556 Y-20.27692
G01 X7.72249 Y-20.35000
G01 X7.68637 Y-20.38274
G01 X7.64941 Y-20.41307
G01 X7.56841 Y-20.46719
G01 X7.52627 Y-20.48972
G01 X7.43628 Y-20.52698
G01 X7.34324 Y-20.55271
G01 X7.19874 Y-20.56694
G01 X6.71124 Y-20.56694
G01 X6.61497 Y-20.55988
G01 X6.51942 Y-20.54085
G01 X6.47370 Y-20.52698
G01 X6.42777 Y-20.51055
G01 X6.34154 Y-20.46719
G01 X6.26054 Y-20.41307
G01 X6.18747 Y-20.35000
G01 X6.15472 Y-20.31385
G01 X6.12442 Y-20.27692
G01 X6.07022 Y-20.19577
G01 X6.07022 Y-18.54421
G01 X6.12442 Y-18.46306
G01 X6.18747 Y-18.38998
G01 X6.26054 Y-18.32691
G01 X6.34154 Y-18.27279
G01 X6.42777 Y-18.22940
G01 X6.56674 Y-18.18726
G01 X6.71124 Y-18.17304
G01 X7.19874 Y-18.17304
G01 X7.29501 Y-18.18010
G01 X7.39056 Y-18.19910
G01 X7.48220 Y-18.22940
G01 X7.56841 Y-18.27279
G01 X7.64941 Y-18.32691
G01 X7.72249 Y-18.38998
G01 X7.78556 Y-18.46306
G01 X7.83968 Y-18.54406
G01 X7.86221 Y-18.58620
G01 X7.87773 Y-18.61901
G01 X7.87057 Y-18.63207
G01 X7.87773 Y-18.61901
G01 X8.57893 Y-18.61901
G01 X8.58225 Y-18.62704
G01 X8.57893 Y-18.61901
G01 X9.40902 Y-17.78892
G01 X9.41705 Y-17.79224
G01 X9.40902 Y-17.78892
G01 X9.40902 Y-17.31970
G01 X9.41240 Y-17.31881
G01 X9.40902 Y-17.31970
G01 X9.38911 Y-17.28648
G01 X9.35215 Y-17.21731
G01 X9.31487 Y-17.12732
G01 X9.28027 Y-17.00497
G01 X9.26302 Y-16.82999
G01 X9.28027 Y-16.65501
G01 X9.31487 Y-16.53266
G01 X9.35215 Y-16.44264
G01 X9.38911 Y-16.37350
G01 X9.40902 Y-16.34371
G01 X9.41260 Y-16.34465
G01 X9.40902 Y-16.34371
G01 X9.40902 Y-15.87104
G01 X9.41705 Y-15.86771
G01 X9.40902 Y-15.87104
G01 X8.96732 Y-15.42933
G01 X8.91476 Y-15.21508
G01 X8.88776 Y-15.12590
G01 X8.84626 Y-15.00990
G01 X9.62000 Y-15.78364
G01 X9.62805 Y-15.78031
G01 X9.62000 Y-15.78364
G01 X9.62000 Y-16.40967
G01 X9.62342 Y-16.41056
G01 X9.62000 Y-16.40967
G01 X9.60633 Y-16.42633
G01 X9.57519 Y-16.47294
G01 X9.53823 Y-16.54211
G01 X9.51677 Y-16.59390
G01 X9.49401 Y-16.66893
G01 X9.48306 Y-16.72392
G01 X9.47400 Y-16.82999
G01 X9.48306 Y-16.93606
G01 X9.49401 Y-16.99105
G01 X9.51677 Y-17.06608
G01 X9.53823 Y-17.11787
G01 X9.57519 Y-17.18704
G01 X9.60633 Y-17.23365
G01 X9.62000 Y-17.25031
G01 X9.62342 Y-17.24939
G01 X9.62000 Y-17.25031
G01 X9.62000 Y-17.87632
G01 X9.62805 Y-17.87964
G01 X9.62000 Y-17.87632
G01 X8.66633 Y-18.82999
G01 X8.66965 Y-18.83804
G01 X8.66633 Y-18.82999
G01 X7.72079 Y-18.82999
G01 X7.70560 Y-18.85058
G01 X7.72079 Y-18.82999
G01 X7.71147 Y-18.78317
G01 X7.68815 Y-18.71101
G01 X7.65363 Y-18.64350
G01 X7.59216 Y-18.55996
G01 X7.55251 Y-18.52031
G01 X7.49305 Y-18.47329
G01 X7.46897 Y-18.45887
G01 X7.40146 Y-18.42432
G01 X7.30209 Y-18.39420
G01 X7.19874 Y-18.38401
G01 X6.68320 Y-18.38538
G01 X6.60789 Y-18.39420
G01 X6.53491 Y-18.41487
G01 X6.50852 Y-18.42432
G01 X6.44101 Y-18.45887
G01 X6.35747 Y-18.52031
G01 X6.33666 Y-18.53916
G01 X6.28749 Y-18.59689
G01 X6.25635 Y-18.64350
G01 X6.22183 Y-18.71101
G01 X6.19851 Y-18.78317
G01 X6.18757 Y-18.83816
G01 X6.18150 Y-18.91373
G01 X6.39247 Y-18.91373
G01 X6.07601 Y-18.91373
G01 X6.07022 Y-18.86948
G01 X6.07601 Y-18.91373
G01 X6.18150 Y-18.91373
G01 X6.18289 Y-19.85427
G01 X6.18757 Y-19.90181
G01 X6.19851 Y-19.95681
G01 X6.22183 Y-20.02897
G01 X6.25635 Y-20.09645
G01 X6.28749 Y-20.14309
G01 X6.31782 Y-20.18002
G01 X6.33666 Y-20.20082
G01 X6.39440 Y-20.24997
G01 X6.48315 Y-20.30364
G01 X6.50852 Y-20.31563
G01 X6.58066 Y-20.33897
G01 X6.63562 Y-20.34990
G01 X6.71124 Y-20.35597
G01 X7.22676 Y-20.35459
G01 X7.30209 Y-20.34578
G01 X7.40146 Y-20.31563
G01 X7.46897 Y-20.28111
G01 X7.51558 Y-20.24997
G01 X7.57331 Y-20.20082
G01 X7.62246 Y-20.14309
G01 X7.65363 Y-20.09645
G01 X7.68815 Y-20.02897
G01 X7.71147 Y-19.95681
G01 X7.72079 Y-19.90997
G01 X7.70560 Y-19.88937
G01 X7.72079 Y-19.90997
G01 X8.89000 Y-19.90997
G01 X8.96757 Y-19.90369
G01 X9.02256 Y-19.89277
G01 X9.07021 Y-19.87829
G01 X9.12200 Y-19.85686
G01 X9.18997 Y-19.81896
G01 X9.27181 Y-19.75180
G01 X10.54181 Y-18.48180
G01 X10.58294 Y-18.43499
G01 X10.63013 Y-18.36471
G01 X10.66576 Y-18.28790
G01 X10.68893 Y-18.20647
G01 X10.69998 Y-18.09996
G01 X10.69998 Y-17.25031
G01 X10.69655 Y-17.24939
G01 X10.69998 Y-17.25031
G01 X10.71364 Y-17.23365
G01 X10.74478 Y-17.18704
G01 X10.78174 Y-17.11787
G01 X10.80320 Y-17.06608
G01 X10.82596 Y-16.99105
G01 X10.83691 Y-16.93606
G01 X10.84598 Y-16.82999
G01 X10.83691 Y-16.72392
G01 X10.82596 Y-16.66893
G01 X10.80320 Y-16.59390
G01 X10.78174 Y-16.54211
G01 X10.74478 Y-16.47294
G01 X10.71364 Y-16.42633
G01 X10.69998 Y-16.40967
G01 X10.69655 Y-16.41056
G01 X10.69998 Y-16.40967
G01 X10.69909 Y-15.53754
G01 X10.69597 Y-15.49781
G01 X10.67963 Y-15.41473
G01 X10.65052 Y-15.33522
G01 X10.63013 Y-15.29524
G01 X10.58294 Y-15.22496
G01 X10.54181 Y-15.17815
G01 X9.27181 Y-13.90815
G01 X9.21253 Y-13.85771
G01 X9.18997 Y-13.84099
G01 X9.12200 Y-13.80310
G01 X9.07021 Y-13.78166
G01 X9.02256 Y-13.76718
G01 X8.96757 Y-13.75626
G01 X8.91802 Y-13.75138
G01 X8.86196 Y-13.75138
G01 X8.83542 Y-13.75400
G01 X8.79866 Y-13.79860
G01 X8.73392 Y-13.89009
G01 X8.79866 Y-13.79860
G01 X8.84728 Y-13.73960
G01 X8.93270 Y-13.64681
G01 X6.40273 Y-10.09426
G01 X6.41170 Y-10.13945
G01 X6.47301 Y-10.33508
G01 X6.56796 Y-10.51677
G01 X6.61063 Y-10.58057
G01 X6.74213 Y-10.73785
G01 X6.89940 Y-10.86935
G01 X6.96321 Y-10.91199
G01 X7.11017 Y-10.99053
G01 X7.18106 Y-11.01989
G01 X7.34052 Y-11.06828
G01 X7.41578 Y-11.08324
G01 X7.58162 Y-11.09957
G01 X7.65835 Y-11.09957
G01 X7.82419 Y-11.08324
G01 X7.89945 Y-11.06828
G01 X8.09508 Y-11.00696
G01 X8.27677 Y-10.91199
G01 X8.34057 Y-10.86935
G01 X8.49785 Y-10.73785
G01 X8.62935 Y-10.58057
G01 X8.67199 Y-10.51677
G01 X8.75053 Y-10.36980
G01 X8.77989 Y-10.29891
G01 X8.83760 Y-10.10219
G01 X8.85680 Y-9.92642
G01 X8.75596 Y-9.81542
G01 X8.75459 Y-9.88802
G01 X8.73826 Y-10.05385
G01 X8.72731 Y-10.10882
G01 X8.67895 Y-10.26828
G01 X8.65749 Y-10.32007
G01 X8.57895 Y-10.46704
G01 X8.54781 Y-10.51364
G01 X8.42325 Y-10.66325
G01 X8.27364 Y-10.78781
G01 X8.22703 Y-10.81895
G01 X8.05470 Y-10.90950
G01 X7.86882 Y-10.96731
G01 X7.81385 Y-10.97826
G01 X7.62000 Y-10.99596
G01 X7.42612 Y-10.97826
G01 X7.37116 Y-10.96731
G01 X7.21169 Y-10.91895
G01 X7.15990 Y-10.89749
G01 X6.98886 Y-10.80452
G01 X6.81672 Y-10.66325
G01 X6.69216 Y-10.51364
G01 X6.66102 Y-10.46704
G01 X6.57047 Y-10.29470
G01 X6.51266 Y-10.10882
G01 X6.50171 Y-10.05385
G01 X6.48401 Y-9.85998
G01 X6.48538 Y-8.53196
G01 X6.50171 Y-8.36612
G01 X6.51266 Y-8.31113
G01 X6.56100 Y-8.15170
G01 X6.58249 Y-8.09991
G01 X6.67545 Y-7.92886
G01 X6.79788 Y-7.77753
G01 X6.83753 Y-7.73788
G01 X6.96633 Y-7.63217
G01 X7.01294 Y-7.60103
G01 X7.15990 Y-7.52249
G01 X7.21169 Y-7.50103
G01 X7.37116 Y-7.45266
G01 X7.42612 Y-7.44172
G01 X7.59196 Y-7.42539
G01 X7.64802 Y-7.42539
G01 X7.81385 Y-7.44172
G01 X7.86882 Y-7.45266
G01 X8.02828 Y-7.50103
G01 X8.08007 Y-7.52249
G01 X8.22703 Y-7.60103
G01 X8.27364 Y-7.63217
G01 X8.40245 Y-7.73788
G01 X8.44210 Y-7.77753
G01 X8.56452 Y-7.92886
G01 X8.66950 Y-8.12526
G01 X8.72731 Y-8.31113
G01 X8.73826 Y-8.36612
G01 X8.74695 Y-8.45444
G01 X8.78799 Y-8.33976
G01 X8.81670 Y-8.24240
G01 X8.76696 Y-8.08490
G01 X8.67199 Y-7.90321
G01 X8.62935 Y-7.83941
G01 X8.52363 Y-7.71060
G01 X8.46938 Y-7.65635
G01 X8.30971 Y-7.52775
G01 X8.12980 Y-7.42945
G01 X8.05891 Y-7.40009
G01 X7.89945 Y-7.35170
G01 X7.82419 Y-7.33674
G01 X7.62000 Y-7.31853
G01 X7.41578 Y-7.33674
G01 X7.34052 Y-7.35170
G01 X7.18106 Y-7.40009
G01 X7.11017 Y-7.42945
G01 X6.93026 Y-7.52775
G01 X6.77060 Y-7.65635
G01 X6.71634 Y-7.71060
G01 X6.58772 Y-7.87027
G01 X6.47301 Y-8.08490
G01 X6.41170 Y-8.28053
G01 X6.40273 Y-8.32571
G01 X6.40273 Y-10.43132
G01 X6.47494 Y-10.56648
G01 X6.52907 Y-10.64748
G01 X6.63478 Y-10.77631
G01 X6.70367 Y-10.84519
G01 X6.83250 Y-10.95088
G01 X6.91350 Y-11.00501
G01 X7.06044 Y-11.08357
G01 X7.15046 Y-11.12083
G01 X7.30989 Y-11.16922
G01 X7.40545 Y-11.18822
G01 X7.62000 Y-11.20694
G01 X7.83453 Y-11.18822
G01 X7.93008 Y-11.16922
G01 X8.08952 Y-11.12083
G01 X8.17954 Y-11.08357
G01 X8.32648 Y-11.00501
G01 X8.40748 Y-10.95088
G01 X8.57242 Y-10.81242
G01 X8.71088 Y-10.64748
G01 X8.76501 Y-10.56648
G01 X8.84357 Y-10.41954
G01 X8.88086 Y-10.32952
G01 X8.92922 Y-10.17008
G01 X8.94105 Y-10.12276
G01 X8.95317 Y-10.02436
G01 X8.76813 Y-9.83010
G01 X8.67781 Y-9.71547
G01 X8.64413 Y-9.66523
G01 X8.59417 Y-9.57806
G01 X8.54499 Y-9.46287
G01 X8.59297 Y-9.57570
G01 X8.65048 Y-9.67483
G01 X8.64961 Y-9.87768
G01 X8.63328 Y-10.04352
G01 X8.62637 Y-10.07821
G01 X8.57801 Y-10.23767
G01 X8.56447 Y-10.27036
G01 X8.47682 Y-10.43249
G01 X8.34865 Y-10.58865
G01 X8.20671 Y-10.70625
G01 X8.17730 Y-10.72591
G01 X8.01433 Y-10.81204
G01 X7.83821 Y-10.86637
G01 X7.80351 Y-10.87328
G01 X7.62000 Y-10.89048
G01 X7.43646 Y-10.87328
G01 X7.40176 Y-10.86637
G01 X7.24230 Y-10.81801
G01 X7.20961 Y-10.80447
G01 X7.04748 Y-10.71682
G01 X6.89132 Y-10.58865
G01 X6.77372 Y-10.44672
G01 X6.75406 Y-10.41730
G01 X6.67550 Y-10.27036
G01 X6.66196 Y-10.23767
G01 X6.61360 Y-10.07821
G01 X6.60669 Y-10.04352
G01 X6.59036 Y-9.87768
G01 X6.58950 Y-8.55998
G01 X6.60669 Y-8.37646
G01 X6.61360 Y-8.34177
G01 X6.66196 Y-8.18231
G01 X6.67550 Y-8.14962
G01 X6.76316 Y-7.98749
G01 X6.87944 Y-7.84443
G01 X6.90446 Y-7.81942
G01 X7.04748 Y-7.70316
G01 X7.20961 Y-7.61550
G01 X7.24230 Y-7.60197
G01 X7.40176 Y-7.55360
G01 X7.43646 Y-7.54670
G01 X7.62000 Y-7.52950
G01 X7.80351 Y-7.54670
G01 X7.83821 Y-7.55360
G01 X7.99767 Y-7.60197
G01 X8.03036 Y-7.61550
G01 X8.19249 Y-7.70316
G01 X8.33552 Y-7.81942
G01 X8.36054 Y-7.84443
G01 X8.47682 Y-7.98749
G01 X8.56447 Y-8.14962
G01 X8.57801 Y-8.18231
G01 X8.62637 Y-8.34177
G01 X8.63328 Y-8.37646
G01 X8.64961 Y-8.54230
G01 X8.65048 Y-8.69711
G01 X8.54499 Y-8.95706
G01 X8.71540 Y-8.54039
G01 X8.78799 Y-8.33976
G01 X8.81339 Y-8.25558
G01 X8.86442 Y-8.04454
G01 X8.73994 Y-7.81167
G01 X8.60519 Y-7.64367
G01 X8.53631 Y-7.57479
G01 X8.36831 Y-7.44004
G01 X8.17954 Y-7.33641
G01 X8.08952 Y-7.29912
G01 X7.93008 Y-7.25076
G01 X7.83453 Y-7.23176
G01 X7.66869 Y-7.21543
G01 X7.57128 Y-7.21543
G01 X7.40545 Y-7.23176
G01 X7.30989 Y-7.25076
G01 X7.15046 Y-7.29912
G01 X7.06044 Y-7.33641
G01 X6.87167 Y-7.44004
G01 X6.70367 Y-7.57479
G01 X6.63478 Y-7.64367
G01 X6.52907 Y-7.77248
G01 X6.47494 Y-7.85348
G01 X6.40273 Y-7.98863
G01 X6.40273 Y-8.32571
G01 X6.48401 Y-8.55998
G01 X6.69498 Y-8.55998
G01 X6.71454 Y-8.37240
G01 X6.76854 Y-8.19935
G01 X6.85526 Y-8.04017
G01 X6.96097 Y-7.91136
G01 X7.10016 Y-7.79526
G01 X7.27293 Y-7.70293
G01 X7.43953 Y-7.65277
G01 X7.61263 Y-7.63534
G01 X7.80758 Y-7.65454
G01 X7.98063 Y-7.70854
G01 X8.13981 Y-7.79526
G01 X8.27900 Y-7.91136
G01 X8.38909 Y-8.04608
G01 X8.47143 Y-8.19935
G01 X8.52543 Y-8.37240
G01 X8.54499 Y-8.55998
G01 X8.54499 Y-9.85998
G01 X8.52721 Y-10.04044
G01 X8.47143 Y-10.22063
G01 X8.38909 Y-10.37389
G01 X8.27405 Y-10.51405
G01 X8.13981 Y-10.62472
G01 X7.97397 Y-10.71458
G01 X7.79318 Y-10.76830
G01 X7.62000 Y-10.78499
G01 X7.43953 Y-10.76721
G01 X7.27293 Y-10.71705
G01 X7.10608 Y-10.62909
G01 X6.96097 Y-10.50861
G01 X6.85526 Y-10.37981
G01 X6.76854 Y-10.22063
G01 X6.71454 Y-10.04758
G01 X6.69498 Y-9.85998
G01 X6.69498 Y-8.55998
G01 X6.29722 Y-8.32559
G01 X6.28828 Y-8.28053
G01 X6.23989 Y-8.12107
G01 X6.21053 Y-8.05017
G01 X6.13199 Y-7.90321
G01 X6.08935 Y-7.83941
G01 X5.98363 Y-7.71060
G01 X5.92938 Y-7.65635
G01 X5.80057 Y-7.55063
G01 X5.73677 Y-7.50799
G01 X5.55508 Y-7.41302
G01 X5.35945 Y-7.35170
G01 X5.28419 Y-7.33674
G01 X5.08000 Y-7.31853
G01 X4.99331 Y-7.32516
G01 X4.87578 Y-7.33674
G01 X4.80052 Y-7.35170
G01 X4.64106 Y-7.40009
G01 X4.57017 Y-7.42945
G01 X4.39026 Y-7.52775
G01 X4.23060 Y-7.65635
G01 X4.17634 Y-7.71060
G01 X4.04774 Y-7.87027
G01 X3.94945 Y-8.05017
G01 X3.92008 Y-8.12107
G01 X3.87170 Y-8.28053
G01 X3.85674 Y-8.35579
G01 X3.83852 Y-8.56450
G01 X3.86227 Y-8.59119
G01 X3.83852 Y-8.56450
G01 X1.91546 Y-8.56450
G01 X1.88455 Y-8.59541
G01 X1.91546 Y-8.56450
G01 X1.91546 Y-6.82727
G01 X1.89837 Y-6.81617
G01 X1.91546 Y-6.82727
G01 X2.00020 Y-6.79371
G01 X2.04340 Y-6.77060
G01 X2.10723 Y-6.72795
G01 X2.17358 Y-6.67108
G01 X2.23048 Y-6.60474
G01 X2.27310 Y-6.54091
G01 X2.31262 Y-6.46298
G01 X2.32557 Y-6.42678
G01 X2.34912 Y-6.34263
G01 X2.36146 Y-6.21749
G01 X2.36146 Y-5.69250
G01 X2.34912 Y-5.56735
G01 X2.32557 Y-5.48317
G01 X2.29621 Y-5.41228
G01 X2.27310 Y-5.36905
G01 X2.25336 Y-5.33611
G01 X2.19936 Y-5.26738
G01 X2.14511 Y-5.21310
G01 X2.07637 Y-5.15912
G01 X2.00020 Y-5.11627
G01 X1.95252 Y-5.09521
G01 X0.58745 Y-5.09521
G01 X0.49657 Y-5.13939
G01 X0.43274 Y-5.18201
G01 X0.39487 Y-5.21310
G01 X0.34061 Y-5.26738
G01 X0.28661 Y-5.33611
G01 X0.26688 Y-5.36905
G01 X0.24376 Y-5.41228
G01 X0.21440 Y-5.48317
G01 X0.20018 Y-5.53009
G01 X0.18522 Y-5.60535
G01 X0.17851 Y-5.69250
G01 X0.17851 Y-6.21749
G01 X0.18522 Y-6.30464
G01 X0.20018 Y-6.37987
G01 X0.21440 Y-6.42678
G01 X0.24376 Y-6.49770
G01 X0.26688 Y-6.54091
G01 X0.30950 Y-6.60474
G01 X0.36639 Y-6.67108
G01 X0.39487 Y-6.69686
G01 X0.43274 Y-6.72795
G01 X0.49657 Y-6.77060
G01 X0.57450 Y-6.81012
G01 X0.61067 Y-6.82307
G01 X0.62451 Y-6.82727
G01 X0.64160 Y-6.81617
G01 X0.62451 Y-6.82727
G01 X0.62451 Y-8.75327
G01 X0.62817 Y-8.75424
G01 X0.62451 Y-8.75327
G01 X0.61191 Y-8.77026
G01 X0.55519 Y-8.87237
G01 X0.52583 Y-8.94329
G01 X0.50307 Y-9.01832
G01 X0.48809 Y-9.09358
G01 X0.48042 Y-9.17161
G01 X0.48042 Y-9.24837
G01 X0.49373 Y-9.36440
G01 X0.52583 Y-9.47669
G01 X0.55519 Y-9.54761
G01 X0.61191 Y-9.64971
G01 X0.71034 Y-9.76963
G01 X0.79941 Y-9.84519
G01 X0.86322 Y-9.88781
G01 X0.96710 Y-9.94120
G01 X1.07831 Y-9.97692
G01 X1.15359 Y-9.99188
G01 X1.27000 Y-10.00145
G01 X1.38638 Y-9.99188
G01 X1.46167 Y-9.97692
G01 X1.53670 Y-9.95416
G01 X1.60759 Y-9.92480
G01 X1.67676 Y-9.88781
G01 X1.70970 Y-9.86808
G01 X1.72672 Y-9.85545
G01 X1.72598 Y-9.85243
G01 X1.72672 Y-9.85545
G01 X3.83852 Y-9.85545
G01 X3.86339 Y-9.82805
G01 X3.83852 Y-9.85545
G01 X3.83852 Y-9.85998
G01 X3.85674 Y-10.06419
G01 X3.87170 Y-10.13945
G01 X3.92008 Y-10.29891
G01 X3.94945 Y-10.36980
G01 X4.02798 Y-10.51677
G01 X4.07063 Y-10.58057
G01 X4.20213 Y-10.73785
G01 X4.35940 Y-10.86935
G01 X4.42321 Y-10.91199
G01 X4.60489 Y-11.00696
G01 X4.80052 Y-11.06828
G01 X4.87578 Y-11.08324
G01 X5.08000 Y-11.10145
G01 X5.28419 Y-11.08324
G01 X5.35945 Y-11.06828
G01 X5.55508 Y-11.00696
G01 X5.73677 Y-10.91199
G01 X5.80057 Y-10.86935
G01 X5.95785 Y-10.73785
G01 X6.08935 Y-10.58057
G01 X6.13199 Y-10.51677
G01 X6.22696 Y-10.33508
G01 X6.28828 Y-10.13945
G01 X6.29722 Y-10.09439
G01 X6.29722 Y-10.43137
G01 X6.22501 Y-10.56648
G01 X6.17088 Y-10.64748
G01 X6.06519 Y-10.77631
G01 X5.99630 Y-10.84519
G01 X5.86748 Y-10.95088
G01 X5.78648 Y-11.00501
G01 X5.59544 Y-11.10442
G01 X5.39008 Y-11.16922
G01 X5.29453 Y-11.18822
G01 X5.12869 Y-11.20455
G01 X5.03128 Y-11.20455
G01 X4.86545 Y-11.18822
G01 X4.76989 Y-11.16922
G01 X4.56453 Y-11.10442
G01 X4.37350 Y-11.00501
G01 X4.29250 Y-10.95088
G01 X4.12755 Y-10.81242
G01 X3.98910 Y-10.64748
G01 X3.93497 Y-10.56648
G01 X3.83555 Y-10.37544
G01 X3.75892 Y-10.12276
G01 X3.74056 Y-9.96094
G01 X3.76451 Y-9.93412
G01 X3.74056 Y-9.96094
G01 X1.75971 Y-9.96094
G01 X1.75885 Y-9.95756
G01 X1.75971 Y-9.96094
G01 X1.72649 Y-9.98085
G01 X1.65732 Y-10.01781
G01 X1.56733 Y-10.05510
G01 X1.49228 Y-10.07786
G01 X1.39675 Y-10.09686
G01 X1.27000 Y-10.10694
G01 X1.14323 Y-10.09686
G01 X1.04770 Y-10.07786
G01 X0.97264 Y-10.05510
G01 X0.92674 Y-10.03866
G01 X0.81349 Y-9.98085
G01 X0.73249 Y-9.92673
G01 X0.67188 Y-9.87699
G01 X0.60300 Y-9.80811
G01 X0.52421 Y-9.70831
G01 X0.46215 Y-9.59731
G01 X0.42487 Y-9.50732
G01 X0.39027 Y-9.38497
G01 X0.37541 Y-9.25871
G01 X0.37541 Y-9.16127
G01 X0.39027 Y-9.03501
G01 X0.42487 Y-8.91266
G01 X0.46215 Y-8.82264
G01 X0.49911 Y-8.75350
G01 X0.51902 Y-8.72028
G01 X0.52240 Y-8.72117
G01 X0.51902 Y-8.72028
G01 X0.51902 Y-6.90044
G01 X0.53284 Y-6.89257
G01 X0.51902 Y-6.90044
G01 X0.44684 Y-6.86364
G01 X0.36584 Y-6.80951
G01 X0.29182 Y-6.74566
G01 X0.22797 Y-6.67164
G01 X0.17384 Y-6.59061
G01 X0.12990 Y-6.50334
G01 X0.09924 Y-6.41053
G01 X0.08024 Y-6.31497
G01 X0.07541 Y-6.26621
G01 X0.07302 Y-5.69250
G01 X0.49500 Y-5.69250
G01 X0.49500 Y-6.21749
G01 X0.50302 Y-6.28802
G01 X0.52288 Y-6.34850
G01 X0.55415 Y-6.40395
G01 X0.59563 Y-6.45223
G01 X0.64574 Y-6.49150
G01 X0.69560 Y-6.51774
G01 X0.76385 Y-6.53733
G01 X0.81999 Y-6.54246
G01 X0.94099 Y-6.54246
G01 X0.94099 Y-8.86800
G01 X0.87942 Y-8.94019
G01 X0.83114 Y-9.02820
G01 X0.80411 Y-9.11733
G01 X0.79535 Y-9.21733
G01 X0.80589 Y-9.30979
G01 X0.83114 Y-9.39175
G01 X0.87125 Y-9.46757
G01 X0.93957 Y-9.55081
G01 X1.01239 Y-9.60872
G01 X1.08156 Y-9.64568
G01 X1.18461 Y-9.67694
G01 X1.27000 Y-9.68499
G01 X1.36980 Y-9.67407
G01 X1.44483 Y-9.65131
G01 X1.52758 Y-9.60872
G01 X1.61199 Y-9.53897
G01 X4.15498 Y-9.53897
G01 X4.15498 Y-9.85998
G01 X4.17454 Y-10.04758
G01 X4.22854 Y-10.22063
G01 X4.31526 Y-10.37981
G01 X4.42097 Y-10.50861
G01 X4.57241 Y-10.63287
G01 X4.72600 Y-10.71458
G01 X4.89240 Y-10.76543
G01 X5.08000 Y-10.78499
G01 X5.26758 Y-10.76543
G01 X5.44063 Y-10.71143
G01 X5.59981 Y-10.62472
G01 X5.72861 Y-10.51900
G01 X5.84472 Y-10.37981
G01 X5.93705 Y-10.20704
G01 X5.98721 Y-10.04044
G01 X6.00499 Y-9.85998
G01 X6.00464 Y-8.55264
G01 X5.98721 Y-8.37954
G01 X5.93143 Y-8.19935
G01 X5.84909 Y-8.04608
G01 X5.72861 Y-7.90097
G01 X5.59389 Y-7.79087
G01 X5.43397 Y-7.70539
G01 X5.25318 Y-7.65167
G01 X5.07263 Y-7.63534
G01 X4.89240 Y-7.65454
G01 X4.72600 Y-7.70539
G01 X4.57241 Y-7.78711
G01 X4.43136 Y-7.90097
G01 X4.31089 Y-8.04608
G01 X4.22854 Y-8.19935
G01 X4.17276 Y-8.37954
G01 X4.15498 Y-8.55998
G01 X4.15498 Y-8.88098
G01 X1.61196 Y-8.88098
G01 X1.59893 Y-8.86800
G01 X1.59893 Y-6.54246
G01 X1.71999 Y-6.54246
G01 X1.77612 Y-6.53733
G01 X1.84437 Y-6.51774
G01 X1.89423 Y-6.49150
G01 X1.94434 Y-6.45223
G01 X1.98582 Y-6.40395
G01 X2.01709 Y-6.34850
G01 X2.03873 Y-6.28089
G01 X2.04498 Y-6.21749
G01 X2.04498 Y-5.69250
G01 X2.03873 Y-5.62907
G01 X2.02273 Y-5.57505
G01 X1.99400 Y-5.51825
G01 X1.94434 Y-5.45772
G01 X1.90645 Y-5.42663
G01 X1.85102 Y-5.39537
G01 X1.78338 Y-5.37373
G01 X1.71999 Y-5.36748
G01 X0.81999 Y-5.36748
G01 X0.75659 Y-5.37373
G01 X0.70254 Y-5.38975
G01 X0.63353 Y-5.42663
G01 X0.59563 Y-5.45772
G01 X0.55415 Y-5.50601
G01 X0.52288 Y-5.56146
G01 X0.50302 Y-5.62193
G01 X0.49500 Y-5.69250
G01 X0.38951 Y-5.69250
G01 X0.39517 Y-5.62602
G01 X0.41631 Y-5.54441
G01 X0.45293 Y-5.46852
G01 X0.47259 Y-5.43911
G01 X0.52870 Y-5.37619
G01 X0.59601 Y-5.32544
G01 X0.65524 Y-5.29476
G01 X0.71882 Y-5.27456
G01 X0.75352 Y-5.26768
G01 X0.81999 Y-5.26199
G01 X1.71999 Y-5.26199
G01 X1.80398 Y-5.27027
G01 X1.86804 Y-5.28879
G01 X1.90073 Y-5.30235
G01 X1.95915 Y-5.33456
G01 X2.01127 Y-5.37619
G01 X2.03629 Y-5.40121
G01 X2.08704 Y-5.46852
G01 X2.12367 Y-5.54441
G01 X2.13789 Y-5.59133
G01 X2.14480 Y-5.62602
G01 X2.15047 Y-5.69250
G01 X2.15047 Y-6.21749
G01 X2.14221 Y-6.30146
G01 X2.11770 Y-6.38223
G01 X2.08704 Y-6.44147
G01 X2.03629 Y-6.50878
G01 X2.01127 Y-6.53379
G01 X1.94396 Y-6.58454
G01 X1.88473 Y-6.61518
G01 X1.82115 Y-6.63539
G01 X1.78646 Y-6.64230
G01 X1.70447 Y-6.64797
G01 X1.67747 Y-6.62371
G01 X1.70447 Y-6.64797
G01 X1.70447 Y-8.77550
G01 X1.67358 Y-8.80638
G01 X1.70447 Y-8.77550
G01 X4.04950 Y-8.77550
G01 X4.08038 Y-8.80638
G01 X4.04950 Y-8.77550
G01 X4.04950 Y-8.55998
G01 X4.06931 Y-8.35894
G01 X4.12196 Y-8.18231
G01 X4.13550 Y-8.14962
G01 X4.21406 Y-8.00268
G01 X4.23372 Y-7.97326
G01 X4.33944 Y-7.84443
G01 X4.36446 Y-7.81942
G01 X4.50748 Y-7.70316
G01 X4.66961 Y-7.61550
G01 X4.70230 Y-7.60197
G01 X4.86176 Y-7.55360
G01 X4.89646 Y-7.54670
G01 X5.06230 Y-7.53036
G01 X5.09768 Y-7.53036
G01 X5.26351 Y-7.54670
G01 X5.29821 Y-7.55360
G01 X5.47433 Y-7.60793
G01 X5.65249 Y-7.70316
G01 X5.79552 Y-7.81942
G01 X5.82054 Y-7.84443
G01 X5.93682 Y-7.98749
G01 X6.02447 Y-8.14962
G01 X6.03801 Y-8.18231
G01 X6.09067 Y-8.35894
G01 X6.10961 Y-8.54230
G01 X6.11048 Y-9.85998
G01 X6.09067 Y-10.06102
G01 X6.03801 Y-10.23767
G01 X6.02447 Y-10.27036
G01 X5.94591 Y-10.41730
G01 X5.92625 Y-10.44672
G01 X5.82054 Y-10.57552
G01 X5.79552 Y-10.60054
G01 X5.66671 Y-10.70625
G01 X5.63730 Y-10.72591
G01 X5.49036 Y-10.80447
G01 X5.45767 Y-10.81801
G01 X5.29821 Y-10.86637
G01 X5.26351 Y-10.87328
G01 X5.08000 Y-10.89048
G01 X4.89646 Y-10.87328
G01 X4.86176 Y-10.86637
G01 X4.68564 Y-10.81204
G01 X4.52267 Y-10.72591
G01 X4.49326 Y-10.70625
G01 X4.35132 Y-10.58865
G01 X4.23372 Y-10.44672
G01 X4.21406 Y-10.41730
G01 X4.13550 Y-10.27036
G01 X4.12196 Y-10.23767
G01 X4.07360 Y-10.07821
G01 X4.06669 Y-10.04352
G01 X4.05036 Y-9.87768
G01 X4.04950 Y-9.64446
G01 X4.07756 Y-9.61514
G01 X4.04950 Y-9.64446
G01 X1.65252 Y-9.64446
G01 X1.65128 Y-9.64009
G01 X1.65252 Y-9.64446
G01 X1.59248 Y-9.69264
G01 X1.50815 Y-9.73872
G01 X1.47546 Y-9.75225
G01 X1.36571 Y-9.78192
G01 X1.27000 Y-9.79048
G01 X1.17427 Y-9.78192
G01 X1.13955 Y-9.77501
G01 X1.04785 Y-9.74628
G01 X0.96269 Y-9.70176
G01 X0.87264 Y-9.63234
G01 X0.84762 Y-9.60732
G01 X0.77823 Y-9.51730
G01 X0.72771 Y-9.41545
G01 X0.70066 Y-9.32325
G01 X0.69037 Y-9.22767
G01 X0.69037 Y-9.19229
G01 X0.70066 Y-9.09673
G01 X0.72771 Y-9.00453
G01 X0.74125 Y-8.97184
G01 X0.78732 Y-8.88749
G01 X0.83551 Y-8.82741
G01 X0.83988 Y-8.82871
G01 X0.83551 Y-8.82741
G01 X0.83551 Y-6.64797
G01 X0.85999 Y-6.62752
G01 X0.83551 Y-6.64797
G01 X0.80228 Y-6.64710
G01 X0.71882 Y-6.63539
G01 X0.65524 Y-6.61518
G01 X0.59601 Y-6.58454
G01 X0.52870 Y-6.53379
G01 X0.50368 Y-6.50878
G01 X0.45293 Y-6.44147
G01 X0.42228 Y-6.38223
G01 X0.40208 Y-6.31866
G01 X0.39037 Y-6.23517
G01 X0.38951 Y-5.69250
G01 X0.28400 Y-5.69250
G01 X0.29019 Y-5.61569
G01 X0.30112 Y-5.56069
G01 X0.31534 Y-5.51381
G01 X0.33680 Y-5.46202
G01 X0.37435 Y-5.39471
G01 X0.42215 Y-5.33428
G01 X0.46180 Y-5.29466
G01 X0.49967 Y-5.26357
G01 X0.54628 Y-5.23240
G01 X0.61488 Y-5.19730
G01 X0.64130 Y-5.18785
G01 X0.71542 Y-5.16682
G01 X0.81999 Y-5.15650
G01 X1.71999 Y-5.15650
G01 X1.82456 Y-5.16682
G01 X1.89868 Y-5.18785
G01 X1.95047 Y-5.20931
G01 X2.01775 Y-5.24683
G01 X2.07818 Y-5.29466
G01 X2.11783 Y-5.33428
G01 X2.16563 Y-5.39471
G01 X2.20317 Y-5.46202
G01 X2.22463 Y-5.51381
G01 X2.24566 Y-5.58792
G01 X2.25598 Y-5.69250
G01 X2.25598 Y-6.21749
G01 X2.24566 Y-6.32206
G01 X2.22463 Y-6.39618
G01 X2.20317 Y-6.44797
G01 X2.18006 Y-6.49117
G01 X2.14892 Y-6.53781
G01 X2.09898 Y-6.59648
G01 X2.04031 Y-6.64642
G01 X1.99370 Y-6.67756
G01 X1.95047 Y-6.70067
G01 X1.89868 Y-6.72211
G01 X1.80995 Y-6.74467
G01 X1.78948 Y-6.72963
G01 X1.80995 Y-6.74467
G01 X1.80998 Y-8.66999
G01 X1.77907 Y-8.70090
G01 X1.80998 Y-8.66999
G01 X3.94401 Y-8.66999
G01 X3.96984 Y-8.69798
G01 X3.94401 Y-8.66999
G01 X3.94538 Y-8.53196
G01 X3.96583 Y-8.33836
G01 X4.02102 Y-8.15170
G01 X4.04249 Y-8.09991
G01 X4.13545 Y-7.92886
G01 X4.25788 Y-7.77753
G01 X4.29753 Y-7.73788
G01 X4.44886 Y-7.61545
G01 X4.64528 Y-7.51048
G01 X4.83116 Y-7.45266
G01 X4.88612 Y-7.44172
G01 X5.05196 Y-7.42539
G01 X5.10802 Y-7.42539
G01 X5.27385 Y-7.44172
G01 X5.32882 Y-7.45266
G01 X5.48828 Y-7.50103
G01 X5.54007 Y-7.52249
G01 X5.68703 Y-7.60103
G01 X5.73364 Y-7.63217
G01 X5.86245 Y-7.73788
G01 X5.90210 Y-7.77753
G01 X6.02452 Y-7.92886
G01 X6.11749 Y-8.09991
G01 X6.13895 Y-8.15170
G01 X6.18731 Y-8.31113
G01 X6.19826 Y-8.36612
G01 X6.21596 Y-8.55998
G01 X6.21596 Y-9.85998
G01 X6.19415 Y-10.08162
G01 X6.13895 Y-10.26828
G01 X6.11749 Y-10.32007
G01 X6.03895 Y-10.46704
G01 X6.00781 Y-10.51364
G01 X5.90210 Y-10.64245
G01 X5.86245 Y-10.68210
G01 X5.73364 Y-10.78781
G01 X5.68703 Y-10.81895
G01 X5.51470 Y-10.90950
G01 X5.32882 Y-10.96731
G01 X5.27385 Y-10.97826
G01 X5.08000 Y-10.99596
G01 X4.88612 Y-10.97826
G01 X4.83116 Y-10.96731
G01 X4.64528 Y-10.90950
G01 X4.47294 Y-10.81895
G01 X4.42633 Y-10.78781
G01 X4.27672 Y-10.66325
G01 X4.13545 Y-10.49111
G01 X4.04249 Y-10.32007
G01 X4.02102 Y-10.26828
G01 X3.96583 Y-10.08162
G01 X3.94538 Y-9.88802
G01 X3.94401 Y-9.74994
G01 X3.97068 Y-9.72147
G01 X3.94401 Y-9.74994
G01 X1.69032 Y-9.74994
G01 X1.68918 Y-9.74595
G01 X1.69032 Y-9.74994
G01 X1.67363 Y-9.76363
G01 X1.62702 Y-9.79477
G01 X1.55786 Y-9.83176
G01 X1.50607 Y-9.85319
G01 X1.43104 Y-9.87598
G01 X1.37604 Y-9.88690
G01 X1.27000 Y-9.89597
G01 X1.16393 Y-9.88690
G01 X1.10894 Y-9.87598
G01 X1.00747 Y-9.84374
G01 X0.91295 Y-9.79477
G01 X0.86634 Y-9.76363
G01 X0.78494 Y-9.69505
G01 X0.71633 Y-9.61365
G01 X0.68519 Y-9.56704
G01 X0.64823 Y-9.49787
G01 X0.62677 Y-9.44608
G01 X0.59718 Y-9.34382
G01 X0.58539 Y-9.23803
G01 X0.58539 Y-9.18195
G01 X0.59718 Y-9.07616
G01 X0.62677 Y-8.97390
G01 X0.64823 Y-8.92211
G01 X0.68519 Y-8.85294
G01 X0.71633 Y-8.80633
G01 X0.73000 Y-8.78967
G01 X0.73401 Y-8.79081
G01 X0.73000 Y-8.78967
G01 X0.73002 Y-6.74467
G01 X0.75151 Y-6.72833
G01 X0.73002 Y-6.74467
G01 X0.68819 Y-6.73636
G01 X0.61488 Y-6.71266
G01 X0.54628 Y-6.67756
G01 X0.49967 Y-6.64642
G01 X0.44099 Y-6.59648
G01 X0.39106 Y-6.53781
G01 X0.35992 Y-6.49117
G01 X0.32482 Y-6.42259
G01 X0.31534 Y-6.39618
G01 X0.30112 Y-6.34926
G01 X0.29019 Y-6.29430
G01 X0.28539 Y-6.24553
G01 X0.28400 Y-5.69250
G01 X0.07302 Y-5.69250
G01 X0.08024 Y-5.59501
G01 X0.09924 Y-5.49946
G01 X0.11346 Y-5.45257
G01 X0.15075 Y-5.36255
G01 X0.19888 Y-5.27751
G01 X0.25905 Y-5.20045
G01 X0.32794 Y-5.13156
G01 X0.37368 Y-5.09521
G01 X2.16629 Y-5.09521
G01 X2.21204 Y-5.13156
G01 X2.28092 Y-5.20045
G01 X2.34107 Y-5.27751
G01 X2.38923 Y-5.36255
G01 X2.42651 Y-5.45257
G01 X2.44074 Y-5.49946
G01 X2.45260 Y-5.54675
G01 X2.46456 Y-5.64378
G01 X2.46695 Y-6.21749
G01 X2.45974 Y-6.31497
G01 X2.44074 Y-6.41053
G01 X2.41008 Y-6.50334
G01 X2.36614 Y-6.59061
G01 X2.31201 Y-6.67164
G01 X2.24815 Y-6.74566
G01 X2.17414 Y-6.80951
G01 X2.09314 Y-6.86364
G01 X2.04993 Y-6.88673
G01 X2.02095 Y-6.90044
G01 X2.00713 Y-6.89257
G01 X2.02095 Y-6.90044
G01 X2.02095 Y-8.45901
G01 X1.99004 Y-8.48992
G01 X2.02095 Y-8.45901
G01 X3.74058 Y-8.45901
G01 X3.76286 Y-8.48477
G01 X3.74058 Y-8.45901
G01 X3.75176 Y-8.34545
G01 X3.77076 Y-8.24989
G01 X3.81912 Y-8.09046
G01 X3.85641 Y-8.00044
G01 X3.96004 Y-7.81167
G01 X4.09478 Y-7.64367
G01 X4.16367 Y-7.57479
G01 X4.33167 Y-7.44004
G01 X4.52044 Y-7.33641
G01 X4.61046 Y-7.29912
G01 X4.76989 Y-7.25076
G01 X4.86545 Y-7.23176
G01 X5.08000 Y-7.21304
G01 X5.29453 Y-7.23176
G01 X5.39008 Y-7.25076
G01 X5.54952 Y-7.29912
G01 X5.63954 Y-7.33641
G01 X5.82831 Y-7.44004
G01 X5.99630 Y-7.57479
G01 X6.06519 Y-7.64367
G01 X6.19994 Y-7.81167
G01 X6.29722 Y-7.98860
G01 X6.29722 Y-15.17439
G01 X2.08991 Y-18.40474
G01 X2.16710 Y-18.40474
G01 X2.21204 Y-18.36842
G01 X2.28092 Y-18.29953
G01 X2.31201 Y-18.26163
G01 X2.36614 Y-18.18063
G01 X2.41008 Y-18.09333
G01 X2.42651 Y-18.04741
G01 X2.45260 Y-17.95320
G01 X2.46456 Y-17.85620
G01 X2.46695 Y-17.28249
G01 X2.45260 Y-17.13677
G01 X2.42651 Y-17.04256
G01 X2.41008 Y-16.99664
G01 X2.36614 Y-16.90934
G01 X2.31201 Y-16.82834
G01 X2.28092 Y-16.79044
G01 X2.21204 Y-16.72156
G01 X2.13497 Y-16.66141
G01 X2.04993 Y-16.61325
G01 X2.02095 Y-16.60124
G01 X2.00690 Y-16.60931
G01 X2.02095 Y-16.60124
G01 X2.02095 Y-15.04094
G01 X1.99004 Y-15.01003
G01 X2.02095 Y-15.04094
G01 X3.74056 Y-15.04094
G01 X3.76451 Y-15.01412
G01 X3.74056 Y-15.04094
G01 X3.75892 Y-15.20276
G01 X3.83555 Y-15.45544
G01 X3.96004 Y-15.68831
G01 X4.09478 Y-15.85631
G01 X4.16367 Y-15.92519
G01 X4.33167 Y-16.05994
G01 X4.52044 Y-16.16357
G01 X4.61046 Y-16.20083
G01 X4.76989 Y-16.24922
G01 X4.86545 Y-16.26822
G01 X5.08000 Y-16.28694
G01 X5.29453 Y-16.26822
G01 X5.39008 Y-16.24922
G01 X5.54952 Y-16.20083
G01 X5.63954 Y-16.16357
G01 X5.78648 Y-16.08501
G01 X5.86748 Y-16.03088
G01 X5.99630 Y-15.92519
G01 X6.06519 Y-15.85631
G01 X6.17088 Y-15.72748
G01 X6.22501 Y-15.64648
G01 X6.29722 Y-15.51137
G01 X6.29722 Y-15.17439
G01 X6.28828 Y-15.21945
G01 X6.22696 Y-15.41508
G01 X6.13199 Y-15.59677
G01 X6.08935 Y-15.66057
G01 X5.95785 Y-15.81785
G01 X5.80057 Y-15.94935
G01 X5.73677 Y-15.99199
G01 X5.58980 Y-16.07053
G01 X5.51891 Y-16.09989
G01 X5.32219 Y-16.15760
G01 X5.08000 Y-16.18145
G01 X4.87578 Y-16.16324
G01 X4.80052 Y-16.14828
G01 X4.60489 Y-16.08696
G01 X4.39026 Y-15.97223
G01 X4.23060 Y-15.84363
G01 X4.17634 Y-15.78938
G01 X4.07063 Y-15.66057
G01 X4.02798 Y-15.59677
G01 X3.94945 Y-15.44980
G01 X3.92008 Y-15.37891
G01 X3.87170 Y-15.21945
G01 X3.85674 Y-15.14419
G01 X3.83852 Y-14.93998
G01 X3.83852 Y-14.93545
G01 X3.86339 Y-14.90805
G01 X3.83852 Y-14.93545
G01 X1.91546 Y-14.93545
G01 X1.88455 Y-14.90454
G01 X1.91546 Y-14.93545
G01 X1.91546 Y-16.67271
G01 X1.89913 Y-16.68302
G01 X1.91546 Y-16.67271
G01 X2.00020 Y-16.70627
G01 X2.07637 Y-16.74912
G01 X2.14511 Y-16.80309
G01 X2.19936 Y-16.85737
G01 X2.23048 Y-16.89524
G01 X2.27310 Y-16.95905
G01 X2.31262 Y-17.03700
G01 X2.33980 Y-17.12008
G01 X2.35476 Y-17.19534
G01 X2.36146 Y-17.28249
G01 X2.36146 Y-17.80748
G01 X2.34912 Y-17.93263
G01 X2.31262 Y-18.05297
G01 X2.27310 Y-18.13093
G01 X2.23048 Y-18.19473
G01 X2.19936 Y-18.23260
G01 X2.14511 Y-18.28688
G01 X2.07637 Y-18.34086
G01 X2.00020 Y-18.38371
G01 X1.94940 Y-18.40474
G01 X0.59055 Y-18.40474
G01 X0.53978 Y-18.38371
G01 X0.46360 Y-18.34086
G01 X0.39487 Y-18.28688
G01 X0.34061 Y-18.23260
G01 X0.30950 Y-18.19473
G01 X0.26688 Y-18.13093
G01 X0.22736 Y-18.05297
G01 X0.19086 Y-17.93263
G01 X0.17851 Y-17.80748
G01 X0.17851 Y-17.28249
G01 X0.18522 Y-17.19534
G01 X0.20018 Y-17.12008
G01 X0.22736 Y-17.03700
G01 X0.26688 Y-16.95905
G01 X0.30950 Y-16.89524
G01 X0.34061 Y-16.85737
G01 X0.39487 Y-16.80309
G01 X0.43274 Y-16.77200
G01 X0.49657 Y-16.72938
G01 X0.53978 Y-16.70627
G01 X0.61067 Y-16.67690
G01 X0.62451 Y-16.67271
G01 X0.64084 Y-16.68302
G01 X0.62451 Y-16.67271
G01 X0.62451 Y-14.74671
G01 X0.62817 Y-14.74572
G01 X0.62451 Y-14.74671
G01 X0.61191 Y-14.72971
G01 X0.55519 Y-14.62761
G01 X0.52583 Y-14.55669
G01 X0.50307 Y-14.48166
G01 X0.48809 Y-14.40640
G01 X0.48042 Y-14.32837
G01 X0.48042 Y-14.25161
G01 X0.48809 Y-14.17358
G01 X0.50307 Y-14.09832
G01 X0.52583 Y-14.02329
G01 X0.55519 Y-13.95237
G01 X0.59215 Y-13.88323
G01 X0.63480 Y-13.81940
G01 X0.71034 Y-13.73033
G01 X0.79941 Y-13.65479
G01 X0.86322 Y-13.61216
G01 X0.96710 Y-13.55877
G01 X1.07831 Y-13.52306
G01 X1.15359 Y-13.50810
G01 X1.23162 Y-13.50040
G01 X1.30835 Y-13.50040
G01 X1.38638 Y-13.50810
G01 X1.46167 Y-13.52306
G01 X1.53670 Y-13.54582
G01 X1.60759 Y-13.57518
G01 X1.67676 Y-13.61216
G01 X1.72517 Y-13.64450
G01 X1.72443 Y-13.64757
G01 X1.72517 Y-13.64450
G01 X3.83852 Y-13.64450
G01 X3.86339 Y-13.67191
G01 X3.83852 Y-13.64450
G01 X3.86237 Y-13.39779
G01 X3.92008 Y-13.20107
G01 X3.94945 Y-13.13015
G01 X4.02798 Y-12.98321
G01 X4.07063 Y-12.91941
G01 X4.17634 Y-12.79060
G01 X4.23060 Y-12.73632
G01 X4.35940 Y-12.63063
G01 X4.42321 Y-12.58799
G01 X4.60489 Y-12.49302
G01 X4.80052 Y-12.43170
G01 X4.87578 Y-12.41674
G01 X5.08000 Y-12.39853
G01 X5.28419 Y-12.41674
G01 X5.35945 Y-12.43170
G01 X5.55508 Y-12.49302
G01 X5.73677 Y-12.58799
G01 X5.80057 Y-12.63063
G01 X5.92938 Y-12.73632
G01 X5.98363 Y-12.79060
G01 X6.11223 Y-12.95027
G01 X6.21053 Y-13.13015
G01 X6.23989 Y-13.20107
G01 X6.29722 Y-13.39632
G01 X6.40273 Y-13.46093
G01 X6.40273 Y-15.17426
G01 X6.41170 Y-15.21945
G01 X6.47301 Y-15.41508
G01 X6.56796 Y-15.59677
G01 X6.61063 Y-15.66057
G01 X6.71634 Y-15.78938
G01 X6.77060 Y-15.84363
G01 X6.93026 Y-15.97223
G01 X7.14489 Y-16.08696
G01 X7.34052 Y-16.14828
G01 X7.41578 Y-16.16324
G01 X7.62000 Y-16.18145
G01 X7.82419 Y-16.16324
G01 X7.89945 Y-16.14828
G01 X8.05891 Y-16.09989
G01 X8.12980 Y-16.07053
G01 X8.27677 Y-15.99199
G01 X8.34057 Y-15.94935
G01 X8.46938 Y-15.84363
G01 X8.52363 Y-15.78938
G01 X8.62935 Y-15.66057
G01 X8.67199 Y-15.59677
G01 X8.76696 Y-15.41508
G01 X8.81672 Y-15.25755
G01 X8.78799 Y-15.16019
G01 X8.74695 Y-15.04549
G01 X8.73415 Y-15.16162
G01 X8.67895 Y-15.34828
G01 X8.65749 Y-15.40007
G01 X8.57895 Y-15.54704
G01 X8.54781 Y-15.59364
G01 X8.42325 Y-15.74325
G01 X8.27364 Y-15.86781
G01 X8.22703 Y-15.89895
G01 X8.08007 Y-15.97749
G01 X8.02828 Y-15.99895
G01 X7.84162 Y-16.05415
G01 X7.64802 Y-16.07459
G01 X7.59196 Y-16.07459
G01 X7.42612 Y-16.05826
G01 X7.37116 Y-16.04731
G01 X7.21169 Y-15.99895
G01 X7.15990 Y-15.97749
G01 X6.98886 Y-15.88453
G01 X6.83753 Y-15.76210
G01 X6.79788 Y-15.72245
G01 X6.67545 Y-15.57111
G01 X6.57047 Y-15.37470
G01 X6.51266 Y-15.18882
G01 X6.50171 Y-15.13385
G01 X6.48401 Y-14.93998
G01 X6.48538 Y-13.61196
G01 X6.50171 Y-13.44613
G01 X6.51266 Y-13.39113
G01 X6.57047 Y-13.20526
G01 X6.67545 Y-13.00884
G01 X6.79788 Y-12.85753
G01 X6.83753 Y-12.81788
G01 X6.96633 Y-12.71217
G01 X7.01294 Y-12.68103
G01 X7.18528 Y-12.59048
G01 X7.37116 Y-12.53266
G01 X7.42612 Y-12.52172
G01 X7.62000 Y-12.50401
G01 X7.81385 Y-12.52172
G01 X7.86882 Y-12.53266
G01 X8.05470 Y-12.59048
G01 X8.22703 Y-12.68103
G01 X8.27364 Y-12.71217
G01 X8.40245 Y-12.81788
G01 X8.44210 Y-12.85753
G01 X8.56452 Y-13.00884
G01 X8.66950 Y-13.20526
G01 X8.72731 Y-13.39113
G01 X8.73826 Y-13.44613
G01 X8.75459 Y-13.61196
G01 X8.75596 Y-13.68450
G01 X8.85680 Y-13.57353
G01 X8.84324 Y-13.43579
G01 X8.82828 Y-13.36053
G01 X8.77989 Y-13.20107
G01 X8.75053 Y-13.13015
G01 X8.67199 Y-12.98321
G01 X8.62935 Y-12.91941
G01 X8.52363 Y-12.79060
G01 X8.46938 Y-12.73632
G01 X8.34057 Y-12.63063
G01 X8.27677 Y-12.58799
G01 X8.09508 Y-12.49302
G01 X7.89945 Y-12.43170
G01 X7.82419 Y-12.41674
G01 X7.65835 Y-12.40041
G01 X7.58162 Y-12.40041
G01 X7.41578 Y-12.41674
G01 X7.34052 Y-12.43170
G01 X7.14489 Y-12.49302
G01 X6.96321 Y-12.58799
G01 X6.89940 Y-12.63063
G01 X6.77060 Y-12.73632
G01 X6.71634 Y-12.79060
G01 X6.58772 Y-12.95027
G01 X6.48945 Y-13.13015
G01 X6.46008 Y-13.20107
G01 X6.41170 Y-13.36053
G01 X6.40273 Y-13.40571
G01 X6.40273 Y-15.51132
G01 X6.47494 Y-15.64648
G01 X6.52907 Y-15.72748
G01 X6.63478 Y-15.85631
G01 X6.70367 Y-15.92519
G01 X6.87167 Y-16.05994
G01 X7.10453 Y-16.18442
G01 X7.30989 Y-16.24922
G01 X7.40545 Y-16.26822
G01 X7.62000 Y-16.28694
G01 X7.83453 Y-16.26822
G01 X7.93008 Y-16.24922
G01 X8.08952 Y-16.20083
G01 X8.17954 Y-16.16357
G01 X8.32648 Y-16.08501
G01 X8.40748 Y-16.03088
G01 X8.57242 Y-15.89242
G01 X8.71088 Y-15.72748
G01 X8.76501 Y-15.64648
G01 X8.86475 Y-15.45448
G01 X8.81342 Y-15.24437
G01 X8.78799 Y-15.16019
G01 X8.71540 Y-14.95953
G01 X8.54499 Y-14.54287
G01 X8.65048 Y-14.80279
G01 X8.64961 Y-14.95768
G01 X8.63328 Y-15.12352
G01 X8.62637 Y-15.15821
G01 X8.57204 Y-15.33434
G01 X8.48591 Y-15.49730
G01 X8.46625 Y-15.52672
G01 X8.34865 Y-15.66865
G01 X8.19249 Y-15.79682
G01 X8.03036 Y-15.88447
G01 X7.99767 Y-15.89801
G01 X7.83821 Y-15.94637
G01 X7.80351 Y-15.95328
G01 X7.63768 Y-15.96961
G01 X7.60230 Y-15.96961
G01 X7.43646 Y-15.95328
G01 X7.40176 Y-15.94637
G01 X7.22564 Y-15.89204
G01 X7.04748 Y-15.79682
G01 X6.90446 Y-15.68054
G01 X6.87944 Y-15.65552
G01 X6.77372 Y-15.52672
G01 X6.75406 Y-15.49730
G01 X6.66793 Y-15.33434
G01 X6.60931 Y-15.14102
G01 X6.59036 Y-14.95768
G01 X6.59036 Y-13.62230
G01 X6.60931 Y-13.43894
G01 X6.66196 Y-13.26231
G01 X6.67550 Y-13.22959
G01 X6.76316 Y-13.06749
G01 X6.87944 Y-12.92441
G01 X6.90446 Y-12.89942
G01 X7.03326 Y-12.79373
G01 X7.06267 Y-12.77407
G01 X7.20961 Y-12.69550
G01 X7.24230 Y-12.68197
G01 X7.40176 Y-12.63360
G01 X7.43646 Y-12.62670
G01 X7.62000 Y-12.60950
G01 X7.80351 Y-12.62670
G01 X7.83821 Y-12.63360
G01 X8.01433 Y-12.68793
G01 X8.17730 Y-12.77407
G01 X8.20671 Y-12.79373
G01 X8.33552 Y-12.89942
G01 X8.36054 Y-12.92441
G01 X8.47682 Y-13.06749
G01 X8.56447 Y-13.22959
G01 X8.57801 Y-13.26231
G01 X8.62637 Y-13.42177
G01 X8.63328 Y-13.45646
G01 X8.65048 Y-13.63998
G01 X8.65048 Y-13.82509
G01 X8.59297 Y-13.92423
G01 X8.54499 Y-14.03706
G01 X8.59417 Y-13.92187
G01 X8.64413 Y-13.83469
G01 X8.67781 Y-13.78445
G01 X8.76828 Y-13.66964
G01 X8.95314 Y-13.47556
G01 X8.94822 Y-13.42545
G01 X8.92922 Y-13.32989
G01 X8.86442 Y-13.12454
G01 X8.73994 Y-12.89167
G01 X8.60519 Y-12.72367
G01 X8.53631 Y-12.65479
G01 X8.40748 Y-12.54907
G01 X8.32648 Y-12.49497
G01 X8.13544 Y-12.39556
G01 X7.93008 Y-12.33076
G01 X7.83453 Y-12.31176
G01 X7.66869 Y-12.29543
G01 X7.57128 Y-12.29543
G01 X7.40545 Y-12.31176
G01 X7.30989 Y-12.33076
G01 X7.10453 Y-12.39556
G01 X6.91350 Y-12.49497
G01 X6.83250 Y-12.54907
G01 X6.70367 Y-12.65479
G01 X6.63478 Y-12.72367
G01 X6.52907 Y-12.85248
G01 X6.47494 Y-12.93348
G01 X6.40273 Y-13.06863
G01 X6.40273 Y-13.40571
G01 X6.48401 Y-13.63998
G01 X6.69498 Y-13.63998
G01 X6.71167 Y-13.46680
G01 X6.76539 Y-13.28598
G01 X6.85089 Y-13.12608
G01 X6.97136 Y-12.98097
G01 X7.10016 Y-12.87526
G01 X7.25935 Y-12.78854
G01 X7.44680 Y-12.73167
G01 X7.61263 Y-12.71534
G01 X7.79318 Y-12.73167
G01 X7.97397 Y-12.78539
G01 X8.12757 Y-12.86711
G01 X8.27900 Y-12.99136
G01 X8.38909 Y-13.12608
G01 X8.47458 Y-13.28598
G01 X8.52830 Y-13.46680
G01 X8.54499 Y-13.63998
G01 X8.54499 Y-14.93998
G01 X8.52721 Y-15.12044
G01 X8.47705 Y-15.28704
G01 X8.38472 Y-15.45981
G01 X8.27405 Y-15.59405
G01 X8.13389 Y-15.70909
G01 X7.96704 Y-15.79705
G01 X7.79318 Y-15.84830
G01 X7.62734 Y-15.86464
G01 X7.44680 Y-15.84830
G01 X7.25935 Y-15.79143
G01 X7.10608 Y-15.70909
G01 X6.97136 Y-15.59900
G01 X6.85089 Y-15.45389
G01 X6.76293 Y-15.28704
G01 X6.71167 Y-15.11318
G01 X6.69534 Y-14.94734
G01 X6.69498 Y-13.63998
G01 X6.29722 Y-13.39632
G01 X6.29722 Y-13.06858
G01 X6.19994 Y-12.89167
G01 X6.06519 Y-12.72367
G01 X5.99630 Y-12.65479
G01 X5.86748 Y-12.54907
G01 X5.78648 Y-12.49497
G01 X5.59544 Y-12.39556
G01 X5.39008 Y-12.33076
G01 X5.29453 Y-12.31176
G01 X5.08000 Y-12.29304
G01 X4.86545 Y-12.31176
G01 X4.76989 Y-12.33076
G01 X4.56453 Y-12.39556
G01 X4.37350 Y-12.49497
G01 X4.29250 Y-12.54907
G01 X4.16367 Y-12.65479
G01 X4.09478 Y-12.72367
G01 X3.96004 Y-12.89167
G01 X3.85641 Y-13.08044
G01 X3.81912 Y-13.17046
G01 X3.75892 Y-13.37721
G01 X3.74058 Y-13.53901
G01 X3.76451 Y-13.56584
G01 X3.74058 Y-13.53901
G01 X1.75626 Y-13.53901
G01 X1.75560 Y-13.54183
G01 X1.75626 Y-13.53901
G01 X1.72649 Y-13.51912
G01 X1.61323 Y-13.46131
G01 X1.49228 Y-13.42212
G01 X1.39675 Y-13.40310
G01 X1.31869 Y-13.39543
G01 X1.22128 Y-13.39543
G01 X1.14323 Y-13.40310
G01 X1.04770 Y-13.42212
G01 X0.92674 Y-13.46131
G01 X0.81349 Y-13.51912
G01 X0.73249 Y-13.57325
G01 X0.63574 Y-13.65575
G01 X0.60300 Y-13.69187
G01 X0.52421 Y-13.79167
G01 X0.46215 Y-13.90264
G01 X0.42487 Y-13.99266
G01 X0.39027 Y-14.11501
G01 X0.37302 Y-14.28999
G01 X0.39027 Y-14.46497
G01 X0.42487 Y-14.58732
G01 X0.46215 Y-14.67731
G01 X0.49911 Y-14.74648
G01 X0.51902 Y-14.77970
G01 X0.52174 Y-14.77907
G01 X0.51902 Y-14.77970
G01 X0.51902 Y-16.60124
G01 X0.53419 Y-16.61038
G01 X0.51902 Y-16.60124
G01 X0.49004 Y-16.61325
G01 X0.40500 Y-16.66141
G01 X0.32794 Y-16.72156
G01 X0.25905 Y-16.79044
G01 X0.22797 Y-16.82834
G01 X0.17384 Y-16.90934
G01 X0.12990 Y-16.99664
G01 X0.11346 Y-17.04256
G01 X0.09924 Y-17.08945
G01 X0.08024 Y-17.18501
G01 X0.07302 Y-17.28249
G01 X0.49500 Y-17.28249
G01 X0.49500 Y-17.80748
G01 X0.50302 Y-17.87802
G01 X0.51973 Y-17.93187
G01 X0.55415 Y-17.99397
G01 X0.59563 Y-18.04223
G01 X0.63942 Y-18.07771
G01 X0.68895 Y-18.10461
G01 X0.75659 Y-18.12625
G01 X0.81999 Y-18.13248
G01 X1.71999 Y-18.13248
G01 X1.77612 Y-18.12732
G01 X1.85102 Y-18.10461
G01 X1.90055 Y-18.07771
G01 X1.94434 Y-18.04223
G01 X1.98582 Y-17.99397
G01 X2.02273 Y-17.92493
G01 X2.03982 Y-17.86362
G01 X2.04498 Y-17.80748
G01 X2.04462 Y-17.27512
G01 X2.03982 Y-17.22636
G01 X2.02273 Y-17.16504
G01 X1.99400 Y-17.10825
G01 X1.95473 Y-17.05813
G01 X1.90055 Y-17.01226
G01 X1.85102 Y-16.98536
G01 X1.78338 Y-16.96372
G01 X1.71999 Y-16.95750
G01 X1.59893 Y-16.95750
G01 X1.59893 Y-14.63197
G01 X1.61199 Y-14.61897
G01 X4.15498 Y-14.61897
G01 X4.15498 Y-14.93998
G01 X4.17454 Y-15.12758
G01 X4.22854 Y-15.30063
G01 X4.31089 Y-15.45389
G01 X4.42097 Y-15.58861
G01 X4.57241 Y-15.71287
G01 X4.72600 Y-15.79458
G01 X4.89240 Y-15.84543
G01 X5.08000 Y-15.86499
G01 X5.26758 Y-15.84543
G01 X5.44063 Y-15.79143
G01 X5.58757 Y-15.71287
G01 X5.73405 Y-15.59405
G01 X5.85287 Y-15.44757
G01 X5.93458 Y-15.29397
G01 X5.98543 Y-15.12758
G01 X6.00499 Y-14.93998
G01 X6.00499 Y-13.63998
G01 X5.98721 Y-13.45954
G01 X5.93143 Y-13.27932
G01 X5.84909 Y-13.12608
G01 X5.73900 Y-12.99136
G01 X5.59981 Y-12.87526
G01 X5.42704 Y-12.78291
G01 X5.25318 Y-12.73167
G01 X5.07263 Y-12.71534
G01 X4.89240 Y-12.73454
G01 X4.71935 Y-12.78854
G01 X4.56016 Y-12.87526
G01 X4.43136 Y-12.98097
G01 X4.31526 Y-13.12014
G01 X4.22854 Y-13.27932
G01 X4.17276 Y-13.45954
G01 X4.15498 Y-13.63998
G01 X4.15498 Y-13.96098
G01 X1.61196 Y-13.96098
G01 X1.53388 Y-13.89504
G01 X1.45176 Y-13.85115
G01 X1.36980 Y-13.82591
G01 X1.27734 Y-13.81534
G01 X1.17018 Y-13.82591
G01 X1.08821 Y-13.85115
G01 X1.00609 Y-13.89504
G01 X0.92916 Y-13.95956
G01 X0.87125 Y-14.03241
G01 X0.83429 Y-14.10155
G01 X0.80411 Y-14.19733
G01 X0.79499 Y-14.28999
G01 X0.80411 Y-14.38265
G01 X0.83429 Y-14.47841
G01 X0.87942 Y-14.55979
G01 X0.94099 Y-14.63197
G01 X0.94099 Y-16.95750
G01 X0.81999 Y-16.95750
G01 X0.75659 Y-16.96372
G01 X0.70254 Y-16.97975
G01 X0.64574 Y-17.00848
G01 X0.59563 Y-17.04774
G01 X0.54597 Y-17.10825
G01 X0.51973 Y-17.15811
G01 X0.50302 Y-17.21195
G01 X0.49500 Y-17.28249
G01 X0.38951 Y-17.28249
G01 X0.39776 Y-17.19849
G01 X0.42228 Y-17.11775
G01 X0.45293 Y-17.05851
G01 X0.47259 Y-17.02910
G01 X0.52870 Y-16.96618
G01 X0.59601 Y-16.91543
G01 X0.67193 Y-16.87881
G01 X0.71882 Y-16.86458
G01 X0.75352 Y-16.85768
G01 X0.83551 Y-16.85199
G01 X0.86060 Y-16.87332
G01 X0.83551 Y-16.85199
G01 X0.83551 Y-14.67256
G01 X0.83942 Y-14.67145
G01 X0.83551 Y-14.67256
G01 X0.78732 Y-14.61249
G01 X0.74125 Y-14.52814
G01 X0.72771 Y-14.49545
G01 X0.70066 Y-14.40325
G01 X0.69037 Y-14.30767
G01 X0.69037 Y-14.27229
G01 X0.70066 Y-14.17673
G01 X0.72771 Y-14.08453
G01 X0.74125 Y-14.05184
G01 X0.78732 Y-13.96749
G01 X0.84762 Y-13.89263
G01 X0.93325 Y-13.81788
G01 X0.96269 Y-13.79822
G01 X1.04785 Y-13.75369
G01 X1.13955 Y-13.72497
G01 X1.25230 Y-13.71036
G01 X1.36571 Y-13.71806
G01 X1.40043 Y-13.72497
G01 X1.49212 Y-13.75369
G01 X1.57729 Y-13.79822
G01 X1.65252 Y-13.85550
G01 X1.65133 Y-13.85969
G01 X1.65252 Y-13.85550
G01 X4.04950 Y-13.85550
G01 X4.08038 Y-13.88638
G01 X4.04950 Y-13.85550
G01 X4.04950 Y-13.63998
G01 X4.06931 Y-13.43894
G01 X4.12196 Y-13.26231
G01 X4.13550 Y-13.22959
G01 X4.22316 Y-13.06749
G01 X4.35132 Y-12.91133
G01 X4.49326 Y-12.79373
G01 X4.52267 Y-12.77407
G01 X4.68564 Y-12.68793
G01 X4.86176 Y-12.63360
G01 X4.89646 Y-12.62670
G01 X5.08000 Y-12.60950
G01 X5.26351 Y-12.62670
G01 X5.29821 Y-12.63360
G01 X5.47433 Y-12.68793
G01 X5.63730 Y-12.77407
G01 X5.66671 Y-12.79373
G01 X5.79552 Y-12.89942
G01 X5.82054 Y-12.92441
G01 X5.93682 Y-13.06749
G01 X6.02447 Y-13.22959
G01 X6.03801 Y-13.26231
G01 X6.09067 Y-13.43894
G01 X6.11048 Y-13.63998
G01 X6.11048 Y-14.93998
G01 X6.09067 Y-15.14102
G01 X6.03801 Y-15.31767
G01 X6.02447 Y-15.35036
G01 X5.94591 Y-15.49730
G01 X5.92625 Y-15.52672
G01 X5.82054 Y-15.65552
G01 X5.79552 Y-15.68054
G01 X5.66671 Y-15.78625
G01 X5.63730 Y-15.80591
G01 X5.49036 Y-15.88447
G01 X5.45767 Y-15.89801
G01 X5.29821 Y-15.94637
G01 X5.26351 Y-15.95328
G01 X5.08000 Y-15.97048
G01 X4.89646 Y-15.95328
G01 X4.86176 Y-15.94637
G01 X4.70230 Y-15.89801
G01 X4.66961 Y-15.88447
G01 X4.50748 Y-15.79682
G01 X4.36446 Y-15.68054
G01 X4.33944 Y-15.65552
G01 X4.23372 Y-15.52672
G01 X4.21406 Y-15.49730
G01 X4.12793 Y-15.33434
G01 X4.07360 Y-15.15821
G01 X4.06669 Y-15.12352
G01 X4.05036 Y-14.95768
G01 X4.04950 Y-14.72446
G01 X4.07756 Y-14.69517
G01 X4.04950 Y-14.72446
G01 X1.70447 Y-14.72446
G01 X1.67358 Y-14.69357
G01 X1.70447 Y-14.72446
G01 X1.70447 Y-16.85199
G01 X1.67747 Y-16.87624
G01 X1.70447 Y-16.85199
G01 X1.78646 Y-16.85768
G01 X1.82115 Y-16.86458
G01 X1.86804 Y-16.87881
G01 X1.94396 Y-16.91543
G01 X2.01127 Y-16.96618
G01 X2.06738 Y-17.02910
G01 X2.08704 Y-17.05851
G01 X2.11770 Y-17.11775
G01 X2.14221 Y-17.19849
G01 X2.15047 Y-17.28249
G01 X2.15047 Y-17.80748
G01 X2.14221 Y-17.89148
G01 X2.11770 Y-17.97223
G01 X2.08704 Y-18.03146
G01 X2.06738 Y-18.06087
G01 X2.01127 Y-18.12379
G01 X1.95915 Y-18.16542
G01 X1.90073 Y-18.19763
G01 X1.86804 Y-18.21117
G01 X1.80398 Y-18.22971
G01 X1.71999 Y-18.23799
G01 X0.81999 Y-18.23799
G01 X0.73599 Y-18.22971
G01 X0.67193 Y-18.21117
G01 X0.63924 Y-18.19763
G01 X0.58082 Y-18.16542
G01 X0.52870 Y-18.12379
G01 X0.50368 Y-18.09877
G01 X0.45293 Y-18.03146
G01 X0.42228 Y-17.97223
G01 X0.39776 Y-17.89148
G01 X0.38951 Y-17.80748
G01 X0.38951 Y-17.28249
G01 X0.28400 Y-17.28249
G01 X0.29019 Y-17.20568
G01 X0.30112 Y-17.15069
G01 X0.31534 Y-17.10380
G01 X0.33680 Y-17.05201
G01 X0.35992 Y-17.00878
G01 X0.39106 Y-16.96217
G01 X0.42215 Y-16.92430
G01 X0.46180 Y-16.88465
G01 X0.49967 Y-16.85356
G01 X0.52222 Y-16.83685
G01 X0.58951 Y-16.79931
G01 X0.64130 Y-16.77784
G01 X0.73002 Y-16.75465
G01 X0.74894 Y-16.76786
G01 X0.73002 Y-16.75465
G01 X0.73000 Y-14.71031
G01 X0.73342 Y-14.70942
G01 X0.73000 Y-14.71031
G01 X0.71633 Y-14.69365
G01 X0.68519 Y-14.64704
G01 X0.64823 Y-14.57787
G01 X0.62677 Y-14.52608
G01 X0.59718 Y-14.42382
G01 X0.58400 Y-14.28999
G01 X0.59718 Y-14.15616
G01 X0.62677 Y-14.05390
G01 X0.64823 Y-14.00211
G01 X0.68519 Y-13.93294
G01 X0.71633 Y-13.88633
G01 X0.78494 Y-13.80493
G01 X0.86634 Y-13.73635
G01 X0.91295 Y-13.70518
G01 X0.98212 Y-13.66822
G01 X1.03391 Y-13.64676
G01 X1.10894 Y-13.62400
G01 X1.16393 Y-13.61308
G01 X1.24196 Y-13.60538
G01 X1.29802 Y-13.60538
G01 X1.37604 Y-13.61308
G01 X1.43104 Y-13.62400
G01 X1.50607 Y-13.64676
G01 X1.55786 Y-13.66822
G01 X1.62702 Y-13.70518
G01 X1.67363 Y-13.73635
G01 X1.69029 Y-13.75001
G01 X1.68940 Y-13.75341
G01 X1.69029 Y-13.75001
G01 X3.94401 Y-13.75001
G01 X3.96984 Y-13.77798
G01 X3.94401 Y-13.75001
G01 X3.94538 Y-13.61196
G01 X3.96583 Y-13.41836
G01 X4.02102 Y-13.23170
G01 X4.04249 Y-13.17988
G01 X4.13545 Y-13.00884
G01 X4.27672 Y-12.83673
G01 X4.42633 Y-12.71217
G01 X4.47294 Y-12.68103
G01 X4.64528 Y-12.59048
G01 X4.83116 Y-12.53266
G01 X4.88612 Y-12.52172
G01 X5.08000 Y-12.50401
G01 X5.27385 Y-12.52172
G01 X5.32882 Y-12.53266
G01 X5.51470 Y-12.59048
G01 X5.68703 Y-12.68103
G01 X5.73364 Y-12.71217
G01 X5.88325 Y-12.83673
G01 X6.00781 Y-12.98633
G01 X6.03895 Y-13.03294
G01 X6.11749 Y-13.17988
G01 X6.13895 Y-13.23170
G01 X6.18731 Y-13.39113
G01 X6.19826 Y-13.44613
G01 X6.21596 Y-13.63998
G01 X6.21459 Y-14.96802
G01 X6.19826 Y-15.13385
G01 X6.18731 Y-15.18882
G01 X6.13895 Y-15.34828
G01 X6.11749 Y-15.40007
G01 X6.03895 Y-15.54704
G01 X6.00781 Y-15.59364
G01 X5.88325 Y-15.74325
G01 X5.73364 Y-15.86781
G01 X5.68703 Y-15.89895
G01 X5.54007 Y-15.97749
G01 X5.48828 Y-15.99895
G01 X5.30161 Y-16.05415
G01 X5.08000 Y-16.07596
G01 X4.88612 Y-16.05826
G01 X4.83116 Y-16.04731
G01 X4.67169 Y-15.99895
G01 X4.61990 Y-15.97749
G01 X4.44886 Y-15.88453
G01 X4.29753 Y-15.76210
G01 X4.25788 Y-15.72245
G01 X4.13545 Y-15.57111
G01 X4.04249 Y-15.40007
G01 X4.02102 Y-15.34828
G01 X3.97266 Y-15.18882
G01 X3.96171 Y-15.13385
G01 X3.94538 Y-14.96802
G01 X3.94401 Y-14.82997
G01 X3.97068 Y-14.80147
G01 X3.94401 Y-14.82997
G01 X1.80998 Y-14.82997
G01 X1.77907 Y-14.79906
G01 X1.80998 Y-14.82997
G01 X1.80995 Y-16.75465
G01 X1.78963 Y-16.76951
G01 X1.80995 Y-16.75465
G01 X1.89868 Y-16.77784
G01 X1.95047 Y-16.79931
G01 X1.99370 Y-16.82242
G01 X2.01775 Y-16.83685
G01 X2.07818 Y-16.88465
G01 X2.11783 Y-16.92430
G01 X2.14892 Y-16.96217
G01 X2.18006 Y-17.00878
G01 X2.21516 Y-17.07739
G01 X2.23886 Y-17.15069
G01 X2.24978 Y-17.20568
G01 X2.25598 Y-17.28249
G01 X2.25458 Y-17.83552
G01 X2.24566 Y-17.91205
G01 X2.21516 Y-18.01259
G01 X2.18006 Y-18.08119
G01 X2.14892 Y-18.12780
G01 X2.11783 Y-18.16570
G01 X2.07818 Y-18.20532
G01 X2.01775 Y-18.25313
G01 X1.99370 Y-18.26755
G01 X1.95047 Y-18.29067
G01 X1.89868 Y-18.31213
G01 X1.82456 Y-18.33316
G01 X1.79680 Y-18.33728
G01 X1.71999 Y-18.34347
G01 X0.81999 Y-18.34347
G01 X0.71542 Y-18.33316
G01 X0.64130 Y-18.31213
G01 X0.58951 Y-18.29067
G01 X0.52222 Y-18.25313
G01 X0.46180 Y-18.20532
G01 X0.42215 Y-18.16570
G01 X0.39106 Y-18.12780
G01 X0.35992 Y-18.08119
G01 X0.32482 Y-18.01259
G01 X0.31534 Y-17.98617
G01 X0.30112 Y-17.93928
G01 X0.29019 Y-17.88429
G01 X0.28400 Y-17.80748
G01 X0.28400 Y-17.28249
G01 X0.07302 Y-17.28249
G01 X0.07302 Y-17.80748
G01 X0.08024 Y-17.90497
G01 X0.09924 Y-18.00052
G01 X0.12990 Y-18.09333
G01 X0.15075 Y-18.13743
G01 X0.17384 Y-18.18063
G01 X0.22797 Y-18.26163
G01 X0.25905 Y-18.29953
G01 X0.32794 Y-18.36842
G01 X0.37287 Y-18.40474
G01 X2.08991 Y-18.40474
G01 X1.95255 Y-18.51022
G01 X2.04340 Y-18.55437
G01 X2.10723 Y-18.59702
G01 X2.17358 Y-18.65391
G01 X2.19936 Y-18.68236
G01 X2.23332 Y-18.72450
G01 X2.22992 Y-18.73265
G01 X2.23332 Y-18.72450
G01 X4.23106 Y-18.72450
G01 X4.24231 Y-18.74169
G01 X4.23106 Y-18.72450
G01 X4.24937 Y-18.67065
G01 X4.26580 Y-18.63593
G01 X4.28833 Y-18.59379
G01 X4.33095 Y-18.52996
G01 X4.36128 Y-18.49303
G01 X4.41554 Y-18.43877
G01 X4.48333 Y-18.38556
G01 X4.59316 Y-18.32686
G01 X4.67505 Y-18.30007
G01 X4.75031 Y-18.28508
G01 X4.79786 Y-18.28041
G01 X5.36212 Y-18.28041
G01 X5.40967 Y-18.28508
G01 X5.48493 Y-18.30007
G01 X5.56682 Y-18.32686
G01 X5.67665 Y-18.38556
G01 X5.77291 Y-18.46458
G01 X5.82902 Y-18.52996
G01 X5.87164 Y-18.59379
G01 X5.89417 Y-18.63593
G01 X5.91061 Y-18.67065
G01 X5.93743 Y-18.75254
G01 X5.95239 Y-18.82780
G01 X5.95897 Y-18.91373
G01 X5.95897 Y-19.82625
G01 X5.95239 Y-19.91215
G01 X5.93743 Y-19.98744
G01 X5.91061 Y-20.06933
G01 X5.87164 Y-20.14619
G01 X5.82902 Y-20.20999
G01 X5.77291 Y-20.27540
G01 X5.70751 Y-20.33151
G01 X5.64370 Y-20.37415
G01 X5.56682 Y-20.41309
G01 X5.48493 Y-20.43991
G01 X5.40967 Y-20.45490
G01 X5.32374 Y-20.46145
G01 X4.83624 Y-20.46145
G01 X4.75031 Y-20.45490
G01 X4.67505 Y-20.43991
G01 X4.62933 Y-20.42604
G01 X4.55841 Y-20.39668
G01 X4.48333 Y-20.35439
G01 X4.41554 Y-20.30120
G01 X4.36128 Y-20.24695
G01 X4.33095 Y-20.20999
G01 X4.28833 Y-20.14619
G01 X4.26580 Y-20.10405
G01 X4.24937 Y-20.06933
G01 X4.23106 Y-20.01545
G01 X4.24231 Y-19.99826
G01 X4.23106 Y-20.01545
G01 X2.23332 Y-20.01545
G01 X2.22938 Y-20.00649
G01 X2.23332 Y-20.01545
G01 X2.23048 Y-20.01972
G01 X2.17358 Y-20.08607
G01 X2.10723 Y-20.14296
G01 X2.04340 Y-20.18561
G01 X1.96548 Y-20.22513
G01 X1.92931 Y-20.23806
G01 X1.84513 Y-20.26163
G01 X1.75837 Y-20.27207
G01 X0.78161 Y-20.27207
G01 X0.69484 Y-20.26163
G01 X0.61067 Y-20.23806
G01 X0.57450 Y-20.22513
G01 X0.49657 Y-20.18561
G01 X0.43274 Y-20.14296
G01 X0.39487 Y-20.11187
G01 X0.36639 Y-20.08607
G01 X0.30950 Y-20.01972
G01 X0.26688 Y-19.95592
G01 X0.24376 Y-19.91269
G01 X0.22736 Y-19.87796
G01 X0.20018 Y-19.79491
G01 X0.18522 Y-19.71962
G01 X0.17851 Y-19.63250
G01 X0.17851 Y-19.10748
G01 X0.19086 Y-18.98233
G01 X0.21440 Y-18.89818
G01 X0.24376 Y-18.82727
G01 X0.26688 Y-18.78406
G01 X0.30950 Y-18.72026
G01 X0.36639 Y-18.65391
G01 X0.43274 Y-18.59702
G01 X0.49657 Y-18.55437
G01 X0.57450 Y-18.51485
G01 X0.58743 Y-18.51022
G01 X2.16632 Y-18.51022
G01 X2.24815 Y-18.57931
G01 X2.28384 Y-18.61901
G01 X2.28100 Y-18.62628
G01 X2.28384 Y-18.61901
G01 X4.15724 Y-18.61901
G01 X4.16514 Y-18.63288
G01 X4.15724 Y-18.61901
G01 X4.19529 Y-18.54406
G01 X4.24942 Y-18.46306
G01 X4.31249 Y-18.38998
G01 X4.38554 Y-18.32691
G01 X4.46656 Y-18.27279
G01 X4.55277 Y-18.22940
G01 X4.64442 Y-18.19910
G01 X4.73997 Y-18.18010
G01 X4.78752 Y-18.17543
G01 X5.37246 Y-18.17543
G01 X5.42000 Y-18.18010
G01 X5.51556 Y-18.19910
G01 X5.60720 Y-18.22940
G01 X5.69341 Y-18.27279
G01 X5.77444 Y-18.32691
G01 X5.84749 Y-18.38998
G01 X5.91055 Y-18.46306
G01 X5.96468 Y-18.54406
G01 X5.96468 Y-20.19592
G01 X5.91055 Y-20.27692
G01 X5.84749 Y-20.35000
G01 X5.77444 Y-20.41307
G01 X5.69341 Y-20.46719
G01 X5.60720 Y-20.51055
G01 X5.56128 Y-20.52698
G01 X5.51556 Y-20.54085
G01 X5.42000 Y-20.55988
G01 X5.37246 Y-20.56455
G01 X4.83624 Y-20.56694
G01 X4.73997 Y-20.55988
G01 X4.64442 Y-20.54085
G01 X4.55277 Y-20.51055
G01 X4.50870 Y-20.48972
G01 X4.46656 Y-20.46719
G01 X4.38554 Y-20.41307
G01 X4.34861 Y-20.38274
G01 X4.31249 Y-20.35000
G01 X4.24942 Y-20.27692
G01 X4.19529 Y-20.19592
G01 X4.17276 Y-20.15378
G01 X4.15722 Y-20.12094
G01 X4.16441 Y-20.10788
G01 X4.15722 Y-20.12094
G01 X2.28387 Y-20.12094
G01 X2.28089 Y-20.11347
G01 X2.28387 Y-20.12094
G01 X2.28092 Y-20.12452
G01 X2.21204 Y-20.19341
G01 X2.17414 Y-20.22450
G01 X2.09314 Y-20.27862
G01 X2.00584 Y-20.32259
G01 X1.86571 Y-20.36509
G01 X1.71999 Y-20.37944
G01 X0.81999 Y-20.37944
G01 X0.72250 Y-20.37225
G01 X0.62695 Y-20.35325
G01 X0.53414 Y-20.32259
G01 X0.49004 Y-20.30174
G01 X0.44684 Y-20.27862
G01 X0.36584 Y-20.22450
G01 X0.29182 Y-20.16067
G01 X0.22797 Y-20.08665
G01 X0.17384 Y-20.00565
G01 X0.12990 Y-19.91832
G01 X0.09924 Y-19.82551
G01 X0.08024 Y-19.72996
G01 X0.07541 Y-19.68119
G01 X0.07302 Y-19.10748
G01 X0.49500 Y-19.10748
G01 X0.49500 Y-19.63250
G01 X0.50015 Y-19.68861
G01 X0.51725 Y-19.74992
G01 X0.54597 Y-19.80674
G01 X0.59563 Y-19.86724
G01 X0.63353 Y-19.89833
G01 X0.68895 Y-19.92960
G01 X0.75659 Y-19.95124
G01 X0.81999 Y-19.95749
G01 X1.71999 Y-19.95749
G01 X1.78338 Y-19.95124
G01 X1.85102 Y-19.92960
G01 X1.90645 Y-19.89833
G01 X1.94981 Y-19.86229
G01 X1.99400 Y-19.80674
G01 X2.02024 Y-19.75686
G01 X2.03794 Y-19.69897
G01 X4.51749 Y-19.69897
G01 X4.51785 Y-19.83359
G01 X4.52361 Y-19.88843
G01 X4.54175 Y-19.94822
G01 X4.57558 Y-20.00923
G01 X4.61084 Y-20.05162
G01 X4.65323 Y-20.08688
G01 X4.70761 Y-20.11759
G01 X4.76692 Y-20.13707
G01 X4.83624 Y-20.14499
G01 X5.32374 Y-20.14499
G01 X5.39306 Y-20.13707
G01 X5.44571 Y-20.12071
G01 X5.50675 Y-20.08688
G01 X5.54914 Y-20.05162
G01 X5.58439 Y-20.00923
G01 X5.62072 Y-19.94129
G01 X5.63636 Y-19.88843
G01 X5.64248 Y-19.82625
G01 X5.64248 Y-18.91373
G01 X5.63636 Y-18.85155
G01 X5.61508 Y-18.78510
G01 X5.58439 Y-18.73075
G01 X5.54914 Y-18.68835
G01 X5.49450 Y-18.64492
G01 X5.44571 Y-18.61924
G01 X5.39306 Y-18.60291
G01 X5.32374 Y-18.59498
G01 X4.83624 Y-18.59498
G01 X4.76692 Y-18.60291
G01 X4.70761 Y-18.62239
G01 X4.65323 Y-18.65310
G01 X4.61084 Y-18.68835
G01 X4.57558 Y-18.73075
G01 X4.54175 Y-18.79176
G01 X4.52361 Y-18.85155
G01 X4.51785 Y-18.90639
G01 X4.51749 Y-19.04098
G01 X2.03794 Y-19.04098
G01 X2.02024 Y-18.98312
G01 X1.99400 Y-18.93324
G01 X1.94981 Y-18.87769
G01 X1.89423 Y-18.83347
G01 X1.84437 Y-18.80723
G01 X1.78338 Y-18.78874
G01 X1.71999 Y-18.78249
G01 X0.81999 Y-18.78249
G01 X0.75659 Y-18.78874
G01 X0.70254 Y-18.80474
G01 X0.63353 Y-18.84164
G01 X0.58524 Y-18.88312
G01 X0.54597 Y-18.93324
G01 X0.52288 Y-18.97647
G01 X0.50302 Y-19.03694
G01 X0.49500 Y-19.10748
G01 X0.38951 Y-19.10748
G01 X0.39776 Y-19.02351
G01 X0.42228 Y-18.94274
G01 X0.45293 Y-18.88350
G01 X0.50368 Y-18.81622
G01 X0.56660 Y-18.76011
G01 X0.63924 Y-18.71734
G01 X0.67193 Y-18.70380
G01 X0.75352 Y-18.68267
G01 X0.81999 Y-18.67700
G01 X1.71999 Y-18.67700
G01 X1.80398 Y-18.68528
G01 X1.86804 Y-18.70380
G01 X1.90073 Y-18.71734
G01 X1.94396 Y-18.74045
G01 X2.01127 Y-18.79120
G01 X2.06738 Y-18.85409
G01 X2.08704 Y-18.88350
G01 X2.11427 Y-18.93550
G01 X2.10609 Y-18.94964
G01 X2.11427 Y-18.93550
G01 X4.41201 Y-18.93550
G01 X4.43654 Y-18.96267
G01 X4.41201 Y-18.93550
G01 X4.41287 Y-18.89605
G01 X4.42016 Y-18.83098
G01 X4.43832 Y-18.76806
G01 X4.45186 Y-18.73537
G01 X4.49405 Y-18.66382
G01 X4.54937 Y-18.60187
G01 X4.61574 Y-18.55188
G01 X4.65788 Y-18.52938
G01 X4.73629 Y-18.50194
G01 X4.77098 Y-18.49506
G01 X4.83624 Y-18.48950
G01 X5.32374 Y-18.48950
G01 X5.38899 Y-18.49506
G01 X5.42369 Y-18.50194
G01 X5.48610 Y-18.52178
G01 X5.54424 Y-18.55188
G01 X5.61061 Y-18.60187
G01 X5.63562 Y-18.62689
G01 X5.68559 Y-18.69323
G01 X5.71569 Y-18.75140
G01 X5.73982 Y-18.83098
G01 X5.74797 Y-18.91373
G01 X5.74797 Y-19.82625
G01 X5.73982 Y-19.90900
G01 X5.72165 Y-19.97192
G01 X5.70812 Y-20.00461
G01 X5.68559 Y-20.04675
G01 X5.63562 Y-20.11309
G01 X5.61061 Y-20.13811
G01 X5.54424 Y-20.18810
G01 X5.48610 Y-20.21817
G01 X5.42369 Y-20.23801
G01 X5.38899 Y-20.24492
G01 X5.32374 Y-20.25048
G01 X4.83624 Y-20.25048
G01 X4.77098 Y-20.24492
G01 X4.73629 Y-20.23801
G01 X4.67388 Y-20.21817
G01 X4.61574 Y-20.18810
G01 X4.54937 Y-20.13811
G01 X4.52435 Y-20.11309
G01 X4.47439 Y-20.04675
G01 X4.44429 Y-19.98858
G01 X4.42016 Y-19.90900
G01 X4.41201 Y-19.80446
G01 X4.43276 Y-19.77977
G01 X4.41201 Y-19.80446
G01 X2.11430 Y-19.80446
G01 X2.10741 Y-19.79176
G01 X2.11430 Y-19.80446
G01 X2.08704 Y-19.85645
G01 X2.06738 Y-19.88589
G01 X2.01127 Y-19.94878
G01 X1.94396 Y-19.99953
G01 X1.90073 Y-20.02264
G01 X1.86804 Y-20.03618
G01 X1.80398 Y-20.05470
G01 X1.71999 Y-20.06298
G01 X0.81999 Y-20.06298
G01 X0.73599 Y-20.05470
G01 X0.67193 Y-20.03618
G01 X0.63924 Y-20.02264
G01 X0.59601 Y-19.99953
G01 X0.52870 Y-19.94878
G01 X0.47259 Y-19.88589
G01 X0.45293 Y-19.85645
G01 X0.42228 Y-19.79722
G01 X0.39776 Y-19.71647
G01 X0.38951 Y-19.63250
G01 X0.38951 Y-19.10748
G01 X0.28400 Y-19.10748
G01 X0.28539 Y-19.07946
G01 X0.29019 Y-19.03070
G01 X0.30112 Y-18.97571
G01 X0.32482 Y-18.90238
G01 X0.35992 Y-18.83380
G01 X0.39106 Y-18.78716
G01 X0.44099 Y-18.72849
G01 X0.49967 Y-18.67855
G01 X0.54628 Y-18.64741
G01 X0.58951 Y-18.62430
G01 X0.61488 Y-18.61231
G01 X0.68819 Y-18.58863
G01 X0.74318 Y-18.57769
G01 X0.81999 Y-18.57151
G01 X1.71999 Y-18.57151
G01 X1.82456 Y-18.58180
G01 X1.92509 Y-18.61231
G01 X1.99370 Y-18.64741
G01 X2.04031 Y-18.67855
G01 X2.09898 Y-18.72849
G01 X2.14892 Y-18.78716
G01 X2.17754 Y-18.83001
G01 X2.17223 Y-18.84078
G01 X2.17754 Y-18.83001
G01 X4.31378 Y-18.82999
G01 X4.32887 Y-18.85051
G01 X4.31378 Y-18.82999
G01 X4.33738 Y-18.73745
G01 X4.34683 Y-18.71101
G01 X4.38135 Y-18.64350
G01 X4.41251 Y-18.59689
G01 X4.46166 Y-18.53916
G01 X4.51940 Y-18.49001
G01 X4.60814 Y-18.43634
G01 X4.65993 Y-18.41487
G01 X4.76065 Y-18.39006
G01 X4.83624 Y-18.38401
G01 X5.32374 Y-18.38401
G01 X5.39933 Y-18.39006
G01 X5.45429 Y-18.40100
G01 X5.52646 Y-18.42432
G01 X5.59397 Y-18.45887
G01 X5.64058 Y-18.49001
G01 X5.69831 Y-18.53916
G01 X5.71716 Y-18.55996
G01 X5.77863 Y-18.64350
G01 X5.80113 Y-18.68564
G01 X5.82259 Y-18.73745
G01 X5.84330 Y-18.81040
G01 X5.85346 Y-18.91373
G01 X5.85346 Y-19.82625
G01 X5.84741 Y-19.90181
G01 X5.84330 Y-19.92958
G01 X5.82259 Y-20.00253
G01 X5.81315 Y-20.02897
G01 X5.77863 Y-20.09645
G01 X5.71716 Y-20.18002
G01 X5.67751 Y-20.21967
G01 X5.59397 Y-20.28111
G01 X5.52646 Y-20.31563
G01 X5.45429 Y-20.33897
G01 X5.39933 Y-20.34990
G01 X5.32374 Y-20.35597
G01 X4.80819 Y-20.35459
G01 X4.70568 Y-20.33897
G01 X4.63352 Y-20.31563
G01 X4.56601 Y-20.28111
G01 X4.51940 Y-20.24997
G01 X4.46166 Y-20.20082
G01 X4.41251 Y-20.14309
G01 X4.38135 Y-20.09645
G01 X4.34683 Y-20.02897
G01 X4.33738 Y-20.00253
G01 X4.31378 Y-19.90997
G01 X4.32719 Y-19.89084
G01 X4.31378 Y-19.90997
G01 X2.17754 Y-19.90997
G01 X2.17353 Y-19.90090
G01 X2.17754 Y-19.90997
G01 X2.11783 Y-19.99069
G01 X2.09898 Y-20.01149
G01 X2.04031 Y-20.06143
G01 X1.99370 Y-20.09257
G01 X1.92509 Y-20.12767
G01 X1.85179 Y-20.15134
G01 X1.79680 Y-20.16229
G01 X1.71999 Y-20.16846
G01 X0.81999 Y-20.16846
G01 X0.71542 Y-20.15818
G01 X0.61488 Y-20.12767
G01 X0.54628 Y-20.09257
G01 X0.49967 Y-20.06143
G01 X0.44099 Y-20.01149
G01 X0.39106 Y-19.95279
G01 X0.35992 Y-19.90618
G01 X0.32482 Y-19.83760
G01 X0.31534 Y-19.81116
G01 X0.30112 Y-19.76427
G01 X0.29019 Y-19.70928
G01 X0.28400 Y-19.63250
G01 X0.28400 Y-19.10748
G01 X0.07302 Y-19.10748
G01 X0.08024 Y-19.00999
G01 X0.09924 Y-18.91447
G01 X0.12990 Y-18.82163
G01 X0.17384 Y-18.73433
G01 X0.22797 Y-18.65333
G01 X0.25905 Y-18.61543
G01 X0.29182 Y-18.57931
G01 X0.37368 Y-18.51022
G01 X0.58743 Y-18.51022

G04 P0 ( dwell for no time -- G64 should not smooth over this point )
G00 Z7.620000 ( retract )

M5 ( Spindle off. )
G04 P1.000000
M9 ( Coolant off. )
M2 ( Program end. )

