( pcb2gcode 2.5.0 )
( Software-independent Gcode )

G94 ( Millimeters per minute feed rate. )
G21 ( Units == Millimeters. )

G90 ( Absolute coordinates. )
G00 S10000 ( RPM spindle speed. )
G64 P0.01016 ( set maximum deviation from commanded toolpath )
G01 F100.00000 ( Feedrate. )


G00 Z17.83500 (Retract to tool change height)
T1
M5      (Spindle stop.)
G04 P1.00000 (Wait for spindle to stop)
(MSG, Change tool bit to cutter diameter 0.80000mm)
M6      (Tool change.)
M0      (Temporary machine stop.)
M3 ( Spindle on clockwise. )
G04 P1.00000 (Wait for spindle to get up to speed)
G04 P0 ( dwell for no time -- G64 should not smooth over this point )
G00 Z1.00000 ( retract )

G00 X-0.40000 Y-2.74998 ( rapid move to begin. )
G01 Z-0.06250 F30.00000 ( plunge. )
G04 P0 ( dwell for no time -- G64 should not smooth over this point )
G01 F100.00000
G01 X-0.40000 Y-20.75000
G01 X-0.39230 Y-20.82803
G01 X-0.36954 Y-20.90306
G01 X-0.33259 Y-20.97222
G01 X-0.28283 Y-21.03283
G01 X-0.22222 Y-21.08258
G01 X-0.15306 Y-21.11954
G01 X-0.07803 Y-21.14230
G01 X0.00000 Y-21.15000
G01 X2.59997 Y-21.15000
G01 X2.59997 Y-23.49998
G01 X2.60767 Y-23.57801
G01 X2.63042 Y-23.65304
G01 X2.66738 Y-23.72220
G01 X2.71714 Y-23.78281
G01 X2.77774 Y-23.83257
G01 X2.84691 Y-23.86952
G01 X2.92194 Y-23.89228
G01 X2.99999 Y-23.89998
G01 X8.99998 Y-23.89998
G01 X9.07801 Y-23.89228
G01 X9.15304 Y-23.86952
G01 X9.22221 Y-23.83257
G01 X9.28281 Y-23.78281
G01 X9.33257 Y-23.72220
G01 X9.36953 Y-23.65304
G01 X9.39228 Y-23.57801
G01 X9.39998 Y-23.49998
G01 X9.39998 Y-21.15000
G01 X11.99998 Y-21.15000
G01 X12.07800 Y-21.14230
G01 X12.15304 Y-21.11954
G01 X12.22220 Y-21.08258
G01 X12.28280 Y-21.03283
G01 X12.33256 Y-20.97222
G01 X12.36952 Y-20.90306
G01 X12.39228 Y-20.82803
G01 X12.39998 Y-20.75000
G01 X12.39998 Y-2.74998
G01 X12.39228 Y-2.67193
G01 X12.36952 Y-2.59690
G01 X12.33256 Y-2.52773
G01 X12.28280 Y-2.46713
G01 X12.22220 Y-2.41737
G01 X12.15304 Y-2.38041
G01 X12.07800 Y-2.35765
G01 X11.99998 Y-2.34996
G01 X9.39998 Y-2.34996
G01 X9.39998 Y-0.00000
G01 X9.39228 Y0.07803
G01 X9.36953 Y0.15306
G01 X9.33257 Y0.22222
G01 X9.28281 Y0.28283
G01 X9.22221 Y0.33259
G01 X9.15304 Y0.36954
G01 X9.07801 Y0.39230
G01 X8.99998 Y0.40000
G01 X2.99999 Y0.40000
G01 X2.92194 Y0.39230
G01 X2.84691 Y0.36954
G01 X2.77774 Y0.33259
G01 X2.71714 Y0.28283
G01 X2.66738 Y0.22222
G01 X2.63042 Y0.15306
G01 X2.60767 Y0.07803
G01 X2.59997 Y-0.00000
G01 X2.59997 Y-2.34996
G01 X0.00000 Y-2.34996
G01 X-0.07803 Y-2.35765
G01 X-0.15306 Y-2.38041
G01 X-0.22222 Y-2.41737
G01 X-0.28283 Y-2.46713
G01 X-0.33259 Y-2.52773
G01 X-0.36954 Y-2.59690
G01 X-0.39230 Y-2.67193
G01 X-0.40000 Y-2.74998
G01 Z-0.12500 F30.00000 ( plunge. )
G04 P0 ( dwell for no time -- G64 should not smooth over this point )
G01 F100.00000
G01 X-0.40000 Y-20.75000
G01 X-0.39230 Y-20.82803
G01 X-0.36954 Y-20.90306
G01 X-0.33259 Y-20.97222
G01 X-0.28283 Y-21.03283
G01 X-0.22222 Y-21.08258
G01 X-0.15306 Y-21.11954
G01 X-0.07803 Y-21.14230
G01 X0.00000 Y-21.15000
G01 X2.59997 Y-21.15000
G01 X2.59997 Y-23.49998
G01 X2.60767 Y-23.57801
G01 X2.63042 Y-23.65304
G01 X2.66738 Y-23.72220
G01 X2.71714 Y-23.78281
G01 X2.77774 Y-23.83257
G01 X2.84691 Y-23.86952
G01 X2.92194 Y-23.89228
G01 X2.99999 Y-23.89998
G01 X8.99998 Y-23.89998
G01 X9.07801 Y-23.89228
G01 X9.15304 Y-23.86952
G01 X9.22221 Y-23.83257
G01 X9.28281 Y-23.78281
G01 X9.33257 Y-23.72220
G01 X9.36953 Y-23.65304
G01 X9.39228 Y-23.57801
G01 X9.39998 Y-23.49998
G01 X9.39998 Y-21.15000
G01 X11.99998 Y-21.15000
G01 X12.07800 Y-21.14230
G01 X12.15304 Y-21.11954
G01 X12.22220 Y-21.08258
G01 X12.28280 Y-21.03283
G01 X12.33256 Y-20.97222
G01 X12.36952 Y-20.90306
G01 X12.39228 Y-20.82803
G01 X12.39998 Y-20.75000
G01 X12.39998 Y-2.74998
G01 X12.39228 Y-2.67193
G01 X12.36952 Y-2.59690
G01 X12.33256 Y-2.52773
G01 X12.28280 Y-2.46713
G01 X12.22220 Y-2.41737
G01 X12.15304 Y-2.38041
G01 X12.07800 Y-2.35765
G01 X11.99998 Y-2.34996
G01 X9.39998 Y-2.34996
G01 X9.39998 Y-0.00000
G01 X9.39228 Y0.07803
G01 X9.36953 Y0.15306
G01 X9.33257 Y0.22222
G01 X9.28281 Y0.28283
G01 X9.22221 Y0.33259
G01 X9.15304 Y0.36954
G01 X9.07801 Y0.39230
G01 X8.99998 Y0.40000
G01 X2.99999 Y0.40000
G01 X2.92194 Y0.39230
G01 X2.84691 Y0.36954
G01 X2.77774 Y0.33259
G01 X2.71714 Y0.28283
G01 X2.66738 Y0.22222
G01 X2.63042 Y0.15306
G01 X2.60767 Y0.07803
G01 X2.59997 Y-0.00000
G01 X2.59997 Y-2.34996
G01 X0.00000 Y-2.34996
G01 X-0.07803 Y-2.35765
G01 X-0.15306 Y-2.38041
G01 X-0.22222 Y-2.41737
G01 X-0.28283 Y-2.46713
G01 X-0.33259 Y-2.52773
G01 X-0.36954 Y-2.59690
G01 X-0.39230 Y-2.67193
G01 X-0.40000 Y-2.74998
G01 Z-0.18750 F30.00000 ( plunge. )
G04 P0 ( dwell for no time -- G64 should not smooth over this point )
G01 F100.00000
G01 X-0.40000 Y-20.75000
G01 X-0.39230 Y-20.82803
G01 X-0.36954 Y-20.90306
G01 X-0.33259 Y-20.97222
G01 X-0.28283 Y-21.03283
G01 X-0.22222 Y-21.08258
G01 X-0.15306 Y-21.11954
G01 X-0.07803 Y-21.14230
G01 X0.00000 Y-21.15000
G01 X2.59997 Y-21.15000
G01 X2.59997 Y-23.49998
G01 X2.60767 Y-23.57801
G01 X2.63042 Y-23.65304
G01 X2.66738 Y-23.72220
G01 X2.71714 Y-23.78281
G01 X2.77774 Y-23.83257
G01 X2.84691 Y-23.86952
G01 X2.92194 Y-23.89228
G01 X2.99999 Y-23.89998
G01 X8.99998 Y-23.89998
G01 X9.07801 Y-23.89228
G01 X9.15304 Y-23.86952
G01 X9.22221 Y-23.83257
G01 X9.28281 Y-23.78281
G01 X9.33257 Y-23.72220
G01 X9.36953 Y-23.65304
G01 X9.39228 Y-23.57801
G01 X9.39998 Y-23.49998
G01 X9.39998 Y-21.15000
G01 X11.99998 Y-21.15000
G01 X12.07800 Y-21.14230
G01 X12.15304 Y-21.11954
G01 X12.22220 Y-21.08258
G01 X12.28280 Y-21.03283
G01 X12.33256 Y-20.97222
G01 X12.36952 Y-20.90306
G01 X12.39228 Y-20.82803
G01 X12.39998 Y-20.75000
G01 X12.39998 Y-2.74998
G01 X12.39228 Y-2.67193
G01 X12.36952 Y-2.59690
G01 X12.33256 Y-2.52773
G01 X12.28280 Y-2.46713
G01 X12.22220 Y-2.41737
G01 X12.15304 Y-2.38041
G01 X12.07800 Y-2.35765
G01 X11.99998 Y-2.34996
G01 X9.39998 Y-2.34996
G01 X9.39998 Y-0.00000
G01 X9.39228 Y0.07803
G01 X9.36953 Y0.15306
G01 X9.33257 Y0.22222
G01 X9.28281 Y0.28283
G01 X9.22221 Y0.33259
G01 X9.15304 Y0.36954
G01 X9.07801 Y0.39230
G01 X8.99998 Y0.40000
G01 X2.99999 Y0.40000
G01 X2.92194 Y0.39230
G01 X2.84691 Y0.36954
G01 X2.77774 Y0.33259
G01 X2.71714 Y0.28283
G01 X2.66738 Y0.22222
G01 X2.63042 Y0.15306
G01 X2.60767 Y0.07803
G01 X2.59997 Y-0.00000
G01 X2.59997 Y-2.34996
G01 X0.00000 Y-2.34996
G01 X-0.07803 Y-2.35765
G01 X-0.15306 Y-2.38041
G01 X-0.22222 Y-2.41737
G01 X-0.28283 Y-2.46713
G01 X-0.33259 Y-2.52773
G01 X-0.36954 Y-2.59690
G01 X-0.39230 Y-2.67193
G01 X-0.40000 Y-2.74998
G01 Z-0.25000 F30.00000 ( plunge. )
G04 P0 ( dwell for no time -- G64 should not smooth over this point )
G01 F100.00000
G01 X-0.40000 Y-20.75000
G01 X-0.39230 Y-20.82803
G01 X-0.36954 Y-20.90306
G01 X-0.33259 Y-20.97222
G01 X-0.28283 Y-21.03283
G01 X-0.22222 Y-21.08258
G01 X-0.15306 Y-21.11954
G01 X-0.07803 Y-21.14230
G01 X0.00000 Y-21.15000
G01 X2.59997 Y-21.15000
G01 X2.59997 Y-23.49998
G01 X2.60767 Y-23.57801
G01 X2.63042 Y-23.65304
G01 X2.66738 Y-23.72220
G01 X2.71714 Y-23.78281
G01 X2.77774 Y-23.83257
G01 X2.84691 Y-23.86952
G01 X2.92194 Y-23.89228
G01 X2.99999 Y-23.89998
G01 X8.99998 Y-23.89998
G01 X9.07801 Y-23.89228
G01 X9.15304 Y-23.86952
G01 X9.22221 Y-23.83257
G01 X9.28281 Y-23.78281
G01 X9.33257 Y-23.72220
G01 X9.36953 Y-23.65304
G01 X9.39228 Y-23.57801
G01 X9.39998 Y-23.49998
G01 X9.39998 Y-21.15000
G01 X11.99998 Y-21.15000
G01 X12.07800 Y-21.14230
G01 X12.15304 Y-21.11954
G01 X12.22220 Y-21.08258
G01 X12.28280 Y-21.03283
G01 X12.33256 Y-20.97222
G01 X12.36952 Y-20.90306
G01 X12.39228 Y-20.82803
G01 X12.39998 Y-20.75000
G01 X12.39998 Y-2.74998
G01 X12.39228 Y-2.67193
G01 X12.36952 Y-2.59690
G01 X12.33256 Y-2.52773
G01 X12.28280 Y-2.46713
G01 X12.22220 Y-2.41737
G01 X12.15304 Y-2.38041
G01 X12.07800 Y-2.35765
G01 X11.99998 Y-2.34996
G01 X9.39998 Y-2.34996
G01 X9.39998 Y-0.00000
G01 X9.39228 Y0.07803
G01 X9.36953 Y0.15306
G01 X9.33257 Y0.22222
G01 X9.28281 Y0.28283
G01 X9.22221 Y0.33259
G01 X9.15304 Y0.36954
G01 X9.07801 Y0.39230
G01 X8.99998 Y0.40000
G01 X2.99999 Y0.40000
G01 X2.92194 Y0.39230
G01 X2.84691 Y0.36954
G01 X2.77774 Y0.33259
G01 X2.71714 Y0.28283
G01 X2.66738 Y0.22222
G01 X2.63042 Y0.15306
G01 X2.60767 Y0.07803
G01 X2.59997 Y-0.00000
G01 X2.59997 Y-2.34996
G01 X0.00000 Y-2.34996
G01 X-0.07803 Y-2.35765
G01 X-0.15306 Y-2.38041
G01 X-0.22222 Y-2.41737
G01 X-0.28283 Y-2.46713
G01 X-0.33259 Y-2.52773
G01 X-0.36954 Y-2.59690
G01 X-0.39230 Y-2.67193
G01 X-0.40000 Y-2.74998
G01 Z-0.31250 F30.00000 ( plunge. )
G04 P0 ( dwell for no time -- G64 should not smooth over this point )
G01 F100.00000
G01 X-0.40000 Y-20.75000
G01 X-0.39230 Y-20.82803
G01 X-0.36954 Y-20.90306
G01 X-0.33259 Y-20.97222
G01 X-0.28283 Y-21.03283
G01 X-0.22222 Y-21.08258
G01 X-0.15306 Y-21.11954
G01 X-0.07803 Y-21.14230
G01 X0.00000 Y-21.15000
G01 X2.59997 Y-21.15000
G01 X2.59997 Y-23.49998
G01 X2.60767 Y-23.57801
G01 X2.63042 Y-23.65304
G01 X2.66738 Y-23.72220
G01 X2.71714 Y-23.78281
G01 X2.77774 Y-23.83257
G01 X2.84691 Y-23.86952
G01 X2.92194 Y-23.89228
G01 X2.99999 Y-23.89998
G01 X8.99998 Y-23.89998
G01 X9.07801 Y-23.89228
G01 X9.15304 Y-23.86952
G01 X9.22221 Y-23.83257
G01 X9.28281 Y-23.78281
G01 X9.33257 Y-23.72220
G01 X9.36953 Y-23.65304
G01 X9.39228 Y-23.57801
G01 X9.39998 Y-23.49998
G01 X9.39998 Y-21.15000
G01 X11.99998 Y-21.15000
G01 X12.07800 Y-21.14230
G01 X12.15304 Y-21.11954
G01 X12.22220 Y-21.08258
G01 X12.28280 Y-21.03283
G01 X12.33256 Y-20.97222
G01 X12.36952 Y-20.90306
G01 X12.39228 Y-20.82803
G01 X12.39998 Y-20.75000
G01 X12.39998 Y-2.74998
G01 X12.39228 Y-2.67193
G01 X12.36952 Y-2.59690
G01 X12.33256 Y-2.52773
G01 X12.28280 Y-2.46713
G01 X12.22220 Y-2.41737
G01 X12.15304 Y-2.38041
G01 X12.07800 Y-2.35765
G01 X11.99998 Y-2.34996
G01 X9.39998 Y-2.34996
G01 X9.39998 Y-0.00000
G01 X9.39228 Y0.07803
G01 X9.36953 Y0.15306
G01 X9.33257 Y0.22222
G01 X9.28281 Y0.28283
G01 X9.22221 Y0.33259
G01 X9.15304 Y0.36954
G01 X9.07801 Y0.39230
G01 X8.99998 Y0.40000
G01 X2.99999 Y0.40000
G01 X2.92194 Y0.39230
G01 X2.84691 Y0.36954
G01 X2.77774 Y0.33259
G01 X2.71714 Y0.28283
G01 X2.66738 Y0.22222
G01 X2.63042 Y0.15306
G01 X2.60767 Y0.07803
G01 X2.59997 Y-0.00000
G01 X2.59997 Y-2.34996
G01 X0.00000 Y-2.34996
G01 X-0.07803 Y-2.35765
G01 X-0.15306 Y-2.38041
G01 X-0.22222 Y-2.41737
G01 X-0.28283 Y-2.46713
G01 X-0.33259 Y-2.52773
G01 X-0.36954 Y-2.59690
G01 X-0.39230 Y-2.67193
G01 X-0.40000 Y-2.74998
G01 Z-0.37500 F30.00000 ( plunge. )
G04 P0 ( dwell for no time -- G64 should not smooth over this point )
G01 F100.00000
G01 X-0.40000 Y-20.75000
G01 X-0.39230 Y-20.82803
G01 X-0.36954 Y-20.90306
G01 X-0.33259 Y-20.97222
G01 X-0.28283 Y-21.03283
G01 X-0.22222 Y-21.08258
G01 X-0.15306 Y-21.11954
G01 X-0.07803 Y-21.14230
G01 X0.00000 Y-21.15000
G01 X2.59997 Y-21.15000
G01 X2.59997 Y-23.49998
G01 X2.60767 Y-23.57801
G01 X2.63042 Y-23.65304
G01 X2.66738 Y-23.72220
G01 X2.71714 Y-23.78281
G01 X2.77774 Y-23.83257
G01 X2.84691 Y-23.86952
G01 X2.92194 Y-23.89228
G01 X2.99999 Y-23.89998
G01 X8.99998 Y-23.89998
G01 X9.07801 Y-23.89228
G01 X9.15304 Y-23.86952
G01 X9.22221 Y-23.83257
G01 X9.28281 Y-23.78281
G01 X9.33257 Y-23.72220
G01 X9.36953 Y-23.65304
G01 X9.39228 Y-23.57801
G01 X9.39998 Y-23.49998
G01 X9.39998 Y-21.15000
G01 X11.99998 Y-21.15000
G01 X12.07800 Y-21.14230
G01 X12.15304 Y-21.11954
G01 X12.22220 Y-21.08258
G01 X12.28280 Y-21.03283
G01 X12.33256 Y-20.97222
G01 X12.36952 Y-20.90306
G01 X12.39228 Y-20.82803
G01 X12.39998 Y-20.75000
G01 X12.39998 Y-2.74998
G01 X12.39228 Y-2.67193
G01 X12.36952 Y-2.59690
G01 X12.33256 Y-2.52773
G01 X12.28280 Y-2.46713
G01 X12.22220 Y-2.41737
G01 X12.15304 Y-2.38041
G01 X12.07800 Y-2.35765
G01 X11.99998 Y-2.34996
G01 X9.39998 Y-2.34996
G01 X9.39998 Y-0.00000
G01 X9.39228 Y0.07803
G01 X9.36953 Y0.15306
G01 X9.33257 Y0.22222
G01 X9.28281 Y0.28283
G01 X9.22221 Y0.33259
G01 X9.15304 Y0.36954
G01 X9.07801 Y0.39230
G01 X8.99998 Y0.40000
G01 X2.99999 Y0.40000
G01 X2.92194 Y0.39230
G01 X2.84691 Y0.36954
G01 X2.77774 Y0.33259
G01 X2.71714 Y0.28283
G01 X2.66738 Y0.22222
G01 X2.63042 Y0.15306
G01 X2.60767 Y0.07803
G01 X2.59997 Y-0.00000
G01 X2.59997 Y-2.34996
G01 X0.00000 Y-2.34996
G01 X-0.07803 Y-2.35765
G01 X-0.15306 Y-2.38041
G01 X-0.22222 Y-2.41737
G01 X-0.28283 Y-2.46713
G01 X-0.33259 Y-2.52773
G01 X-0.36954 Y-2.59690
G01 X-0.39230 Y-2.67193
G01 X-0.40000 Y-2.74998
G01 Z-0.43750 F30.00000 ( plunge. )
G04 P0 ( dwell for no time -- G64 should not smooth over this point )
G01 F100.00000
G01 X-0.40000 Y-20.75000
G01 X-0.39230 Y-20.82803
G01 X-0.36954 Y-20.90306
G01 X-0.33259 Y-20.97222
G01 X-0.28283 Y-21.03283
G01 X-0.22222 Y-21.08258
G01 X-0.15306 Y-21.11954
G01 X-0.07803 Y-21.14230
G01 X0.00000 Y-21.15000
G01 X2.59997 Y-21.15000
G01 X2.59997 Y-23.49998
G01 X2.60767 Y-23.57801
G01 X2.63042 Y-23.65304
G01 X2.66738 Y-23.72220
G01 X2.71714 Y-23.78281
G01 X2.77774 Y-23.83257
G01 X2.84691 Y-23.86952
G01 X2.92194 Y-23.89228
G01 X2.99999 Y-23.89998
G01 X8.99998 Y-23.89998
G01 X9.07801 Y-23.89228
G01 X9.15304 Y-23.86952
G01 X9.22221 Y-23.83257
G01 X9.28281 Y-23.78281
G01 X9.33257 Y-23.72220
G01 X9.36953 Y-23.65304
G01 X9.39228 Y-23.57801
G01 X9.39998 Y-23.49998
G01 X9.39998 Y-21.15000
G01 X11.99998 Y-21.15000
G01 X12.07800 Y-21.14230
G01 X12.15304 Y-21.11954
G01 X12.22220 Y-21.08258
G01 X12.28280 Y-21.03283
G01 X12.33256 Y-20.97222
G01 X12.36952 Y-20.90306
G01 X12.39228 Y-20.82803
G01 X12.39998 Y-20.75000
G01 X12.39998 Y-2.74998
G01 X12.39228 Y-2.67193
G01 X12.36952 Y-2.59690
G01 X12.33256 Y-2.52773
G01 X12.28280 Y-2.46713
G01 X12.22220 Y-2.41737
G01 X12.15304 Y-2.38041
G01 X12.07800 Y-2.35765
G01 X11.99998 Y-2.34996
G01 X9.39998 Y-2.34996
G01 X9.39998 Y-0.00000
G01 X9.39228 Y0.07803
G01 X9.36953 Y0.15306
G01 X9.33257 Y0.22222
G01 X9.28281 Y0.28283
G01 X9.22221 Y0.33259
G01 X9.15304 Y0.36954
G01 X9.07801 Y0.39230
G01 X8.99998 Y0.40000
G01 X2.99999 Y0.40000
G01 X2.92194 Y0.39230
G01 X2.84691 Y0.36954
G01 X2.77774 Y0.33259
G01 X2.71714 Y0.28283
G01 X2.66738 Y0.22222
G01 X2.63042 Y0.15306
G01 X2.60767 Y0.07803
G01 X2.59997 Y-0.00000
G01 X2.59997 Y-2.34996
G01 X0.00000 Y-2.34996
G01 X-0.07803 Y-2.35765
G01 X-0.15306 Y-2.38041
G01 X-0.22222 Y-2.41737
G01 X-0.28283 Y-2.46713
G01 X-0.33259 Y-2.52773
G01 X-0.36954 Y-2.59690
G01 X-0.39230 Y-2.67193
G01 X-0.40000 Y-2.74998
G01 Z-0.50000 F30.00000 ( plunge. )
G04 P0 ( dwell for no time -- G64 should not smooth over this point )
G01 F100.00000
G01 X-0.40000 Y-20.75000
G01 X-0.39230 Y-20.82803
G01 X-0.36954 Y-20.90306
G01 X-0.33259 Y-20.97222
G01 X-0.28283 Y-21.03283
G01 X-0.22222 Y-21.08258
G01 X-0.15306 Y-21.11954
G01 X-0.07803 Y-21.14230
G01 X0.00000 Y-21.15000
G01 X2.59997 Y-21.15000
G01 X2.59997 Y-23.49998
G01 X2.60767 Y-23.57801
G01 X2.63042 Y-23.65304
G01 X2.66738 Y-23.72220
G01 X2.71714 Y-23.78281
G01 X2.77774 Y-23.83257
G01 X2.84691 Y-23.86952
G01 X2.92194 Y-23.89228
G01 X2.99999 Y-23.89998
G01 X8.99998 Y-23.89998
G01 X9.07801 Y-23.89228
G01 X9.15304 Y-23.86952
G01 X9.22221 Y-23.83257
G01 X9.28281 Y-23.78281
G01 X9.33257 Y-23.72220
G01 X9.36953 Y-23.65304
G01 X9.39228 Y-23.57801
G01 X9.39998 Y-23.49998
G01 X9.39998 Y-21.15000
G01 X11.99998 Y-21.15000
G01 X12.07800 Y-21.14230
G01 X12.15304 Y-21.11954
G01 X12.22220 Y-21.08258
G01 X12.28280 Y-21.03283
G01 X12.33256 Y-20.97222
G01 X12.36952 Y-20.90306
G01 X12.39228 Y-20.82803
G01 X12.39998 Y-20.75000
G01 X12.39998 Y-2.74998
G01 X12.39228 Y-2.67193
G01 X12.36952 Y-2.59690
G01 X12.33256 Y-2.52773
G01 X12.28280 Y-2.46713
G01 X12.22220 Y-2.41737
G01 X12.15304 Y-2.38041
G01 X12.07800 Y-2.35765
G01 X11.99998 Y-2.34996
G01 X9.39998 Y-2.34996
G01 X9.39998 Y-0.00000
G01 X9.39228 Y0.07803
G01 X9.36953 Y0.15306
G01 X9.33257 Y0.22222
G01 X9.28281 Y0.28283
G01 X9.22221 Y0.33259
G01 X9.15304 Y0.36954
G01 X9.07801 Y0.39230
G01 X8.99998 Y0.40000
G01 X2.99999 Y0.40000
G01 X2.92194 Y0.39230
G01 X2.84691 Y0.36954
G01 X2.77774 Y0.33259
G01 X2.71714 Y0.28283
G01 X2.66738 Y0.22222
G01 X2.63042 Y0.15306
G01 X2.60767 Y0.07803
G01 X2.59997 Y-0.00000
G01 X2.59997 Y-2.34996
G01 X0.00000 Y-2.34996
G01 X-0.07803 Y-2.35765
G01 X-0.15306 Y-2.38041
G01 X-0.22222 Y-2.41737
G01 X-0.28283 Y-2.46713
G01 X-0.33259 Y-2.52773
G01 X-0.36954 Y-2.59690
G01 X-0.39230 Y-2.67193
G01 X-0.40000 Y-2.74998
G01 Z-0.56250 F30.00000 ( plunge. )
G04 P0 ( dwell for no time -- G64 should not smooth over this point )
G01 F100.00000
G01 X-0.40000 Y-20.75000
G01 X-0.39230 Y-20.82803
G01 X-0.36954 Y-20.90306
G01 X-0.33259 Y-20.97222
G01 X-0.28283 Y-21.03283
G01 X-0.22222 Y-21.08258
G01 X-0.15306 Y-21.11954
G01 X-0.07803 Y-21.14230
G01 X0.00000 Y-21.15000
G01 X2.59997 Y-21.15000
G01 X2.59997 Y-23.49998
G01 X2.60767 Y-23.57801
G01 X2.63042 Y-23.65304
G01 X2.66738 Y-23.72220
G01 X2.71714 Y-23.78281
G01 X2.77774 Y-23.83257
G01 X2.84691 Y-23.86952
G01 X2.92194 Y-23.89228
G01 X2.99999 Y-23.89998
G01 X8.99998 Y-23.89998
G01 X9.07801 Y-23.89228
G01 X9.15304 Y-23.86952
G01 X9.22221 Y-23.83257
G01 X9.28281 Y-23.78281
G01 X9.33257 Y-23.72220
G01 X9.36953 Y-23.65304
G01 X9.39228 Y-23.57801
G01 X9.39998 Y-23.49998
G01 X9.39998 Y-21.15000
G01 X11.99998 Y-21.15000
G01 X12.07800 Y-21.14230
G01 X12.15304 Y-21.11954
G01 X12.22220 Y-21.08258
G01 X12.28280 Y-21.03283
G01 X12.33256 Y-20.97222
G01 X12.36952 Y-20.90306
G01 X12.39228 Y-20.82803
G01 X12.39998 Y-20.75000
G01 X12.39998 Y-2.74998
G01 X12.39228 Y-2.67193
G01 X12.36952 Y-2.59690
G01 X12.33256 Y-2.52773
G01 X12.28280 Y-2.46713
G01 X12.22220 Y-2.41737
G01 X12.15304 Y-2.38041
G01 X12.07800 Y-2.35765
G01 X11.99998 Y-2.34996
G01 X9.39998 Y-2.34996
G01 X9.39998 Y-0.00000
G01 X9.39228 Y0.07803
G01 X9.36953 Y0.15306
G01 X9.33257 Y0.22222
G01 X9.28281 Y0.28283
G01 X9.22221 Y0.33259
G01 X9.15304 Y0.36954
G01 X9.07801 Y0.39230
G01 X8.99998 Y0.40000
G01 X2.99999 Y0.40000
G01 X2.92194 Y0.39230
G01 X2.84691 Y0.36954
G01 X2.77774 Y0.33259
G01 X2.71714 Y0.28283
G01 X2.66738 Y0.22222
G01 X2.63042 Y0.15306
G01 X2.60767 Y0.07803
G01 X2.59997 Y-0.00000
G01 X2.59997 Y-2.34996
G01 X0.00000 Y-2.34996
G01 X-0.07803 Y-2.35765
G01 X-0.15306 Y-2.38041
G01 X-0.22222 Y-2.41737
G01 X-0.28283 Y-2.46713
G01 X-0.33259 Y-2.52773
G01 X-0.36954 Y-2.59690
G01 X-0.39230 Y-2.67193
G01 X-0.40000 Y-2.74998
G01 Z-0.62500 F30.00000 ( plunge. )
G04 P0 ( dwell for no time -- G64 should not smooth over this point )
G01 F100.00000
G01 X-0.40000 Y-20.75000
G01 X-0.39230 Y-20.82803
G01 X-0.36954 Y-20.90306
G01 X-0.33259 Y-20.97222
G01 X-0.28283 Y-21.03283
G01 X-0.22222 Y-21.08258
G01 X-0.15306 Y-21.11954
G01 X-0.07803 Y-21.14230
G01 X0.00000 Y-21.15000
G01 X2.59997 Y-21.15000
G01 X2.59997 Y-23.49998
G01 X2.60767 Y-23.57801
G01 X2.63042 Y-23.65304
G01 X2.66738 Y-23.72220
G01 X2.71714 Y-23.78281
G01 X2.77774 Y-23.83257
G01 X2.84691 Y-23.86952
G01 X2.92194 Y-23.89228
G01 X2.99999 Y-23.89998
G01 X8.99998 Y-23.89998
G01 X9.07801 Y-23.89228
G01 X9.15304 Y-23.86952
G01 X9.22221 Y-23.83257
G01 X9.28281 Y-23.78281
G01 X9.33257 Y-23.72220
G01 X9.36953 Y-23.65304
G01 X9.39228 Y-23.57801
G01 X9.39998 Y-23.49998
G01 X9.39998 Y-21.15000
G01 X11.99998 Y-21.15000
G01 X12.07800 Y-21.14230
G01 X12.15304 Y-21.11954
G01 X12.22220 Y-21.08258
G01 X12.28280 Y-21.03283
G01 X12.33256 Y-20.97222
G01 X12.36952 Y-20.90306
G01 X12.39228 Y-20.82803
G01 X12.39998 Y-20.75000
G01 X12.39998 Y-2.74998
G01 X12.39228 Y-2.67193
G01 X12.36952 Y-2.59690
G01 X12.33256 Y-2.52773
G01 X12.28280 Y-2.46713
G01 X12.22220 Y-2.41737
G01 X12.15304 Y-2.38041
G01 X12.07800 Y-2.35765
G01 X11.99998 Y-2.34996
G01 X9.39998 Y-2.34996
G01 X9.39998 Y-0.00000
G01 X9.39228 Y0.07803
G01 X9.36953 Y0.15306
G01 X9.33257 Y0.22222
G01 X9.28281 Y0.28283
G01 X9.22221 Y0.33259
G01 X9.15304 Y0.36954
G01 X9.07801 Y0.39230
G01 X8.99998 Y0.40000
G01 X2.99999 Y0.40000
G01 X2.92194 Y0.39230
G01 X2.84691 Y0.36954
G01 X2.77774 Y0.33259
G01 X2.71714 Y0.28283
G01 X2.66738 Y0.22222
G01 X2.63042 Y0.15306
G01 X2.60767 Y0.07803
G01 X2.59997 Y-0.00000
G01 X2.59997 Y-2.34996
G01 X0.00000 Y-2.34996
G01 X-0.07803 Y-2.35765
G01 X-0.15306 Y-2.38041
G01 X-0.22222 Y-2.41737
G01 X-0.28283 Y-2.46713
G01 X-0.33259 Y-2.52773
G01 X-0.36954 Y-2.59690
G01 X-0.39230 Y-2.67193
G01 X-0.40000 Y-2.74998
G01 Z-0.68750 F30.00000 ( plunge. )
G04 P0 ( dwell for no time -- G64 should not smooth over this point )
G01 F100.00000
G01 X-0.40000 Y-20.75000
G01 X-0.39230 Y-20.82803
G01 X-0.36954 Y-20.90306
G01 X-0.33259 Y-20.97222
G01 X-0.28283 Y-21.03283
G01 X-0.22222 Y-21.08258
G01 X-0.15306 Y-21.11954
G01 X-0.07803 Y-21.14230
G01 X0.00000 Y-21.15000
G01 X2.59997 Y-21.15000
G01 X2.59997 Y-23.49998
G01 X2.60767 Y-23.57801
G01 X2.63042 Y-23.65304
G01 X2.66738 Y-23.72220
G01 X2.71714 Y-23.78281
G01 X2.77774 Y-23.83257
G01 X2.84691 Y-23.86952
G01 X2.92194 Y-23.89228
G01 X2.99999 Y-23.89998
G01 X8.99998 Y-23.89998
G01 X9.07801 Y-23.89228
G01 X9.15304 Y-23.86952
G01 X9.22221 Y-23.83257
G01 X9.28281 Y-23.78281
G01 X9.33257 Y-23.72220
G01 X9.36953 Y-23.65304
G01 X9.39228 Y-23.57801
G01 X9.39998 Y-23.49998
G01 X9.39998 Y-21.15000
G01 X11.99998 Y-21.15000
G01 X12.07800 Y-21.14230
G01 X12.15304 Y-21.11954
G01 X12.22220 Y-21.08258
G01 X12.28280 Y-21.03283
G01 X12.33256 Y-20.97222
G01 X12.36952 Y-20.90306
G01 X12.39228 Y-20.82803
G01 X12.39998 Y-20.75000
G01 X12.39998 Y-2.74998
G01 X12.39228 Y-2.67193
G01 X12.36952 Y-2.59690
G01 X12.33256 Y-2.52773
G01 X12.28280 Y-2.46713
G01 X12.22220 Y-2.41737
G01 X12.15304 Y-2.38041
G01 X12.07800 Y-2.35765
G01 X11.99998 Y-2.34996
G01 X9.39998 Y-2.34996
G01 X9.39998 Y-0.00000
G01 X9.39228 Y0.07803
G01 X9.36953 Y0.15306
G01 X9.33257 Y0.22222
G01 X9.28281 Y0.28283
G01 X9.22221 Y0.33259
G01 X9.15304 Y0.36954
G01 X9.07801 Y0.39230
G01 X8.99998 Y0.40000
G01 X2.99999 Y0.40000
G01 X2.92194 Y0.39230
G01 X2.84691 Y0.36954
G01 X2.77774 Y0.33259
G01 X2.71714 Y0.28283
G01 X2.66738 Y0.22222
G01 X2.63042 Y0.15306
G01 X2.60767 Y0.07803
G01 X2.59997 Y-0.00000
G01 X2.59997 Y-2.34996
G01 X0.00000 Y-2.34996
G01 X-0.07803 Y-2.35765
G01 X-0.15306 Y-2.38041
G01 X-0.22222 Y-2.41737
G01 X-0.28283 Y-2.46713
G01 X-0.33259 Y-2.52773
G01 X-0.36954 Y-2.59690
G01 X-0.39230 Y-2.67193
G01 X-0.40000 Y-2.74998
G01 Z-0.75000 F30.00000 ( plunge. )
G04 P0 ( dwell for no time -- G64 should not smooth over this point )
G01 F100.00000
G01 X-0.40000 Y-20.75000
G01 X-0.39230 Y-20.82803
G01 X-0.36954 Y-20.90306
G01 X-0.33259 Y-20.97222
G01 X-0.28283 Y-21.03283
G01 X-0.22222 Y-21.08258
G01 X-0.15306 Y-21.11954
G01 X-0.07803 Y-21.14230
G01 X0.00000 Y-21.15000
G01 X2.59997 Y-21.15000
G01 X2.59997 Y-23.49998
G01 X2.60767 Y-23.57801
G01 X2.63042 Y-23.65304
G01 X2.66738 Y-23.72220
G01 X2.71714 Y-23.78281
G01 X2.77774 Y-23.83257
G01 X2.84691 Y-23.86952
G01 X2.92194 Y-23.89228
G01 X2.99999 Y-23.89998
G01 X8.99998 Y-23.89998
G01 X9.07801 Y-23.89228
G01 X9.15304 Y-23.86952
G01 X9.22221 Y-23.83257
G01 X9.28281 Y-23.78281
G01 X9.33257 Y-23.72220
G01 X9.36953 Y-23.65304
G01 X9.39228 Y-23.57801
G01 X9.39998 Y-23.49998
G01 X9.39998 Y-21.15000
G01 X11.99998 Y-21.15000
G01 X12.07800 Y-21.14230
G01 X12.15304 Y-21.11954
G01 X12.22220 Y-21.08258
G01 X12.28280 Y-21.03283
G01 X12.33256 Y-20.97222
G01 X12.36952 Y-20.90306
G01 X12.39228 Y-20.82803
G01 X12.39998 Y-20.75000
G01 X12.39998 Y-2.74998
G01 X12.39228 Y-2.67193
G01 X12.36952 Y-2.59690
G01 X12.33256 Y-2.52773
G01 X12.28280 Y-2.46713
G01 X12.22220 Y-2.41737
G01 X12.15304 Y-2.38041
G01 X12.07800 Y-2.35765
G01 X11.99998 Y-2.34996
G01 X9.39998 Y-2.34996
G01 X9.39998 Y-0.00000
G01 X9.39228 Y0.07803
G01 X9.36953 Y0.15306
G01 X9.33257 Y0.22222
G01 X9.28281 Y0.28283
G01 X9.22221 Y0.33259
G01 X9.15304 Y0.36954
G01 X9.07801 Y0.39230
G01 X8.99998 Y0.40000
G01 X2.99999 Y0.40000
G01 X2.92194 Y0.39230
G01 X2.84691 Y0.36954
G01 X2.77774 Y0.33259
G01 X2.71714 Y0.28283
G01 X2.66738 Y0.22222
G01 X2.63042 Y0.15306
G01 X2.60767 Y0.07803
G01 X2.59997 Y-0.00000
G01 X2.59997 Y-2.34996
G01 X0.00000 Y-2.34996
G01 X-0.07803 Y-2.35765
G01 X-0.15306 Y-2.38041
G01 X-0.22222 Y-2.41737
G01 X-0.28283 Y-2.46713
G01 X-0.33259 Y-2.52773
G01 X-0.36954 Y-2.59690
G01 X-0.39230 Y-2.67193
G01 X-0.40000 Y-2.74998
G01 Z-0.81250 F30.00000 ( plunge. )
G04 P0 ( dwell for no time -- G64 should not smooth over this point )
G01 F100.00000
G01 X-0.40000 Y-20.75000
G01 X-0.39230 Y-20.82803
G01 X-0.36954 Y-20.90306
G01 X-0.33259 Y-20.97222
G01 X-0.28283 Y-21.03283
G01 X-0.22222 Y-21.08258
G01 X-0.15306 Y-21.11954
G01 X-0.07803 Y-21.14230
G01 X0.00000 Y-21.15000
G01 X2.59997 Y-21.15000
G01 X2.59997 Y-23.49998
G01 X2.60767 Y-23.57801
G01 X2.63042 Y-23.65304
G01 X2.66738 Y-23.72220
G01 X2.71714 Y-23.78281
G01 X2.77774 Y-23.83257
G01 X2.84691 Y-23.86952
G01 X2.92194 Y-23.89228
G01 X2.99999 Y-23.89998
G01 X8.99998 Y-23.89998
G01 X9.07801 Y-23.89228
G01 X9.15304 Y-23.86952
G01 X9.22221 Y-23.83257
G01 X9.28281 Y-23.78281
G01 X9.33257 Y-23.72220
G01 X9.36953 Y-23.65304
G01 X9.39228 Y-23.57801
G01 X9.39998 Y-23.49998
G01 X9.39998 Y-21.15000
G01 X11.99998 Y-21.15000
G01 X12.07800 Y-21.14230
G01 X12.15304 Y-21.11954
G01 X12.22220 Y-21.08258
G01 X12.28280 Y-21.03283
G01 X12.33256 Y-20.97222
G01 X12.36952 Y-20.90306
G01 X12.39228 Y-20.82803
G01 X12.39998 Y-20.75000
G01 X12.39998 Y-2.74998
G01 X12.39228 Y-2.67193
G01 X12.36952 Y-2.59690
G01 X12.33256 Y-2.52773
G01 X12.28280 Y-2.46713
G01 X12.22220 Y-2.41737
G01 X12.15304 Y-2.38041
G01 X12.07800 Y-2.35765
G01 X11.99998 Y-2.34996
G01 X9.39998 Y-2.34996
G01 X9.39998 Y-0.00000
G01 X9.39228 Y0.07803
G01 X9.36953 Y0.15306
G01 X9.33257 Y0.22222
G01 X9.28281 Y0.28283
G01 X9.22221 Y0.33259
G01 X9.15304 Y0.36954
G01 X9.07801 Y0.39230
G01 X8.99998 Y0.40000
G01 X2.99999 Y0.40000
G01 X2.92194 Y0.39230
G01 X2.84691 Y0.36954
G01 X2.77774 Y0.33259
G01 X2.71714 Y0.28283
G01 X2.66738 Y0.22222
G01 X2.63042 Y0.15306
G01 X2.60767 Y0.07803
G01 X2.59997 Y-0.00000
G01 X2.59997 Y-2.34996
G01 X0.00000 Y-2.34996
G01 X-0.07803 Y-2.35765
G01 X-0.15306 Y-2.38041
G01 X-0.22222 Y-2.41737
G01 X-0.28283 Y-2.46713
G01 X-0.33259 Y-2.52773
G01 X-0.36954 Y-2.59690
G01 X-0.39230 Y-2.67193
G01 X-0.40000 Y-2.74998
G01 Z-0.87500 F30.00000 ( plunge. )
G04 P0 ( dwell for no time -- G64 should not smooth over this point )
G01 F100.00000
G01 X-0.40000 Y-20.75000
G01 X-0.39230 Y-20.82803
G01 X-0.36954 Y-20.90306
G01 X-0.33259 Y-20.97222
G01 X-0.28283 Y-21.03283
G01 X-0.22222 Y-21.08258
G01 X-0.15306 Y-21.11954
G01 X-0.07803 Y-21.14230
G01 X0.00000 Y-21.15000
G01 X2.59997 Y-21.15000
G01 X2.59997 Y-23.49998
G01 X2.60767 Y-23.57801
G01 X2.63042 Y-23.65304
G01 X2.66738 Y-23.72220
G01 X2.71714 Y-23.78281
G01 X2.77774 Y-23.83257
G01 X2.84691 Y-23.86952
G01 X2.92194 Y-23.89228
G01 X2.99999 Y-23.89998
G01 X8.99998 Y-23.89998
G01 X9.07801 Y-23.89228
G01 X9.15304 Y-23.86952
G01 X9.22221 Y-23.83257
G01 X9.28281 Y-23.78281
G01 X9.33257 Y-23.72220
G01 X9.36953 Y-23.65304
G01 X9.39228 Y-23.57801
G01 X9.39998 Y-23.49998
G01 X9.39998 Y-21.15000
G01 X11.99998 Y-21.15000
G01 X12.07800 Y-21.14230
G01 X12.15304 Y-21.11954
G01 X12.22220 Y-21.08258
G01 X12.28280 Y-21.03283
G01 X12.33256 Y-20.97222
G01 X12.36952 Y-20.90306
G01 X12.39228 Y-20.82803
G01 X12.39998 Y-20.75000
G01 X12.39998 Y-2.74998
G01 X12.39228 Y-2.67193
G01 X12.36952 Y-2.59690
G01 X12.33256 Y-2.52773
G01 X12.28280 Y-2.46713
G01 X12.22220 Y-2.41737
G01 X12.15304 Y-2.38041
G01 X12.07800 Y-2.35765
G01 X11.99998 Y-2.34996
G01 X9.39998 Y-2.34996
G01 X9.39998 Y-0.00000
G01 X9.39228 Y0.07803
G01 X9.36953 Y0.15306
G01 X9.33257 Y0.22222
G01 X9.28281 Y0.28283
G01 X9.22221 Y0.33259
G01 X9.15304 Y0.36954
G01 X9.07801 Y0.39230
G01 X8.99998 Y0.40000
G01 X2.99999 Y0.40000
G01 X2.92194 Y0.39230
G01 X2.84691 Y0.36954
G01 X2.77774 Y0.33259
G01 X2.71714 Y0.28283
G01 X2.66738 Y0.22222
G01 X2.63042 Y0.15306
G01 X2.60767 Y0.07803
G01 X2.59997 Y-0.00000
G01 X2.59997 Y-2.34996
G01 X0.00000 Y-2.34996
G01 X-0.07803 Y-2.35765
G01 X-0.15306 Y-2.38041
G01 X-0.22222 Y-2.41737
G01 X-0.28283 Y-2.46713
G01 X-0.33259 Y-2.52773
G01 X-0.36954 Y-2.59690
G01 X-0.39230 Y-2.67193
G01 X-0.40000 Y-2.74998
G01 Z-0.93750 F30.00000 ( plunge. )
G04 P0 ( dwell for no time -- G64 should not smooth over this point )
G01 F100.00000
G01 X-0.40000 Y-20.75000
G01 X-0.39230 Y-20.82803
G01 X-0.36954 Y-20.90306
G01 X-0.33259 Y-20.97222
G01 X-0.28283 Y-21.03283
G01 X-0.22222 Y-21.08258
G01 X-0.15306 Y-21.11954
G01 X-0.07803 Y-21.14230
G01 X0.00000 Y-21.15000
G01 X2.59997 Y-21.15000
G01 X2.59997 Y-23.49998
G01 X2.60767 Y-23.57801
G01 X2.63042 Y-23.65304
G01 X2.66738 Y-23.72220
G01 X2.71714 Y-23.78281
G01 X2.77774 Y-23.83257
G01 X2.84691 Y-23.86952
G01 X2.92194 Y-23.89228
G01 X2.99999 Y-23.89998
G01 X8.99998 Y-23.89998
G01 X9.07801 Y-23.89228
G01 X9.15304 Y-23.86952
G01 X9.22221 Y-23.83257
G01 X9.28281 Y-23.78281
G01 X9.33257 Y-23.72220
G01 X9.36953 Y-23.65304
G01 X9.39228 Y-23.57801
G01 X9.39998 Y-23.49998
G01 X9.39998 Y-21.15000
G01 X11.99998 Y-21.15000
G01 X12.07800 Y-21.14230
G01 X12.15304 Y-21.11954
G01 X12.22220 Y-21.08258
G01 X12.28280 Y-21.03283
G01 X12.33256 Y-20.97222
G01 X12.36952 Y-20.90306
G01 X12.39228 Y-20.82803
G01 X12.39998 Y-20.75000
G01 X12.39998 Y-2.74998
G01 X12.39228 Y-2.67193
G01 X12.36952 Y-2.59690
G01 X12.33256 Y-2.52773
G01 X12.28280 Y-2.46713
G01 X12.22220 Y-2.41737
G01 X12.15304 Y-2.38041
G01 X12.07800 Y-2.35765
G01 X11.99998 Y-2.34996
G01 X9.39998 Y-2.34996
G01 X9.39998 Y-0.00000
G01 X9.39228 Y0.07803
G01 X9.36953 Y0.15306
G01 X9.33257 Y0.22222
G01 X9.28281 Y0.28283
G01 X9.22221 Y0.33259
G01 X9.15304 Y0.36954
G01 X9.07801 Y0.39230
G01 X8.99998 Y0.40000
G01 X2.99999 Y0.40000
G01 X2.92194 Y0.39230
G01 X2.84691 Y0.36954
G01 X2.77774 Y0.33259
G01 X2.71714 Y0.28283
G01 X2.66738 Y0.22222
G01 X2.63042 Y0.15306
G01 X2.60767 Y0.07803
G01 X2.59997 Y-0.00000
G01 X2.59997 Y-2.34996
G01 X0.00000 Y-2.34996
G01 X-0.07803 Y-2.35765
G01 X-0.15306 Y-2.38041
G01 X-0.22222 Y-2.41737
G01 X-0.28283 Y-2.46713
G01 X-0.33259 Y-2.52773
G01 X-0.36954 Y-2.59690
G01 X-0.39230 Y-2.67193
G01 X-0.40000 Y-2.74998
G01 Z-1.00000 F30.00000 ( plunge. )
G04 P0 ( dwell for no time -- G64 should not smooth over this point )
G01 F100.00000
G01 X-0.40000 Y-20.75000
G01 X-0.39230 Y-20.82803
G01 X-0.36954 Y-20.90306
G01 X-0.33259 Y-20.97222
G01 X-0.28283 Y-21.03283
G01 X-0.22222 Y-21.08258
G01 X-0.15306 Y-21.11954
G01 X-0.07803 Y-21.14230
G01 X0.00000 Y-21.15000
G01 X2.59997 Y-21.15000
G01 X2.59997 Y-23.49998
G01 X2.60767 Y-23.57801
G01 X2.63042 Y-23.65304
G01 X2.66738 Y-23.72220
G01 X2.71714 Y-23.78281
G01 X2.77774 Y-23.83257
G01 X2.84691 Y-23.86952
G01 X2.92194 Y-23.89228
G01 X2.99999 Y-23.89998
G01 X8.99998 Y-23.89998
G01 X9.07801 Y-23.89228
G01 X9.15304 Y-23.86952
G01 X9.22221 Y-23.83257
G01 X9.28281 Y-23.78281
G01 X9.33257 Y-23.72220
G01 X9.36953 Y-23.65304
G01 X9.39228 Y-23.57801
G01 X9.39998 Y-23.49998
G01 X9.39998 Y-21.15000
G01 X11.99998 Y-21.15000
G01 X12.07800 Y-21.14230
G01 X12.15304 Y-21.11954
G01 X12.22220 Y-21.08258
G01 X12.28280 Y-21.03283
G01 X12.33256 Y-20.97222
G01 X12.36952 Y-20.90306
G01 X12.39228 Y-20.82803
G01 X12.39998 Y-20.75000
G01 X12.39998 Y-2.74998
G01 X12.39228 Y-2.67193
G01 X12.36952 Y-2.59690
G01 X12.33256 Y-2.52773
G01 X12.28280 Y-2.46713
G01 X12.22220 Y-2.41737
G01 X12.15304 Y-2.38041
G01 X12.07800 Y-2.35765
G01 X11.99998 Y-2.34996
G01 X9.39998 Y-2.34996
G01 X9.39998 Y-0.00000
G01 X9.39228 Y0.07803
G01 X9.36953 Y0.15306
G01 X9.33257 Y0.22222
G01 X9.28281 Y0.28283
G01 X9.22221 Y0.33259
G01 X9.15304 Y0.36954
G01 X9.07801 Y0.39230
G01 X8.99998 Y0.40000
G01 X2.99999 Y0.40000
G01 X2.92194 Y0.39230
G01 X2.84691 Y0.36954
G01 X2.77774 Y0.33259
G01 X2.71714 Y0.28283
G01 X2.66738 Y0.22222
G01 X2.63042 Y0.15306
G01 X2.60767 Y0.07803
G01 X2.59997 Y-0.00000
G01 X2.59997 Y-2.34996
G01 X0.00000 Y-2.34996
G01 X-0.07803 Y-2.35765
G01 X-0.15306 Y-2.38041
G01 X-0.22222 Y-2.41737
G01 X-0.28283 Y-2.46713
G01 X-0.33259 Y-2.52773
G01 X-0.36954 Y-2.59690
G01 X-0.39230 Y-2.67193
G01 X-0.40000 Y-2.74998
G01 Z-1.06250 F30.00000 ( plunge. )
G04 P0 ( dwell for no time -- G64 should not smooth over this point )
G01 F100.00000
G01 X-0.40000 Y-20.75000
G01 X-0.39230 Y-20.82803
G01 X-0.36954 Y-20.90306
G01 X-0.33259 Y-20.97222
G01 X-0.28283 Y-21.03283
G01 X-0.22222 Y-21.08258
G01 X-0.15306 Y-21.11954
G01 X-0.07803 Y-21.14230
G01 X0.00000 Y-21.15000
G01 X2.59997 Y-21.15000
G01 X2.59997 Y-23.49998
G01 X2.60767 Y-23.57801
G01 X2.63042 Y-23.65304
G01 X2.66738 Y-23.72220
G01 X2.71714 Y-23.78281
G01 X2.77774 Y-23.83257
G01 X2.84691 Y-23.86952
G01 X2.92194 Y-23.89228
G01 X2.99999 Y-23.89998
G01 X8.99998 Y-23.89998
G01 X9.07801 Y-23.89228
G01 X9.15304 Y-23.86952
G01 X9.22221 Y-23.83257
G01 X9.28281 Y-23.78281
G01 X9.33257 Y-23.72220
G01 X9.36953 Y-23.65304
G01 X9.39228 Y-23.57801
G01 X9.39998 Y-23.49998
G01 X9.39998 Y-21.15000
G01 X11.99998 Y-21.15000
G01 X12.07800 Y-21.14230
G01 X12.15304 Y-21.11954
G01 X12.22220 Y-21.08258
G01 X12.28280 Y-21.03283
G01 X12.33256 Y-20.97222
G01 X12.36952 Y-20.90306
G01 X12.39228 Y-20.82803
G01 X12.39998 Y-20.75000
G01 X12.39998 Y-2.74998
G01 X12.39228 Y-2.67193
G01 X12.36952 Y-2.59690
G01 X12.33256 Y-2.52773
G01 X12.28280 Y-2.46713
G01 X12.22220 Y-2.41737
G01 X12.15304 Y-2.38041
G01 X12.07800 Y-2.35765
G01 X11.99998 Y-2.34996
G01 X9.39998 Y-2.34996
G01 X9.39998 Y-0.00000
G01 X9.39228 Y0.07803
G01 X9.36953 Y0.15306
G01 X9.33257 Y0.22222
G01 X9.28281 Y0.28283
G01 X9.22221 Y0.33259
G01 X9.15304 Y0.36954
G01 X9.07801 Y0.39230
G01 X8.99998 Y0.40000
G01 X2.99999 Y0.40000
G01 X2.92194 Y0.39230
G01 X2.84691 Y0.36954
G01 X2.77774 Y0.33259
G01 X2.71714 Y0.28283
G01 X2.66738 Y0.22222
G01 X2.63042 Y0.15306
G01 X2.60767 Y0.07803
G01 X2.59997 Y-0.00000
G01 X2.59997 Y-2.34996
G01 X0.00000 Y-2.34996
G01 X-0.07803 Y-2.35765
G01 X-0.15306 Y-2.38041
G01 X-0.22222 Y-2.41737
G01 X-0.28283 Y-2.46713
G01 X-0.33259 Y-2.52773
G01 X-0.36954 Y-2.59690
G01 X-0.39230 Y-2.67193
G01 X-0.40000 Y-2.74998
G01 Z-1.12500 F30.00000 ( plunge. )
G04 P0 ( dwell for no time -- G64 should not smooth over this point )
G01 F100.00000
G01 X-0.40000 Y-20.75000
G01 X-0.39230 Y-20.82803
G01 X-0.36954 Y-20.90306
G01 X-0.33259 Y-20.97222
G01 X-0.28283 Y-21.03283
G01 X-0.22222 Y-21.08258
G01 X-0.15306 Y-21.11954
G01 X-0.07803 Y-21.14230
G01 X0.00000 Y-21.15000
G01 X2.59997 Y-21.15000
G01 X2.59997 Y-23.49998
G01 X2.60767 Y-23.57801
G01 X2.63042 Y-23.65304
G01 X2.66738 Y-23.72220
G01 X2.71714 Y-23.78281
G01 X2.77774 Y-23.83257
G01 X2.84691 Y-23.86952
G01 X2.92194 Y-23.89228
G01 X2.99999 Y-23.89998
G01 X8.99998 Y-23.89998
G01 X9.07801 Y-23.89228
G01 X9.15304 Y-23.86952
G01 X9.22221 Y-23.83257
G01 X9.28281 Y-23.78281
G01 X9.33257 Y-23.72220
G01 X9.36953 Y-23.65304
G01 X9.39228 Y-23.57801
G01 X9.39998 Y-23.49998
G01 X9.39998 Y-21.15000
G01 X11.99998 Y-21.15000
G01 X12.07800 Y-21.14230
G01 X12.15304 Y-21.11954
G01 X12.22220 Y-21.08258
G01 X12.28280 Y-21.03283
G01 X12.33256 Y-20.97222
G01 X12.36952 Y-20.90306
G01 X12.39228 Y-20.82803
G01 X12.39998 Y-20.75000
G01 X12.39998 Y-2.74998
G01 X12.39228 Y-2.67193
G01 X12.36952 Y-2.59690
G01 X12.33256 Y-2.52773
G01 X12.28280 Y-2.46713
G01 X12.22220 Y-2.41737
G01 X12.15304 Y-2.38041
G01 X12.07800 Y-2.35765
G01 X11.99998 Y-2.34996
G01 X9.39998 Y-2.34996
G01 X9.39998 Y-0.00000
G01 X9.39228 Y0.07803
G01 X9.36953 Y0.15306
G01 X9.33257 Y0.22222
G01 X9.28281 Y0.28283
G01 X9.22221 Y0.33259
G01 X9.15304 Y0.36954
G01 X9.07801 Y0.39230
G01 X8.99998 Y0.40000
G01 X2.99999 Y0.40000
G01 X2.92194 Y0.39230
G01 X2.84691 Y0.36954
G01 X2.77774 Y0.33259
G01 X2.71714 Y0.28283
G01 X2.66738 Y0.22222
G01 X2.63042 Y0.15306
G01 X2.60767 Y0.07803
G01 X2.59997 Y-0.00000
G01 X2.59997 Y-2.34996
G01 X0.00000 Y-2.34996
G01 X-0.07803 Y-2.35765
G01 X-0.15306 Y-2.38041
G01 X-0.22222 Y-2.41737
G01 X-0.28283 Y-2.46713
G01 X-0.33259 Y-2.52773
G01 X-0.36954 Y-2.59690
G01 X-0.39230 Y-2.67193
G01 X-0.40000 Y-2.74998
G01 Z-1.18750 F30.00000 ( plunge. )
G04 P0 ( dwell for no time -- G64 should not smooth over this point )
G01 F100.00000
G01 X-0.40000 Y-20.75000
G01 X-0.39230 Y-20.82803
G01 X-0.36954 Y-20.90306
G01 X-0.33259 Y-20.97222
G01 X-0.28283 Y-21.03283
G01 X-0.22222 Y-21.08258
G01 X-0.15306 Y-21.11954
G01 X-0.07803 Y-21.14230
G01 X0.00000 Y-21.15000
G01 X2.59997 Y-21.15000
G01 X2.59997 Y-23.49998
G01 X2.60767 Y-23.57801
G01 X2.63042 Y-23.65304
G01 X2.66738 Y-23.72220
G01 X2.71714 Y-23.78281
G01 X2.77774 Y-23.83257
G01 X2.84691 Y-23.86952
G01 X2.92194 Y-23.89228
G01 X2.99999 Y-23.89998
G01 X8.99998 Y-23.89998
G01 X9.07801 Y-23.89228
G01 X9.15304 Y-23.86952
G01 X9.22221 Y-23.83257
G01 X9.28281 Y-23.78281
G01 X9.33257 Y-23.72220
G01 X9.36953 Y-23.65304
G01 X9.39228 Y-23.57801
G01 X9.39998 Y-23.49998
G01 X9.39998 Y-21.15000
G01 X11.99998 Y-21.15000
G01 X12.07800 Y-21.14230
G01 X12.15304 Y-21.11954
G01 X12.22220 Y-21.08258
G01 X12.28280 Y-21.03283
G01 X12.33256 Y-20.97222
G01 X12.36952 Y-20.90306
G01 X12.39228 Y-20.82803
G01 X12.39998 Y-20.75000
G01 X12.39998 Y-2.74998
G01 X12.39228 Y-2.67193
G01 X12.36952 Y-2.59690
G01 X12.33256 Y-2.52773
G01 X12.28280 Y-2.46713
G01 X12.22220 Y-2.41737
G01 X12.15304 Y-2.38041
G01 X12.07800 Y-2.35765
G01 X11.99998 Y-2.34996
G01 X9.39998 Y-2.34996
G01 X9.39998 Y-0.00000
G01 X9.39228 Y0.07803
G01 X9.36953 Y0.15306
G01 X9.33257 Y0.22222
G01 X9.28281 Y0.28283
G01 X9.22221 Y0.33259
G01 X9.15304 Y0.36954
G01 X9.07801 Y0.39230
G01 X8.99998 Y0.40000
G01 X2.99999 Y0.40000
G01 X2.92194 Y0.39230
G01 X2.84691 Y0.36954
G01 X2.77774 Y0.33259
G01 X2.71714 Y0.28283
G01 X2.66738 Y0.22222
G01 X2.63042 Y0.15306
G01 X2.60767 Y0.07803
G01 X2.59997 Y-0.00000
G01 X2.59997 Y-2.34996
G01 X0.00000 Y-2.34996
G01 X-0.07803 Y-2.35765
G01 X-0.15306 Y-2.38041
G01 X-0.22222 Y-2.41737
G01 X-0.28283 Y-2.46713
G01 X-0.33259 Y-2.52773
G01 X-0.36954 Y-2.59690
G01 X-0.39230 Y-2.67193
G01 X-0.40000 Y-2.74998
G01 Z-1.25000 F30.00000 ( plunge. )
G04 P0 ( dwell for no time -- G64 should not smooth over this point )
G01 F100.00000
G01 X-0.40000 Y-20.75000
G01 X-0.39230 Y-20.82803
G01 X-0.36954 Y-20.90306
G01 X-0.33259 Y-20.97222
G01 X-0.28283 Y-21.03283
G01 X-0.22222 Y-21.08258
G01 X-0.15306 Y-21.11954
G01 X-0.07803 Y-21.14230
G01 X0.00000 Y-21.15000
G01 X2.59997 Y-21.15000
G01 X2.59997 Y-23.49998
G01 X2.60767 Y-23.57801
G01 X2.63042 Y-23.65304
G01 X2.66738 Y-23.72220
G01 X2.71714 Y-23.78281
G01 X2.77774 Y-23.83257
G01 X2.84691 Y-23.86952
G01 X2.92194 Y-23.89228
G01 X2.99999 Y-23.89998
G01 X8.99998 Y-23.89998
G01 X9.07801 Y-23.89228
G01 X9.15304 Y-23.86952
G01 X9.22221 Y-23.83257
G01 X9.28281 Y-23.78281
G01 X9.33257 Y-23.72220
G01 X9.36953 Y-23.65304
G01 X9.39228 Y-23.57801
G01 X9.39998 Y-23.49998
G01 X9.39998 Y-21.15000
G01 X11.99998 Y-21.15000
G01 X12.07800 Y-21.14230
G01 X12.15304 Y-21.11954
G01 X12.22220 Y-21.08258
G01 X12.28280 Y-21.03283
G01 X12.33256 Y-20.97222
G01 X12.36952 Y-20.90306
G01 X12.39228 Y-20.82803
G01 X12.39998 Y-20.75000
G01 X12.39998 Y-2.74998
G01 X12.39228 Y-2.67193
G01 X12.36952 Y-2.59690
G01 X12.33256 Y-2.52773
G01 X12.28280 Y-2.46713
G01 X12.22220 Y-2.41737
G01 X12.15304 Y-2.38041
G01 X12.07800 Y-2.35765
G01 X11.99998 Y-2.34996
G01 X9.39998 Y-2.34996
G01 X9.39998 Y-0.00000
G01 X9.39228 Y0.07803
G01 X9.36953 Y0.15306
G01 X9.33257 Y0.22222
G01 X9.28281 Y0.28283
G01 X9.22221 Y0.33259
G01 X9.15304 Y0.36954
G01 X9.07801 Y0.39230
G01 X8.99998 Y0.40000
G01 X2.99999 Y0.40000
G01 X2.92194 Y0.39230
G01 X2.84691 Y0.36954
G01 X2.77774 Y0.33259
G01 X2.71714 Y0.28283
G01 X2.66738 Y0.22222
G01 X2.63042 Y0.15306
G01 X2.60767 Y0.07803
G01 X2.59997 Y-0.00000
G01 X2.59997 Y-2.34996
G01 X0.00000 Y-2.34996
G01 X-0.07803 Y-2.35765
G01 X-0.15306 Y-2.38041
G01 X-0.22222 Y-2.41737
G01 X-0.28283 Y-2.46713
G01 X-0.33259 Y-2.52773
G01 X-0.36954 Y-2.59690
G01 X-0.39230 Y-2.67193
G01 X-0.40000 Y-2.74998
G01 Z-1.31250 F30.00000 ( plunge. )
G04 P0 ( dwell for no time -- G64 should not smooth over this point )
G01 F100.00000
G01 X-0.40000 Y-20.75000
G01 X-0.39230 Y-20.82803
G01 X-0.36954 Y-20.90306
G01 X-0.33259 Y-20.97222
G01 X-0.28283 Y-21.03283
G01 X-0.22222 Y-21.08258
G01 X-0.15306 Y-21.11954
G01 X-0.07803 Y-21.14230
G01 X0.00000 Y-21.15000
G01 X2.59997 Y-21.15000
G01 X2.59997 Y-23.49998
G01 X2.60767 Y-23.57801
G01 X2.63042 Y-23.65304
G01 X2.66738 Y-23.72220
G01 X2.71714 Y-23.78281
G01 X2.77774 Y-23.83257
G01 X2.84691 Y-23.86952
G01 X2.92194 Y-23.89228
G01 X2.99999 Y-23.89998
G01 X8.99998 Y-23.89998
G01 X9.07801 Y-23.89228
G01 X9.15304 Y-23.86952
G01 X9.22221 Y-23.83257
G01 X9.28281 Y-23.78281
G01 X9.33257 Y-23.72220
G01 X9.36953 Y-23.65304
G01 X9.39228 Y-23.57801
G01 X9.39998 Y-23.49998
G01 X9.39998 Y-21.15000
G01 X11.99998 Y-21.15000
G01 X12.07800 Y-21.14230
G01 X12.15304 Y-21.11954
G01 X12.22220 Y-21.08258
G01 X12.28280 Y-21.03283
G01 X12.33256 Y-20.97222
G01 X12.36952 Y-20.90306
G01 X12.39228 Y-20.82803
G01 X12.39998 Y-20.75000
G01 X12.39998 Y-2.74998
G01 X12.39228 Y-2.67193
G01 X12.36952 Y-2.59690
G01 X12.33256 Y-2.52773
G01 X12.28280 Y-2.46713
G01 X12.22220 Y-2.41737
G01 X12.15304 Y-2.38041
G01 X12.07800 Y-2.35765
G01 X11.99998 Y-2.34996
G01 X9.39998 Y-2.34996
G01 X9.39998 Y-0.00000
G01 X9.39228 Y0.07803
G01 X9.36953 Y0.15306
G01 X9.33257 Y0.22222
G01 X9.28281 Y0.28283
G01 X9.22221 Y0.33259
G01 X9.15304 Y0.36954
G01 X9.07801 Y0.39230
G01 X8.99998 Y0.40000
G01 X2.99999 Y0.40000
G01 X2.92194 Y0.39230
G01 X2.84691 Y0.36954
G01 X2.77774 Y0.33259
G01 X2.71714 Y0.28283
G01 X2.66738 Y0.22222
G01 X2.63042 Y0.15306
G01 X2.60767 Y0.07803
G01 X2.59997 Y-0.00000
G01 X2.59997 Y-2.34996
G01 X0.00000 Y-2.34996
G01 X-0.07803 Y-2.35765
G01 X-0.15306 Y-2.38041
G01 X-0.22222 Y-2.41737
G01 X-0.28283 Y-2.46713
G01 X-0.33259 Y-2.52773
G01 X-0.36954 Y-2.59690
G01 X-0.39230 Y-2.67193
G01 X-0.40000 Y-2.74998
G01 Z-1.37500 F30.00000 ( plunge. )
G04 P0 ( dwell for no time -- G64 should not smooth over this point )
G01 F100.00000
G01 X-0.40000 Y-20.75000
G01 X-0.39230 Y-20.82803
G01 X-0.36954 Y-20.90306
G01 X-0.33259 Y-20.97222
G01 X-0.28283 Y-21.03283
G01 X-0.22222 Y-21.08258
G01 X-0.15306 Y-21.11954
G01 X-0.07803 Y-21.14230
G01 X0.00000 Y-21.15000
G01 X2.59997 Y-21.15000
G01 X2.59997 Y-23.49998
G01 X2.60767 Y-23.57801
G01 X2.63042 Y-23.65304
G01 X2.66738 Y-23.72220
G01 X2.71714 Y-23.78281
G01 X2.77774 Y-23.83257
G01 X2.84691 Y-23.86952
G01 X2.92194 Y-23.89228
G01 X2.99999 Y-23.89998
G01 X8.99998 Y-23.89998
G01 X9.07801 Y-23.89228
G01 X9.15304 Y-23.86952
G01 X9.22221 Y-23.83257
G01 X9.28281 Y-23.78281
G01 X9.33257 Y-23.72220
G01 X9.36953 Y-23.65304
G01 X9.39228 Y-23.57801
G01 X9.39998 Y-23.49998
G01 X9.39998 Y-21.15000
G01 X11.99998 Y-21.15000
G01 X12.07800 Y-21.14230
G01 X12.15304 Y-21.11954
G01 X12.22220 Y-21.08258
G01 X12.28280 Y-21.03283
G01 X12.33256 Y-20.97222
G01 X12.36952 Y-20.90306
G01 X12.39228 Y-20.82803
G01 X12.39998 Y-20.75000
G01 X12.39998 Y-2.74998
G01 X12.39228 Y-2.67193
G01 X12.36952 Y-2.59690
G01 X12.33256 Y-2.52773
G01 X12.28280 Y-2.46713
G01 X12.22220 Y-2.41737
G01 X12.15304 Y-2.38041
G01 X12.07800 Y-2.35765
G01 X11.99998 Y-2.34996
G01 X9.39998 Y-2.34996
G01 X9.39998 Y-0.00000
G01 X9.39228 Y0.07803
G01 X9.36953 Y0.15306
G01 X9.33257 Y0.22222
G01 X9.28281 Y0.28283
G01 X9.22221 Y0.33259
G01 X9.15304 Y0.36954
G01 X9.07801 Y0.39230
G01 X8.99998 Y0.40000
G01 X2.99999 Y0.40000
G01 X2.92194 Y0.39230
G01 X2.84691 Y0.36954
G01 X2.77774 Y0.33259
G01 X2.71714 Y0.28283
G01 X2.66738 Y0.22222
G01 X2.63042 Y0.15306
G01 X2.60767 Y0.07803
G01 X2.59997 Y-0.00000
G01 X2.59997 Y-2.34996
G01 X0.00000 Y-2.34996
G01 X-0.07803 Y-2.35765
G01 X-0.15306 Y-2.38041
G01 X-0.22222 Y-2.41737
G01 X-0.28283 Y-2.46713
G01 X-0.33259 Y-2.52773
G01 X-0.36954 Y-2.59690
G01 X-0.39230 Y-2.67193
G01 X-0.40000 Y-2.74998
G01 Z-1.43750 F30.00000 ( plunge. )
G04 P0 ( dwell for no time -- G64 should not smooth over this point )
G01 F100.00000
G01 X-0.40000 Y-20.75000
G01 X-0.39230 Y-20.82803
G01 X-0.36954 Y-20.90306
G01 X-0.33259 Y-20.97222
G01 X-0.28283 Y-21.03283
G01 X-0.22222 Y-21.08258
G01 X-0.15306 Y-21.11954
G01 X-0.07803 Y-21.14230
G01 X0.00000 Y-21.15000
G01 X2.59997 Y-21.15000
G01 X2.59997 Y-23.49998
G01 X2.60767 Y-23.57801
G01 X2.63042 Y-23.65304
G01 X2.66738 Y-23.72220
G01 X2.71714 Y-23.78281
G01 X2.77774 Y-23.83257
G01 X2.84691 Y-23.86952
G01 X2.92194 Y-23.89228
G01 X2.99999 Y-23.89998
G01 X8.99998 Y-23.89998
G01 X9.07801 Y-23.89228
G01 X9.15304 Y-23.86952
G01 X9.22221 Y-23.83257
G01 X9.28281 Y-23.78281
G01 X9.33257 Y-23.72220
G01 X9.36953 Y-23.65304
G01 X9.39228 Y-23.57801
G01 X9.39998 Y-23.49998
G01 X9.39998 Y-21.15000
G01 X11.99998 Y-21.15000
G01 X12.07800 Y-21.14230
G01 X12.15304 Y-21.11954
G01 X12.22220 Y-21.08258
G01 X12.28280 Y-21.03283
G01 X12.33256 Y-20.97222
G01 X12.36952 Y-20.90306
G01 X12.39228 Y-20.82803
G01 X12.39998 Y-20.75000
G01 X12.39998 Y-2.74998
G01 X12.39228 Y-2.67193
G01 X12.36952 Y-2.59690
G01 X12.33256 Y-2.52773
G01 X12.28280 Y-2.46713
G01 X12.22220 Y-2.41737
G01 X12.15304 Y-2.38041
G01 X12.07800 Y-2.35765
G01 X11.99998 Y-2.34996
G01 X9.39998 Y-2.34996
G01 X9.39998 Y-0.00000
G01 X9.39228 Y0.07803
G01 X9.36953 Y0.15306
G01 X9.33257 Y0.22222
G01 X9.28281 Y0.28283
G01 X9.22221 Y0.33259
G01 X9.15304 Y0.36954
G01 X9.07801 Y0.39230
G01 X8.99998 Y0.40000
G01 X2.99999 Y0.40000
G01 X2.92194 Y0.39230
G01 X2.84691 Y0.36954
G01 X2.77774 Y0.33259
G01 X2.71714 Y0.28283
G01 X2.66738 Y0.22222
G01 X2.63042 Y0.15306
G01 X2.60767 Y0.07803
G01 X2.59997 Y-0.00000
G01 X2.59997 Y-2.34996
G01 X0.00000 Y-2.34996
G01 X-0.07803 Y-2.35765
G01 X-0.15306 Y-2.38041
G01 X-0.22222 Y-2.41737
G01 X-0.28283 Y-2.46713
G01 X-0.33259 Y-2.52773
G01 X-0.36954 Y-2.59690
G01 X-0.39230 Y-2.67193
G01 X-0.40000 Y-2.74998
G01 Z-1.50000 F30.00000 ( plunge. )
G04 P0 ( dwell for no time -- G64 should not smooth over this point )
G01 F100.00000
G01 X-0.40000 Y-20.75000
G01 X-0.39230 Y-20.82803
G01 X-0.36954 Y-20.90306
G01 X-0.33259 Y-20.97222
G01 X-0.28283 Y-21.03283
G01 X-0.22222 Y-21.08258
G01 X-0.15306 Y-21.11954
G01 X-0.07803 Y-21.14230
G01 X0.00000 Y-21.15000
G01 X2.59997 Y-21.15000
G01 X2.59997 Y-23.49998
G01 X2.60767 Y-23.57801
G01 X2.63042 Y-23.65304
G01 X2.66738 Y-23.72220
G01 X2.71714 Y-23.78281
G01 X2.77774 Y-23.83257
G01 X2.84691 Y-23.86952
G01 X2.92194 Y-23.89228
G01 X2.99999 Y-23.89998
G01 X8.99998 Y-23.89998
G01 X9.07801 Y-23.89228
G01 X9.15304 Y-23.86952
G01 X9.22221 Y-23.83257
G01 X9.28281 Y-23.78281
G01 X9.33257 Y-23.72220
G01 X9.36953 Y-23.65304
G01 X9.39228 Y-23.57801
G01 X9.39998 Y-23.49998
G01 X9.39998 Y-21.15000
G01 X11.99998 Y-21.15000
G01 X12.07800 Y-21.14230
G01 X12.15304 Y-21.11954
G01 X12.22220 Y-21.08258
G01 X12.28280 Y-21.03283
G01 X12.33256 Y-20.97222
G01 X12.36952 Y-20.90306
G01 X12.39228 Y-20.82803
G01 X12.39998 Y-20.75000
G01 X12.39998 Y-2.74998
G01 X12.39228 Y-2.67193
G01 X12.36952 Y-2.59690
G01 X12.33256 Y-2.52773
G01 X12.28280 Y-2.46713
G01 X12.22220 Y-2.41737
G01 X12.15304 Y-2.38041
G01 X12.07800 Y-2.35765
G01 X11.99998 Y-2.34996
G01 X9.39998 Y-2.34996
G01 X9.39998 Y-0.00000
G01 X9.39228 Y0.07803
G01 X9.36953 Y0.15306
G01 X9.33257 Y0.22222
G01 X9.28281 Y0.28283
G01 X9.22221 Y0.33259
G01 X9.15304 Y0.36954
G01 X9.07801 Y0.39230
G01 X8.99998 Y0.40000
G01 X2.99999 Y0.40000
G01 X2.92194 Y0.39230
G01 X2.84691 Y0.36954
G01 X2.77774 Y0.33259
G01 X2.71714 Y0.28283
G01 X2.66738 Y0.22222
G01 X2.63042 Y0.15306
G01 X2.60767 Y0.07803
G01 X2.59997 Y-0.00000
G01 X2.59997 Y-2.34996
G01 X0.00000 Y-2.34996
G01 X-0.07803 Y-2.35765
G01 X-0.15306 Y-2.38041
G01 X-0.22222 Y-2.41737
G01 X-0.28283 Y-2.46713
G01 X-0.33259 Y-2.52773
G01 X-0.36954 Y-2.59690
G01 X-0.39230 Y-2.67193
G01 X-0.40000 Y-2.74998
G01 Z-1.56250 F30.00000 ( plunge. )
G04 P0 ( dwell for no time -- G64 should not smooth over this point )
G01 F100.00000
G01 X-0.40000 Y-20.75000
G01 X-0.39230 Y-20.82803
G01 X-0.36954 Y-20.90306
G01 X-0.33259 Y-20.97222
G01 X-0.28283 Y-21.03283
G01 X-0.22222 Y-21.08258
G01 X-0.15306 Y-21.11954
G01 X-0.07803 Y-21.14230
G01 X0.00000 Y-21.15000
G01 X2.59997 Y-21.15000
G01 X2.59997 Y-23.49998
G01 X2.60767 Y-23.57801
G01 X2.63042 Y-23.65304
G01 X2.66738 Y-23.72220
G01 X2.71714 Y-23.78281
G01 X2.77774 Y-23.83257
G01 X2.84691 Y-23.86952
G01 X2.92194 Y-23.89228
G01 X2.99999 Y-23.89998
G01 X8.99998 Y-23.89998
G01 X9.07801 Y-23.89228
G01 X9.15304 Y-23.86952
G01 X9.22221 Y-23.83257
G01 X9.28281 Y-23.78281
G01 X9.33257 Y-23.72220
G01 X9.36953 Y-23.65304
G01 X9.39228 Y-23.57801
G01 X9.39998 Y-23.49998
G01 X9.39998 Y-21.15000
G01 X11.99998 Y-21.15000
G01 X12.07800 Y-21.14230
G01 X12.15304 Y-21.11954
G01 X12.22220 Y-21.08258
G01 X12.28280 Y-21.03283
G01 X12.33256 Y-20.97222
G01 X12.36952 Y-20.90306
G01 X12.39228 Y-20.82803
G01 X12.39998 Y-20.75000
G01 X12.39998 Y-2.74998
G01 X12.39228 Y-2.67193
G01 X12.36952 Y-2.59690
G01 X12.33256 Y-2.52773
G01 X12.28280 Y-2.46713
G01 X12.22220 Y-2.41737
G01 X12.15304 Y-2.38041
G01 X12.07800 Y-2.35765
G01 X11.99998 Y-2.34996
G01 X9.39998 Y-2.34996
G01 X9.39998 Y-0.00000
G01 X9.39228 Y0.07803
G01 X9.36953 Y0.15306
G01 X9.33257 Y0.22222
G01 X9.28281 Y0.28283
G01 X9.22221 Y0.33259
G01 X9.15304 Y0.36954
G01 X9.07801 Y0.39230
G01 X8.99998 Y0.40000
G01 X2.99999 Y0.40000
G01 X2.92194 Y0.39230
G01 X2.84691 Y0.36954
G01 X2.77774 Y0.33259
G01 X2.71714 Y0.28283
G01 X2.66738 Y0.22222
G01 X2.63042 Y0.15306
G01 X2.60767 Y0.07803
G01 X2.59997 Y-0.00000
G01 X2.59997 Y-2.34996
G01 X0.00000 Y-2.34996
G01 X-0.07803 Y-2.35765
G01 X-0.15306 Y-2.38041
G01 X-0.22222 Y-2.41737
G01 X-0.28283 Y-2.46713
G01 X-0.33259 Y-2.52773
G01 X-0.36954 Y-2.59690
G01 X-0.39230 Y-2.67193
G01 X-0.40000 Y-2.74998
G01 Z-1.62500 F30.00000 ( plunge. )
G04 P0 ( dwell for no time -- G64 should not smooth over this point )
G01 F100.00000
G01 X-0.40000 Y-20.75000
G01 X-0.39230 Y-20.82803
G01 X-0.36954 Y-20.90306
G01 X-0.33259 Y-20.97222
G01 X-0.28283 Y-21.03283
G01 X-0.22222 Y-21.08258
G01 X-0.15306 Y-21.11954
G01 X-0.07803 Y-21.14230
G01 X0.00000 Y-21.15000
G01 X2.59997 Y-21.15000
G01 X2.59997 Y-23.49998
G01 X2.60767 Y-23.57801
G01 X2.63042 Y-23.65304
G01 X2.66738 Y-23.72220
G01 X2.71714 Y-23.78281
G01 X2.77774 Y-23.83257
G01 X2.84691 Y-23.86952
G01 X2.92194 Y-23.89228
G01 X2.99999 Y-23.89998
G01 X8.99998 Y-23.89998
G01 X9.07801 Y-23.89228
G01 X9.15304 Y-23.86952
G01 X9.22221 Y-23.83257
G01 X9.28281 Y-23.78281
G01 X9.33257 Y-23.72220
G01 X9.36953 Y-23.65304
G01 X9.39228 Y-23.57801
G01 X9.39998 Y-23.49998
G01 X9.39998 Y-21.15000
G01 X11.99998 Y-21.15000
G01 X12.07800 Y-21.14230
G01 X12.15304 Y-21.11954
G01 X12.22220 Y-21.08258
G01 X12.28280 Y-21.03283
G01 X12.33256 Y-20.97222
G01 X12.36952 Y-20.90306
G01 X12.39228 Y-20.82803
G01 X12.39998 Y-20.75000
G01 X12.39998 Y-2.74998
G01 X12.39228 Y-2.67193
G01 X12.36952 Y-2.59690
G01 X12.33256 Y-2.52773
G01 X12.28280 Y-2.46713
G01 X12.22220 Y-2.41737
G01 X12.15304 Y-2.38041
G01 X12.07800 Y-2.35765
G01 X11.99998 Y-2.34996
G01 X9.39998 Y-2.34996
G01 X9.39998 Y-0.00000
G01 X9.39228 Y0.07803
G01 X9.36953 Y0.15306
G01 X9.33257 Y0.22222
G01 X9.28281 Y0.28283
G01 X9.22221 Y0.33259
G01 X9.15304 Y0.36954
G01 X9.07801 Y0.39230
G01 X8.99998 Y0.40000
G01 X2.99999 Y0.40000
G01 X2.92194 Y0.39230
G01 X2.84691 Y0.36954
G01 X2.77774 Y0.33259
G01 X2.71714 Y0.28283
G01 X2.66738 Y0.22222
G01 X2.63042 Y0.15306
G01 X2.60767 Y0.07803
G01 X2.59997 Y-0.00000
G01 X2.59997 Y-2.34996
G01 X0.00000 Y-2.34996
G01 X-0.07803 Y-2.35765
G01 X-0.15306 Y-2.38041
G01 X-0.22222 Y-2.41737
G01 X-0.28283 Y-2.46713
G01 X-0.33259 Y-2.52773
G01 X-0.36954 Y-2.59690
G01 X-0.39230 Y-2.67193
G01 X-0.40000 Y-2.74998
G01 Z-1.68750 F30.00000 ( plunge. )
G04 P0 ( dwell for no time -- G64 should not smooth over this point )
G01 F100.00000
G01 X-0.40000 Y-20.75000
G01 X-0.39230 Y-20.82803
G01 X-0.36954 Y-20.90306
G01 X-0.33259 Y-20.97222
G01 X-0.28283 Y-21.03283
G01 X-0.22222 Y-21.08258
G01 X-0.15306 Y-21.11954
G01 X-0.07803 Y-21.14230
G01 X0.00000 Y-21.15000
G01 X2.59997 Y-21.15000
G01 X2.59997 Y-23.49998
G01 X2.60767 Y-23.57801
G01 X2.63042 Y-23.65304
G01 X2.66738 Y-23.72220
G01 X2.71714 Y-23.78281
G01 X2.77774 Y-23.83257
G01 X2.84691 Y-23.86952
G01 X2.92194 Y-23.89228
G01 X2.99999 Y-23.89998
G01 X8.99998 Y-23.89998
G01 X9.07801 Y-23.89228
G01 X9.15304 Y-23.86952
G01 X9.22221 Y-23.83257
G01 X9.28281 Y-23.78281
G01 X9.33257 Y-23.72220
G01 X9.36953 Y-23.65304
G01 X9.39228 Y-23.57801
G01 X9.39998 Y-23.49998
G01 X9.39998 Y-21.15000
G01 X11.99998 Y-21.15000
G01 X12.07800 Y-21.14230
G01 X12.15304 Y-21.11954
G01 X12.22220 Y-21.08258
G01 X12.28280 Y-21.03283
G01 X12.33256 Y-20.97222
G01 X12.36952 Y-20.90306
G01 X12.39228 Y-20.82803
G01 X12.39998 Y-20.75000
G01 X12.39998 Y-2.74998
G01 X12.39228 Y-2.67193
G01 X12.36952 Y-2.59690
G01 X12.33256 Y-2.52773
G01 X12.28280 Y-2.46713
G01 X12.22220 Y-2.41737
G01 X12.15304 Y-2.38041
G01 X12.07800 Y-2.35765
G01 X11.99998 Y-2.34996
G01 X9.39998 Y-2.34996
G01 X9.39998 Y-0.00000
G01 X9.39228 Y0.07803
G01 X9.36953 Y0.15306
G01 X9.33257 Y0.22222
G01 X9.28281 Y0.28283
G01 X9.22221 Y0.33259
G01 X9.15304 Y0.36954
G01 X9.07801 Y0.39230
G01 X8.99998 Y0.40000
G01 X2.99999 Y0.40000
G01 X2.92194 Y0.39230
G01 X2.84691 Y0.36954
G01 X2.77774 Y0.33259
G01 X2.71714 Y0.28283
G01 X2.66738 Y0.22222
G01 X2.63042 Y0.15306
G01 X2.60767 Y0.07803
G01 X2.59997 Y-0.00000
G01 X2.59997 Y-2.34996
G01 X0.00000 Y-2.34996
G01 X-0.07803 Y-2.35765
G01 X-0.15306 Y-2.38041
G01 X-0.22222 Y-2.41737
G01 X-0.28283 Y-2.46713
G01 X-0.33259 Y-2.52773
G01 X-0.36954 Y-2.59690
G01 X-0.39230 Y-2.67193
G01 X-0.40000 Y-2.74998
G01 Z-1.75000 F30.00000 ( plunge. )
G04 P0 ( dwell for no time -- G64 should not smooth over this point )
G01 F100.00000
G01 X-0.40000 Y-20.75000
G01 X-0.39230 Y-20.82803
G01 X-0.36954 Y-20.90306
G01 X-0.33259 Y-20.97222
G01 X-0.28283 Y-21.03283
G01 X-0.22222 Y-21.08258
G01 X-0.15306 Y-21.11954
G01 X-0.07803 Y-21.14230
G01 X0.00000 Y-21.15000
G01 X2.59997 Y-21.15000
G01 X2.59997 Y-23.49998
G01 X2.60767 Y-23.57801
G01 X2.63042 Y-23.65304
G01 X2.66738 Y-23.72220
G01 X2.71714 Y-23.78281
G01 X2.77774 Y-23.83257
G01 X2.84691 Y-23.86952
G01 X2.92194 Y-23.89228
G01 X2.99999 Y-23.89998
G01 X8.99998 Y-23.89998
G01 X9.07801 Y-23.89228
G01 X9.15304 Y-23.86952
G01 X9.22221 Y-23.83257
G01 X9.28281 Y-23.78281
G01 X9.33257 Y-23.72220
G01 X9.36953 Y-23.65304
G01 X9.39228 Y-23.57801
G01 X9.39998 Y-23.49998
G01 X9.39998 Y-21.15000
G01 X11.99998 Y-21.15000
G01 X12.07800 Y-21.14230
G01 X12.15304 Y-21.11954
G01 X12.22220 Y-21.08258
G01 X12.28280 Y-21.03283
G01 X12.33256 Y-20.97222
G01 X12.36952 Y-20.90306
G01 X12.39228 Y-20.82803
G01 X12.39998 Y-20.75000
G01 X12.39998 Y-2.74998
G01 X12.39228 Y-2.67193
G01 X12.36952 Y-2.59690
G01 X12.33256 Y-2.52773
G01 X12.28280 Y-2.46713
G01 X12.22220 Y-2.41737
G01 X12.15304 Y-2.38041
G01 X12.07800 Y-2.35765
G01 X11.99998 Y-2.34996
G01 X9.39998 Y-2.34996
G01 X9.39998 Y-0.00000
G01 X9.39228 Y0.07803
G01 X9.36953 Y0.15306
G01 X9.33257 Y0.22222
G01 X9.28281 Y0.28283
G01 X9.22221 Y0.33259
G01 X9.15304 Y0.36954
G01 X9.07801 Y0.39230
G01 X8.99998 Y0.40000
G01 X2.99999 Y0.40000
G01 X2.92194 Y0.39230
G01 X2.84691 Y0.36954
G01 X2.77774 Y0.33259
G01 X2.71714 Y0.28283
G01 X2.66738 Y0.22222
G01 X2.63042 Y0.15306
G01 X2.60767 Y0.07803
G01 X2.59997 Y-0.00000
G01 X2.59997 Y-2.34996
G01 X0.00000 Y-2.34996
G01 X-0.07803 Y-2.35765
G01 X-0.15306 Y-2.38041
G01 X-0.22222 Y-2.41737
G01 X-0.28283 Y-2.46713
G01 X-0.33259 Y-2.52773
G01 X-0.36954 Y-2.59690
G01 X-0.39230 Y-2.67193
G01 X-0.40000 Y-2.74998
G01 Z-1.81250 F30.00000 ( plunge. )
G04 P0 ( dwell for no time -- G64 should not smooth over this point )
G01 F100.00000
G01 X-0.40000 Y-20.75000
G01 X-0.39230 Y-20.82803
G01 X-0.36954 Y-20.90306
G01 X-0.33259 Y-20.97222
G01 X-0.28283 Y-21.03283
G01 X-0.22222 Y-21.08258
G01 X-0.15306 Y-21.11954
G01 X-0.07803 Y-21.14230
G01 X0.00000 Y-21.15000
G01 X2.59997 Y-21.15000
G01 X2.59997 Y-23.49998
G01 X2.60767 Y-23.57801
G01 X2.63042 Y-23.65304
G01 X2.66738 Y-23.72220
G01 X2.71714 Y-23.78281
G01 X2.77774 Y-23.83257
G01 X2.84691 Y-23.86952
G01 X2.92194 Y-23.89228
G01 X2.99999 Y-23.89998
G01 X8.99998 Y-23.89998
G01 X9.07801 Y-23.89228
G01 X9.15304 Y-23.86952
G01 X9.22221 Y-23.83257
G01 X9.28281 Y-23.78281
G01 X9.33257 Y-23.72220
G01 X9.36953 Y-23.65304
G01 X9.39228 Y-23.57801
G01 X9.39998 Y-23.49998
G01 X9.39998 Y-21.15000
G01 X11.99998 Y-21.15000
G01 X12.07800 Y-21.14230
G01 X12.15304 Y-21.11954
G01 X12.22220 Y-21.08258
G01 X12.28280 Y-21.03283
G01 X12.33256 Y-20.97222
G01 X12.36952 Y-20.90306
G01 X12.39228 Y-20.82803
G01 X12.39998 Y-20.75000
G01 X12.39998 Y-2.74998
G01 X12.39228 Y-2.67193
G01 X12.36952 Y-2.59690
G01 X12.33256 Y-2.52773
G01 X12.28280 Y-2.46713
G01 X12.22220 Y-2.41737
G01 X12.15304 Y-2.38041
G01 X12.07800 Y-2.35765
G01 X11.99998 Y-2.34996
G01 X9.39998 Y-2.34996
G01 X9.39998 Y-0.00000
G01 X9.39228 Y0.07803
G01 X9.36953 Y0.15306
G01 X9.33257 Y0.22222
G01 X9.28281 Y0.28283
G01 X9.22221 Y0.33259
G01 X9.15304 Y0.36954
G01 X9.07801 Y0.39230
G01 X8.99998 Y0.40000
G01 X2.99999 Y0.40000
G01 X2.92194 Y0.39230
G01 X2.84691 Y0.36954
G01 X2.77774 Y0.33259
G01 X2.71714 Y0.28283
G01 X2.66738 Y0.22222
G01 X2.63042 Y0.15306
G01 X2.60767 Y0.07803
G01 X2.59997 Y-0.00000
G01 X2.59997 Y-2.34996
G01 X0.00000 Y-2.34996
G01 X-0.07803 Y-2.35765
G01 X-0.15306 Y-2.38041
G01 X-0.22222 Y-2.41737
G01 X-0.28283 Y-2.46713
G01 X-0.33259 Y-2.52773
G01 X-0.36954 Y-2.59690
G01 X-0.39230 Y-2.67193
G01 X-0.40000 Y-2.74998
G01 Z-1.87500 F30.00000 ( plunge. )
G04 P0 ( dwell for no time -- G64 should not smooth over this point )
G01 F100.00000
G01 X-0.40000 Y-20.75000
G01 X-0.39230 Y-20.82803
G01 X-0.36954 Y-20.90306
G01 X-0.33259 Y-20.97222
G01 X-0.28283 Y-21.03283
G01 X-0.22222 Y-21.08258
G01 X-0.15306 Y-21.11954
G01 X-0.07803 Y-21.14230
G01 X0.00000 Y-21.15000
G01 X2.59997 Y-21.15000
G01 X2.59997 Y-23.49998
G01 X2.60767 Y-23.57801
G01 X2.63042 Y-23.65304
G01 X2.66738 Y-23.72220
G01 X2.71714 Y-23.78281
G01 X2.77774 Y-23.83257
G01 X2.84691 Y-23.86952
G01 X2.92194 Y-23.89228
G01 X2.99999 Y-23.89998
G01 X8.99998 Y-23.89998
G01 X9.07801 Y-23.89228
G01 X9.15304 Y-23.86952
G01 X9.22221 Y-23.83257
G01 X9.28281 Y-23.78281
G01 X9.33257 Y-23.72220
G01 X9.36953 Y-23.65304
G01 X9.39228 Y-23.57801
G01 X9.39998 Y-23.49998
G01 X9.39998 Y-21.15000
G01 X11.99998 Y-21.15000
G01 X12.07800 Y-21.14230
G01 X12.15304 Y-21.11954
G01 X12.22220 Y-21.08258
G01 X12.28280 Y-21.03283
G01 X12.33256 Y-20.97222
G01 X12.36952 Y-20.90306
G01 X12.39228 Y-20.82803
G01 X12.39998 Y-20.75000
G01 X12.39998 Y-2.74998
G01 X12.39228 Y-2.67193
G01 X12.36952 Y-2.59690
G01 X12.33256 Y-2.52773
G01 X12.28280 Y-2.46713
G01 X12.22220 Y-2.41737
G01 X12.15304 Y-2.38041
G01 X12.07800 Y-2.35765
G01 X11.99998 Y-2.34996
G01 X9.39998 Y-2.34996
G01 X9.39998 Y-0.00000
G01 X9.39228 Y0.07803
G01 X9.36953 Y0.15306
G01 X9.33257 Y0.22222
G01 X9.28281 Y0.28283
G01 X9.22221 Y0.33259
G01 X9.15304 Y0.36954
G01 X9.07801 Y0.39230
G01 X8.99998 Y0.40000
G01 X2.99999 Y0.40000
G01 X2.92194 Y0.39230
G01 X2.84691 Y0.36954
G01 X2.77774 Y0.33259
G01 X2.71714 Y0.28283
G01 X2.66738 Y0.22222
G01 X2.63042 Y0.15306
G01 X2.60767 Y0.07803
G01 X2.59997 Y-0.00000
G01 X2.59997 Y-2.34996
G01 X0.00000 Y-2.34996
G01 X-0.07803 Y-2.35765
G01 X-0.15306 Y-2.38041
G01 X-0.22222 Y-2.41737
G01 X-0.28283 Y-2.46713
G01 X-0.33259 Y-2.52773
G01 X-0.36954 Y-2.59690
G01 X-0.39230 Y-2.67193
G01 X-0.40000 Y-2.74998
G01 Z-1.93750 F30.00000 ( plunge. )
G04 P0 ( dwell for no time -- G64 should not smooth over this point )
G01 F100.00000
G01 X-0.40000 Y-20.75000
G01 X-0.39230 Y-20.82803
G01 X-0.36954 Y-20.90306
G01 X-0.33259 Y-20.97222
G01 X-0.28283 Y-21.03283
G01 X-0.22222 Y-21.08258
G01 X-0.15306 Y-21.11954
G01 X-0.07803 Y-21.14230
G01 X0.00000 Y-21.15000
G01 X2.59997 Y-21.15000
G01 X2.59997 Y-23.49998
G01 X2.60767 Y-23.57801
G01 X2.63042 Y-23.65304
G01 X2.66738 Y-23.72220
G01 X2.71714 Y-23.78281
G01 X2.77774 Y-23.83257
G01 X2.84691 Y-23.86952
G01 X2.92194 Y-23.89228
G01 X2.99999 Y-23.89998
G01 X8.99998 Y-23.89998
G01 X9.07801 Y-23.89228
G01 X9.15304 Y-23.86952
G01 X9.22221 Y-23.83257
G01 X9.28281 Y-23.78281
G01 X9.33257 Y-23.72220
G01 X9.36953 Y-23.65304
G01 X9.39228 Y-23.57801
G01 X9.39998 Y-23.49998
G01 X9.39998 Y-21.15000
G01 X11.99998 Y-21.15000
G01 X12.07800 Y-21.14230
G01 X12.15304 Y-21.11954
G01 X12.22220 Y-21.08258
G01 X12.28280 Y-21.03283
G01 X12.33256 Y-20.97222
G01 X12.36952 Y-20.90306
G01 X12.39228 Y-20.82803
G01 X12.39998 Y-20.75000
G01 X12.39998 Y-2.74998
G01 X12.39228 Y-2.67193
G01 X12.36952 Y-2.59690
G01 X12.33256 Y-2.52773
G01 X12.28280 Y-2.46713
G01 X12.22220 Y-2.41737
G01 X12.15304 Y-2.38041
G01 X12.07800 Y-2.35765
G01 X11.99998 Y-2.34996
G01 X9.39998 Y-2.34996
G01 X9.39998 Y-0.00000
G01 X9.39228 Y0.07803
G01 X9.36953 Y0.15306
G01 X9.33257 Y0.22222
G01 X9.28281 Y0.28283
G01 X9.22221 Y0.33259
G01 X9.15304 Y0.36954
G01 X9.07801 Y0.39230
G01 X8.99998 Y0.40000
G01 X2.99999 Y0.40000
G01 X2.92194 Y0.39230
G01 X2.84691 Y0.36954
G01 X2.77774 Y0.33259
G01 X2.71714 Y0.28283
G01 X2.66738 Y0.22222
G01 X2.63042 Y0.15306
G01 X2.60767 Y0.07803
G01 X2.59997 Y-0.00000
G01 X2.59997 Y-2.34996
G01 X0.00000 Y-2.34996
G01 X-0.07803 Y-2.35765
G01 X-0.15306 Y-2.38041
G01 X-0.22222 Y-2.41737
G01 X-0.28283 Y-2.46713
G01 X-0.33259 Y-2.52773
G01 X-0.36954 Y-2.59690
G01 X-0.39230 Y-2.67193
G01 X-0.40000 Y-2.74998
G01 Z-2.00000 F30.00000 ( plunge. )
G04 P0 ( dwell for no time -- G64 should not smooth over this point )
G01 F100.00000
G01 X-0.40000 Y-20.75000
G01 X-0.39230 Y-20.82803
G01 X-0.36954 Y-20.90306
G01 X-0.33259 Y-20.97222
G01 X-0.28283 Y-21.03283
G01 X-0.22222 Y-21.08258
G01 X-0.15306 Y-21.11954
G01 X-0.07803 Y-21.14230
G01 X0.00000 Y-21.15000
G01 X2.59997 Y-21.15000
G01 X2.59997 Y-23.49998
G01 X2.60767 Y-23.57801
G01 X2.63042 Y-23.65304
G01 X2.66738 Y-23.72220
G01 X2.71714 Y-23.78281
G01 X2.77774 Y-23.83257
G01 X2.84691 Y-23.86952
G01 X2.92194 Y-23.89228
G01 X2.99999 Y-23.89998
G01 X8.99998 Y-23.89998
G01 X9.07801 Y-23.89228
G01 X9.15304 Y-23.86952
G01 X9.22221 Y-23.83257
G01 X9.28281 Y-23.78281
G01 X9.33257 Y-23.72220
G01 X9.36953 Y-23.65304
G01 X9.39228 Y-23.57801
G01 X9.39998 Y-23.49998
G01 X9.39998 Y-21.15000
G01 X11.99998 Y-21.15000
G01 X12.07800 Y-21.14230
G01 X12.15304 Y-21.11954
G01 X12.22220 Y-21.08258
G01 X12.28280 Y-21.03283
G01 X12.33256 Y-20.97222
G01 X12.36952 Y-20.90306
G01 X12.39228 Y-20.82803
G01 X12.39998 Y-20.75000
G01 X12.39998 Y-2.74998
G01 X12.39228 Y-2.67193
G01 X12.36952 Y-2.59690
G01 X12.33256 Y-2.52773
G01 X12.28280 Y-2.46713
G01 X12.22220 Y-2.41737
G01 X12.15304 Y-2.38041
G01 X12.07800 Y-2.35765
G01 X11.99998 Y-2.34996
G01 X9.39998 Y-2.34996
G01 X9.39998 Y-0.00000
G01 X9.39228 Y0.07803
G01 X9.36953 Y0.15306
G01 X9.33257 Y0.22222
G01 X9.28281 Y0.28283
G01 X9.22221 Y0.33259
G01 X9.15304 Y0.36954
G01 X9.07801 Y0.39230
G01 X8.99998 Y0.40000
G01 X2.99999 Y0.40000
G01 X2.92194 Y0.39230
G01 X2.84691 Y0.36954
G01 X2.77774 Y0.33259
G01 X2.71714 Y0.28283
G01 X2.66738 Y0.22222
G01 X2.63042 Y0.15306
G01 X2.60767 Y0.07803
G01 X2.59997 Y-0.00000
G01 X2.59997 Y-2.34996
G01 X0.00000 Y-2.34996
G01 X-0.07803 Y-2.35765
G01 X-0.15306 Y-2.38041
G01 X-0.22222 Y-2.41737
G01 X-0.28283 Y-2.46713
G01 X-0.33259 Y-2.52773
G01 X-0.36954 Y-2.59690
G01 X-0.39230 Y-2.67193
G01 X-0.40000 Y-2.74998
G01 Z-2.06250 F30.00000 ( plunge. )
G04 P0 ( dwell for no time -- G64 should not smooth over this point )
G01 F100.00000
G01 X-0.40000 Y-20.75000
G01 X-0.39230 Y-20.82803
G01 X-0.36954 Y-20.90306
G01 X-0.33259 Y-20.97222
G01 X-0.28283 Y-21.03283
G01 X-0.22222 Y-21.08258
G01 X-0.15306 Y-21.11954
G01 X-0.07803 Y-21.14230
G01 X0.00000 Y-21.15000
G01 X2.59997 Y-21.15000
G01 X2.59997 Y-23.49998
G01 X2.60767 Y-23.57801
G01 X2.63042 Y-23.65304
G01 X2.66738 Y-23.72220
G01 X2.71714 Y-23.78281
G01 X2.77774 Y-23.83257
G01 X2.84691 Y-23.86952
G01 X2.92194 Y-23.89228
G01 X2.99999 Y-23.89998
G01 X8.99998 Y-23.89998
G01 X9.07801 Y-23.89228
G01 X9.15304 Y-23.86952
G01 X9.22221 Y-23.83257
G01 X9.28281 Y-23.78281
G01 X9.33257 Y-23.72220
G01 X9.36953 Y-23.65304
G01 X9.39228 Y-23.57801
G01 X9.39998 Y-23.49998
G01 X9.39998 Y-21.15000
G01 X11.99998 Y-21.15000
G01 X12.07800 Y-21.14230
G01 X12.15304 Y-21.11954
G01 X12.22220 Y-21.08258
G01 X12.28280 Y-21.03283
G01 X12.33256 Y-20.97222
G01 X12.36952 Y-20.90306
G01 X12.39228 Y-20.82803
G01 X12.39998 Y-20.75000
G01 X12.39998 Y-2.74998
G01 X12.39228 Y-2.67193
G01 X12.36952 Y-2.59690
G01 X12.33256 Y-2.52773
G01 X12.28280 Y-2.46713
G01 X12.22220 Y-2.41737
G01 X12.15304 Y-2.38041
G01 X12.07800 Y-2.35765
G01 X11.99998 Y-2.34996
G01 X9.39998 Y-2.34996
G01 X9.39998 Y-0.00000
G01 X9.39228 Y0.07803
G01 X9.36953 Y0.15306
G01 X9.33257 Y0.22222
G01 X9.28281 Y0.28283
G01 X9.22221 Y0.33259
G01 X9.15304 Y0.36954
G01 X9.07801 Y0.39230
G01 X8.99998 Y0.40000
G01 X2.99999 Y0.40000
G01 X2.92194 Y0.39230
G01 X2.84691 Y0.36954
G01 X2.77774 Y0.33259
G01 X2.71714 Y0.28283
G01 X2.66738 Y0.22222
G01 X2.63042 Y0.15306
G01 X2.60767 Y0.07803
G01 X2.59997 Y-0.00000
G01 X2.59997 Y-2.34996
G01 X0.00000 Y-2.34996
G01 X-0.07803 Y-2.35765
G01 X-0.15306 Y-2.38041
G01 X-0.22222 Y-2.41737
G01 X-0.28283 Y-2.46713
G01 X-0.33259 Y-2.52773
G01 X-0.36954 Y-2.59690
G01 X-0.39230 Y-2.67193
G01 X-0.40000 Y-2.74998
G01 Z-2.12500 F30.00000 ( plunge. )
G04 P0 ( dwell for no time -- G64 should not smooth over this point )
G01 F100.00000
G01 X-0.40000 Y-20.75000
G01 X-0.39230 Y-20.82803
G01 X-0.36954 Y-20.90306
G01 X-0.33259 Y-20.97222
G01 X-0.28283 Y-21.03283
G01 X-0.22222 Y-21.08258
G01 X-0.15306 Y-21.11954
G01 X-0.07803 Y-21.14230
G01 X0.00000 Y-21.15000
G01 X2.59997 Y-21.15000
G01 X2.59997 Y-23.49998
G01 X2.60767 Y-23.57801
G01 X2.63042 Y-23.65304
G01 X2.66738 Y-23.72220
G01 X2.71714 Y-23.78281
G01 X2.77774 Y-23.83257
G01 X2.84691 Y-23.86952
G01 X2.92194 Y-23.89228
G01 X2.99999 Y-23.89998
G01 X8.99998 Y-23.89998
G01 X9.07801 Y-23.89228
G01 X9.15304 Y-23.86952
G01 X9.22221 Y-23.83257
G01 X9.28281 Y-23.78281
G01 X9.33257 Y-23.72220
G01 X9.36953 Y-23.65304
G01 X9.39228 Y-23.57801
G01 X9.39998 Y-23.49998
G01 X9.39998 Y-21.15000
G01 X11.99998 Y-21.15000
G01 X12.07800 Y-21.14230
G01 X12.15304 Y-21.11954
G01 X12.22220 Y-21.08258
G01 X12.28280 Y-21.03283
G01 X12.33256 Y-20.97222
G01 X12.36952 Y-20.90306
G01 X12.39228 Y-20.82803
G01 X12.39998 Y-20.75000
G01 X12.39998 Y-2.74998
G01 X12.39228 Y-2.67193
G01 X12.36952 Y-2.59690
G01 X12.33256 Y-2.52773
G01 X12.28280 Y-2.46713
G01 X12.22220 Y-2.41737
G01 X12.15304 Y-2.38041
G01 X12.07800 Y-2.35765
G01 X11.99998 Y-2.34996
G01 X9.39998 Y-2.34996
G01 X9.39998 Y-0.00000
G01 X9.39228 Y0.07803
G01 X9.36953 Y0.15306
G01 X9.33257 Y0.22222
G01 X9.28281 Y0.28283
G01 X9.22221 Y0.33259
G01 X9.15304 Y0.36954
G01 X9.07801 Y0.39230
G01 X8.99998 Y0.40000
G01 X2.99999 Y0.40000
G01 X2.92194 Y0.39230
G01 X2.84691 Y0.36954
G01 X2.77774 Y0.33259
G01 X2.71714 Y0.28283
G01 X2.66738 Y0.22222
G01 X2.63042 Y0.15306
G01 X2.60767 Y0.07803
G01 X2.59997 Y-0.00000
G01 X2.59997 Y-2.34996
G01 X0.00000 Y-2.34996
G01 X-0.07803 Y-2.35765
G01 X-0.15306 Y-2.38041
G01 X-0.22222 Y-2.41737
G01 X-0.28283 Y-2.46713
G01 X-0.33259 Y-2.52773
G01 X-0.36954 Y-2.59690
G01 X-0.39230 Y-2.67193
G01 X-0.40000 Y-2.74998
G01 Z-2.18750 F30.00000 ( plunge. )
G04 P0 ( dwell for no time -- G64 should not smooth over this point )
G01 F100.00000
G01 X-0.40000 Y-20.75000
G01 X-0.39230 Y-20.82803
G01 X-0.36954 Y-20.90306
G01 X-0.33259 Y-20.97222
G01 X-0.28283 Y-21.03283
G01 X-0.22222 Y-21.08258
G01 X-0.15306 Y-21.11954
G01 X-0.07803 Y-21.14230
G01 X0.00000 Y-21.15000
G01 X2.59997 Y-21.15000
G01 X2.59997 Y-23.49998
G01 X2.60767 Y-23.57801
G01 X2.63042 Y-23.65304
G01 X2.66738 Y-23.72220
G01 X2.71714 Y-23.78281
G01 X2.77774 Y-23.83257
G01 X2.84691 Y-23.86952
G01 X2.92194 Y-23.89228
G01 X2.99999 Y-23.89998
G01 X8.99998 Y-23.89998
G01 X9.07801 Y-23.89228
G01 X9.15304 Y-23.86952
G01 X9.22221 Y-23.83257
G01 X9.28281 Y-23.78281
G01 X9.33257 Y-23.72220
G01 X9.36953 Y-23.65304
G01 X9.39228 Y-23.57801
G01 X9.39998 Y-23.49998
G01 X9.39998 Y-21.15000
G01 X11.99998 Y-21.15000
G01 X12.07800 Y-21.14230
G01 X12.15304 Y-21.11954
G01 X12.22220 Y-21.08258
G01 X12.28280 Y-21.03283
G01 X12.33256 Y-20.97222
G01 X12.36952 Y-20.90306
G01 X12.39228 Y-20.82803
G01 X12.39998 Y-20.75000
G01 X12.39998 Y-2.74998
G01 X12.39228 Y-2.67193
G01 X12.36952 Y-2.59690
G01 X12.33256 Y-2.52773
G01 X12.28280 Y-2.46713
G01 X12.22220 Y-2.41737
G01 X12.15304 Y-2.38041
G01 X12.07800 Y-2.35765
G01 X11.99998 Y-2.34996
G01 X9.39998 Y-2.34996
G01 X9.39998 Y-0.00000
G01 X9.39228 Y0.07803
G01 X9.36953 Y0.15306
G01 X9.33257 Y0.22222
G01 X9.28281 Y0.28283
G01 X9.22221 Y0.33259
G01 X9.15304 Y0.36954
G01 X9.07801 Y0.39230
G01 X8.99998 Y0.40000
G01 X2.99999 Y0.40000
G01 X2.92194 Y0.39230
G01 X2.84691 Y0.36954
G01 X2.77774 Y0.33259
G01 X2.71714 Y0.28283
G01 X2.66738 Y0.22222
G01 X2.63042 Y0.15306
G01 X2.60767 Y0.07803
G01 X2.59997 Y-0.00000
G01 X2.59997 Y-2.34996
G01 X0.00000 Y-2.34996
G01 X-0.07803 Y-2.35765
G01 X-0.15306 Y-2.38041
G01 X-0.22222 Y-2.41737
G01 X-0.28283 Y-2.46713
G01 X-0.33259 Y-2.52773
G01 X-0.36954 Y-2.59690
G01 X-0.39230 Y-2.67193
G01 X-0.40000 Y-2.74998
G01 Z-2.25000 F30.00000 ( plunge. )
G04 P0 ( dwell for no time -- G64 should not smooth over this point )
G01 F100.00000
G01 X-0.40000 Y-20.75000
G01 X-0.39230 Y-20.82803
G01 X-0.36954 Y-20.90306
G01 X-0.33259 Y-20.97222
G01 X-0.28283 Y-21.03283
G01 X-0.22222 Y-21.08258
G01 X-0.15306 Y-21.11954
G01 X-0.07803 Y-21.14230
G01 X0.00000 Y-21.15000
G01 X2.59997 Y-21.15000
G01 X2.59997 Y-23.49998
G01 X2.60767 Y-23.57801
G01 X2.63042 Y-23.65304
G01 X2.66738 Y-23.72220
G01 X2.71714 Y-23.78281
G01 X2.77774 Y-23.83257
G01 X2.84691 Y-23.86952
G01 X2.92194 Y-23.89228
G01 X2.99999 Y-23.89998
G01 X8.99998 Y-23.89998
G01 X9.07801 Y-23.89228
G01 X9.15304 Y-23.86952
G01 X9.22221 Y-23.83257
G01 X9.28281 Y-23.78281
G01 X9.33257 Y-23.72220
G01 X9.36953 Y-23.65304
G01 X9.39228 Y-23.57801
G01 X9.39998 Y-23.49998
G01 X9.39998 Y-21.15000
G01 X11.99998 Y-21.15000
G01 X12.07800 Y-21.14230
G01 X12.15304 Y-21.11954
G01 X12.22220 Y-21.08258
G01 X12.28280 Y-21.03283
G01 X12.33256 Y-20.97222
G01 X12.36952 Y-20.90306
G01 X12.39228 Y-20.82803
G01 X12.39998 Y-20.75000
G01 X12.39998 Y-2.74998
G01 X12.39228 Y-2.67193
G01 X12.36952 Y-2.59690
G01 X12.33256 Y-2.52773
G01 X12.28280 Y-2.46713
G01 X12.22220 Y-2.41737
G01 X12.15304 Y-2.38041
G01 X12.07800 Y-2.35765
G01 X11.99998 Y-2.34996
G01 X9.39998 Y-2.34996
G01 X9.39998 Y-0.00000
G01 X9.39228 Y0.07803
G01 X9.36953 Y0.15306
G01 X9.33257 Y0.22222
G01 X9.28281 Y0.28283
G01 X9.22221 Y0.33259
G01 X9.15304 Y0.36954
G01 X9.07801 Y0.39230
G01 X8.99998 Y0.40000
G01 X2.99999 Y0.40000
G01 X2.92194 Y0.39230
G01 X2.84691 Y0.36954
G01 X2.77774 Y0.33259
G01 X2.71714 Y0.28283
G01 X2.66738 Y0.22222
G01 X2.63042 Y0.15306
G01 X2.60767 Y0.07803
G01 X2.59997 Y-0.00000
G01 X2.59997 Y-2.34996
G01 X0.00000 Y-2.34996
G01 X-0.07803 Y-2.35765
G01 X-0.15306 Y-2.38041
G01 X-0.22222 Y-2.41737
G01 X-0.28283 Y-2.46713
G01 X-0.33259 Y-2.52773
G01 X-0.36954 Y-2.59690
G01 X-0.39230 Y-2.67193
G01 X-0.40000 Y-2.74998
G01 Z-2.31250 F30.00000 ( plunge. )
G04 P0 ( dwell for no time -- G64 should not smooth over this point )
G01 F100.00000
G01 X-0.40000 Y-20.75000
G01 X-0.39230 Y-20.82803
G01 X-0.36954 Y-20.90306
G01 X-0.33259 Y-20.97222
G01 X-0.28283 Y-21.03283
G01 X-0.22222 Y-21.08258
G01 X-0.15306 Y-21.11954
G01 X-0.07803 Y-21.14230
G01 X0.00000 Y-21.15000
G01 X2.59997 Y-21.15000
G01 X2.59997 Y-23.49998
G01 X2.60767 Y-23.57801
G01 X2.63042 Y-23.65304
G01 X2.66738 Y-23.72220
G01 X2.71714 Y-23.78281
G01 X2.77774 Y-23.83257
G01 X2.84691 Y-23.86952
G01 X2.92194 Y-23.89228
G01 X2.99999 Y-23.89998
G01 X8.99998 Y-23.89998
G01 X9.07801 Y-23.89228
G01 X9.15304 Y-23.86952
G01 X9.22221 Y-23.83257
G01 X9.28281 Y-23.78281
G01 X9.33257 Y-23.72220
G01 X9.36953 Y-23.65304
G01 X9.39228 Y-23.57801
G01 X9.39998 Y-23.49998
G01 X9.39998 Y-21.15000
G01 X11.99998 Y-21.15000
G01 X12.07800 Y-21.14230
G01 X12.15304 Y-21.11954
G01 X12.22220 Y-21.08258
G01 X12.28280 Y-21.03283
G01 X12.33256 Y-20.97222
G01 X12.36952 Y-20.90306
G01 X12.39228 Y-20.82803
G01 X12.39998 Y-20.75000
G01 X12.39998 Y-2.74998
G01 X12.39228 Y-2.67193
G01 X12.36952 Y-2.59690
G01 X12.33256 Y-2.52773
G01 X12.28280 Y-2.46713
G01 X12.22220 Y-2.41737
G01 X12.15304 Y-2.38041
G01 X12.07800 Y-2.35765
G01 X11.99998 Y-2.34996
G01 X9.39998 Y-2.34996
G01 X9.39998 Y-0.00000
G01 X9.39228 Y0.07803
G01 X9.36953 Y0.15306
G01 X9.33257 Y0.22222
G01 X9.28281 Y0.28283
G01 X9.22221 Y0.33259
G01 X9.15304 Y0.36954
G01 X9.07801 Y0.39230
G01 X8.99998 Y0.40000
G01 X2.99999 Y0.40000
G01 X2.92194 Y0.39230
G01 X2.84691 Y0.36954
G01 X2.77774 Y0.33259
G01 X2.71714 Y0.28283
G01 X2.66738 Y0.22222
G01 X2.63042 Y0.15306
G01 X2.60767 Y0.07803
G01 X2.59997 Y-0.00000
G01 X2.59997 Y-2.34996
G01 X0.00000 Y-2.34996
G01 X-0.07803 Y-2.35765
G01 X-0.15306 Y-2.38041
G01 X-0.22222 Y-2.41737
G01 X-0.28283 Y-2.46713
G01 X-0.33259 Y-2.52773
G01 X-0.36954 Y-2.59690
G01 X-0.39230 Y-2.67193
G01 X-0.40000 Y-2.74998
G01 Z-2.37500 F30.00000 ( plunge. )
G04 P0 ( dwell for no time -- G64 should not smooth over this point )
G01 F100.00000
G01 X-0.40000 Y-20.75000
G01 X-0.39230 Y-20.82803
G01 X-0.36954 Y-20.90306
G01 X-0.33259 Y-20.97222
G01 X-0.28283 Y-21.03283
G01 X-0.22222 Y-21.08258
G01 X-0.15306 Y-21.11954
G01 X-0.07803 Y-21.14230
G01 X0.00000 Y-21.15000
G01 X2.59997 Y-21.15000
G01 X2.59997 Y-23.49998
G01 X2.60767 Y-23.57801
G01 X2.63042 Y-23.65304
G01 X2.66738 Y-23.72220
G01 X2.71714 Y-23.78281
G01 X2.77774 Y-23.83257
G01 X2.84691 Y-23.86952
G01 X2.92194 Y-23.89228
G01 X2.99999 Y-23.89998
G01 X8.99998 Y-23.89998
G01 X9.07801 Y-23.89228
G01 X9.15304 Y-23.86952
G01 X9.22221 Y-23.83257
G01 X9.28281 Y-23.78281
G01 X9.33257 Y-23.72220
G01 X9.36953 Y-23.65304
G01 X9.39228 Y-23.57801
G01 X9.39998 Y-23.49998
G01 X9.39998 Y-21.15000
G01 X11.99998 Y-21.15000
G01 X12.07800 Y-21.14230
G01 X12.15304 Y-21.11954
G01 X12.22220 Y-21.08258
G01 X12.28280 Y-21.03283
G01 X12.33256 Y-20.97222
G01 X12.36952 Y-20.90306
G01 X12.39228 Y-20.82803
G01 X12.39998 Y-20.75000
G01 X12.39998 Y-2.74998
G01 X12.39228 Y-2.67193
G01 X12.36952 Y-2.59690
G01 X12.33256 Y-2.52773
G01 X12.28280 Y-2.46713
G01 X12.22220 Y-2.41737
G01 X12.15304 Y-2.38041
G01 X12.07800 Y-2.35765
G01 X11.99998 Y-2.34996
G01 X9.39998 Y-2.34996
G01 X9.39998 Y-0.00000
G01 X9.39228 Y0.07803
G01 X9.36953 Y0.15306
G01 X9.33257 Y0.22222
G01 X9.28281 Y0.28283
G01 X9.22221 Y0.33259
G01 X9.15304 Y0.36954
G01 X9.07801 Y0.39230
G01 X8.99998 Y0.40000
G01 X2.99999 Y0.40000
G01 X2.92194 Y0.39230
G01 X2.84691 Y0.36954
G01 X2.77774 Y0.33259
G01 X2.71714 Y0.28283
G01 X2.66738 Y0.22222
G01 X2.63042 Y0.15306
G01 X2.60767 Y0.07803
G01 X2.59997 Y-0.00000
G01 X2.59997 Y-2.34996
G01 X0.00000 Y-2.34996
G01 X-0.07803 Y-2.35765
G01 X-0.15306 Y-2.38041
G01 X-0.22222 Y-2.41737
G01 X-0.28283 Y-2.46713
G01 X-0.33259 Y-2.52773
G01 X-0.36954 Y-2.59690
G01 X-0.39230 Y-2.67193
G01 X-0.40000 Y-2.74998
G01 Z-2.43750 F30.00000 ( plunge. )
G04 P0 ( dwell for no time -- G64 should not smooth over this point )
G01 F100.00000
G01 X-0.40000 Y-20.75000
G01 X-0.39230 Y-20.82803
G01 X-0.36954 Y-20.90306
G01 X-0.33259 Y-20.97222
G01 X-0.28283 Y-21.03283
G01 X-0.22222 Y-21.08258
G01 X-0.15306 Y-21.11954
G01 X-0.07803 Y-21.14230
G01 X0.00000 Y-21.15000
G01 X2.59997 Y-21.15000
G01 X2.59997 Y-23.49998
G01 X2.60767 Y-23.57801
G01 X2.63042 Y-23.65304
G01 X2.66738 Y-23.72220
G01 X2.71714 Y-23.78281
G01 X2.77774 Y-23.83257
G01 X2.84691 Y-23.86952
G01 X2.92194 Y-23.89228
G01 X2.99999 Y-23.89998
G01 X8.99998 Y-23.89998
G01 X9.07801 Y-23.89228
G01 X9.15304 Y-23.86952
G01 X9.22221 Y-23.83257
G01 X9.28281 Y-23.78281
G01 X9.33257 Y-23.72220
G01 X9.36953 Y-23.65304
G01 X9.39228 Y-23.57801
G01 X9.39998 Y-23.49998
G01 X9.39998 Y-21.15000
G01 X11.99998 Y-21.15000
G01 X12.07800 Y-21.14230
G01 X12.15304 Y-21.11954
G01 X12.22220 Y-21.08258
G01 X12.28280 Y-21.03283
G01 X12.33256 Y-20.97222
G01 X12.36952 Y-20.90306
G01 X12.39228 Y-20.82803
G01 X12.39998 Y-20.75000
G01 X12.39998 Y-2.74998
G01 X12.39228 Y-2.67193
G01 X12.36952 Y-2.59690
G01 X12.33256 Y-2.52773
G01 X12.28280 Y-2.46713
G01 X12.22220 Y-2.41737
G01 X12.15304 Y-2.38041
G01 X12.07800 Y-2.35765
G01 X11.99998 Y-2.34996
G01 X9.39998 Y-2.34996
G01 X9.39998 Y-0.00000
G01 X9.39228 Y0.07803
G01 X9.36953 Y0.15306
G01 X9.33257 Y0.22222
G01 X9.28281 Y0.28283
G01 X9.22221 Y0.33259
G01 X9.15304 Y0.36954
G01 X9.07801 Y0.39230
G01 X8.99998 Y0.40000
G01 X2.99999 Y0.40000
G01 X2.92194 Y0.39230
G01 X2.84691 Y0.36954
G01 X2.77774 Y0.33259
G01 X2.71714 Y0.28283
G01 X2.66738 Y0.22222
G01 X2.63042 Y0.15306
G01 X2.60767 Y0.07803
G01 X2.59997 Y-0.00000
G01 X2.59997 Y-2.34996
G01 X0.00000 Y-2.34996
G01 X-0.07803 Y-2.35765
G01 X-0.15306 Y-2.38041
G01 X-0.22222 Y-2.41737
G01 X-0.28283 Y-2.46713
G01 X-0.33259 Y-2.52773
G01 X-0.36954 Y-2.59690
G01 X-0.39230 Y-2.67193
G01 X-0.40000 Y-2.74998
G01 Z-2.50000 F30.00000 ( plunge. )
G04 P0 ( dwell for no time -- G64 should not smooth over this point )
G01 F100.00000
G01 X-0.40000 Y-20.75000
G01 X-0.39230 Y-20.82803
G01 X-0.36954 Y-20.90306
G01 X-0.33259 Y-20.97222
G01 X-0.28283 Y-21.03283
G01 X-0.22222 Y-21.08258
G01 X-0.15306 Y-21.11954
G01 X-0.07803 Y-21.14230
G01 X0.00000 Y-21.15000
G01 X2.59997 Y-21.15000
G01 X2.59997 Y-23.49998
G01 X2.60767 Y-23.57801
G01 X2.63042 Y-23.65304
G01 X2.66738 Y-23.72220
G01 X2.71714 Y-23.78281
G01 X2.77774 Y-23.83257
G01 X2.84691 Y-23.86952
G01 X2.92194 Y-23.89228
G01 X2.99999 Y-23.89998
G01 X8.99998 Y-23.89998
G01 X9.07801 Y-23.89228
G01 X9.15304 Y-23.86952
G01 X9.22221 Y-23.83257
G01 X9.28281 Y-23.78281
G01 X9.33257 Y-23.72220
G01 X9.36953 Y-23.65304
G01 X9.39228 Y-23.57801
G01 X9.39998 Y-23.49998
G01 X9.39998 Y-21.15000
G01 X11.99998 Y-21.15000
G01 X12.07800 Y-21.14230
G01 X12.15304 Y-21.11954
G01 X12.22220 Y-21.08258
G01 X12.28280 Y-21.03283
G01 X12.33256 Y-20.97222
G01 X12.36952 Y-20.90306
G01 X12.39228 Y-20.82803
G01 X12.39998 Y-20.75000
G01 X12.39998 Y-2.74998
G01 X12.39228 Y-2.67193
G01 X12.36952 Y-2.59690
G01 X12.33256 Y-2.52773
G01 X12.28280 Y-2.46713
G01 X12.22220 Y-2.41737
G01 X12.15304 Y-2.38041
G01 X12.07800 Y-2.35765
G01 X11.99998 Y-2.34996
G01 X9.39998 Y-2.34996
G01 X9.39998 Y-0.00000
G01 X9.39228 Y0.07803
G01 X9.36953 Y0.15306
G01 X9.33257 Y0.22222
G01 X9.28281 Y0.28283
G01 X9.22221 Y0.33259
G01 X9.15304 Y0.36954
G01 X9.07801 Y0.39230
G01 X8.99998 Y0.40000
G01 X2.99999 Y0.40000
G01 X2.92194 Y0.39230
G01 X2.84691 Y0.36954
G01 X2.77774 Y0.33259
G01 X2.71714 Y0.28283
G01 X2.66738 Y0.22222
G01 X2.63042 Y0.15306
G01 X2.60767 Y0.07803
G01 X2.59997 Y-0.00000
G01 X2.59997 Y-2.34996
G01 X0.00000 Y-2.34996
G01 X-0.07803 Y-2.35765
G01 X-0.15306 Y-2.38041
G01 X-0.22222 Y-2.41737
G01 X-0.28283 Y-2.46713
G01 X-0.33259 Y-2.52773
G01 X-0.36954 Y-2.59690
G01 X-0.39230 Y-2.67193
G01 X-0.40000 Y-2.74998

G04 P0 ( dwell for no time -- G64 should not smooth over this point )
G00 Z17.835000 ( retract )

M5 ( Spindle off. )
G04 P1.000000
M9 ( Coolant off. )
M2 ( Program end. )

