( pcb2gcode 2.5.0 )
( Software-independent Gcode )

G0 F200

G94 ( Millimeters per minute feed rate. )
G21 ( Units == Millimeters. )

G90 ( Absolute coordinates. )
G00 S10000 ( RPM spindle speed. )
G64 P0.01016 ( set maximum deviation from commanded toolpath )
G01 F200.00000 ( Feedrate. )


G00 Z17.83500 (Retract to tool change height)
T1
M5      (Spindle stop.)
G04 P1.00000 (Wait for spindle to stop)
(MSG, Change tool bit to mill diameter 0.80000mm)
M6      (Tool change.)
M0      (Temporary machine stop.)
M3 ( Spindle on clockwise. )
G04 P1.00000 (Wait for spindle to get up to speed)
G04 P0 ( dwell for no time -- G64 should not smooth over this point )
G00 Z1.27000 ( retract )

G00 X2.63190 Y4.78399 ( rapid move to begin. )
G01 F30.00000
( Mill infeed pass 1/1 )
G01 Z-0.14000
G04 P0 ( dwell for no time -- G64 should not smooth over this point )
G01 F200.00000
G01 X2.63190 Y4.78399
G01 X4.22473 Y4.78399
G01 X4.25828 Y4.86806
G01 X4.30098 Y4.94388
G01 X4.35468 Y5.01236
G01 X4.41013 Y5.06781
G01 X4.44706 Y5.09811
G01 X4.51226 Y5.14167
G01 X4.58988 Y5.18099
G01 X4.67256 Y5.20809
G01 X4.74947 Y5.22338
G01 X4.83624 Y5.22999
G01 X5.32374 Y5.22999
G01 X5.41050 Y5.22338
G01 X5.48742 Y5.20809
G01 X5.57009 Y5.18099
G01 X5.64772 Y5.14167
G01 X5.71292 Y5.09811
G01 X5.77893 Y5.04144
G01 X5.80530 Y5.01236
G01 X5.83562 Y4.97540
G01 X5.87919 Y4.91023
G01 X5.91848 Y4.83258
G01 X5.95511 Y4.71183
G01 X5.96748 Y4.58625
G01 X5.96748 Y3.67373
G01 X5.96087 Y3.58699
G01 X5.94558 Y3.51008
G01 X5.93171 Y3.46436
G01 X5.90169 Y3.39189
G01 X5.87919 Y3.34975
G01 X5.83562 Y3.28455
G01 X5.77893 Y3.21854
G01 X5.71292 Y3.16187
G01 X5.66760 Y3.13159
G01 X5.66760 Y2.37774
G01 X5.47908 Y2.34025
G01 X5.43154 Y2.33556
G01 X5.32374 Y2.33027
G01 X4.83624 Y2.33027
G01 X4.68089 Y2.34025
G01 X4.46946 Y2.38232
G01 X4.32211 Y2.43253
G01 X4.22455 Y2.47868
G01 X4.18241 Y2.50119
G01 X4.00317 Y2.62098
G01 X3.88625 Y2.72377
G01 X3.83868 Y2.77625
G01 X3.85834 Y2.82572
G01 X3.83868 Y2.77625
G01 X2.51168 Y2.77625
G01 X2.50414 Y2.80281
G01 X2.51168 Y2.77625
G01 X2.46985 Y2.74523
G01 X2.37729 Y2.68976
G01 X2.33406 Y2.66664
G01 X2.13490 Y2.58415
G01 X1.98331 Y2.54371
G01 X1.82778 Y2.52306
G01 X1.71999 Y2.51777
G01 X0.81999 Y2.51777
G01 X0.66342 Y2.52786
G01 X0.55667 Y2.54371
G01 X0.40508 Y2.58415
G01 X0.20592 Y2.66664
G01 X0.07013 Y2.74523
G01 X-0.05441 Y2.84061
G01 X-0.20686 Y2.99306
G01 X-0.30223 Y3.11762
G01 X-0.38082 Y3.25341
G01 X-0.46332 Y3.45260
G01 X-0.47755 Y3.49948
G01 X-0.51961 Y3.71091
G01 X-0.52972 Y3.86748
G01 X-0.52972 Y4.39250
G01 X-0.51961 Y4.54906
G01 X-0.49106 Y4.69262
G01 X0.24475 Y4.69262
G01 X0.27953 Y4.75361
G01 X0.33401 Y4.82303
G01 X0.38946 Y4.87848
G01 X0.45888 Y4.93293
G01 X0.53576 Y4.97622
G01 X0.60820 Y5.00624
G01 X0.69317 Y5.02999
G01 X0.81966 Y5.04246
G01 X1.72032 Y5.04246
G01 X1.80797 Y5.03575
G01 X1.84681 Y5.02999
G01 X1.93177 Y5.00624
G01 X2.00421 Y4.97622
G01 X2.04744 Y4.95313
G01 X2.08110 Y4.93293
G01 X2.15052 Y4.87848
G01 X2.20596 Y4.82303
G01 X2.23792 Y4.78399
G01 X2.63190 Y4.78399
G01 X2.85849 Y4.90766
G01 X3.10825 Y5.07870
G01 X3.34162 Y5.27121
G01 X3.56448 Y5.48371
G01 X3.83865 Y5.48371
G01 X3.85834 Y5.43423
G01 X3.83865 Y5.48371
G01 X3.88625 Y5.53621
G01 X4.00317 Y5.63900
G01 X4.18241 Y5.75876
G01 X4.32211 Y5.82745
G01 X4.42371 Y5.86379
G01 X4.46946 Y5.87766
G01 X4.68089 Y5.91972
G01 X4.72844 Y5.92442
G01 X4.82062 Y5.92894
G01 X4.93852 Y5.92358
G01 X5.22148 Y5.92358
G01 X5.33933 Y5.92894
G01 X5.47908 Y5.91972
G01 X5.66760 Y5.88223
G01 X5.66760 Y5.12839
G01 X5.71292 Y5.09811
G01 X5.77893 Y5.04144
G01 X5.83562 Y4.97540
G01 X5.87919 Y4.91023
G01 X5.91848 Y4.83258
G01 X5.93171 Y4.79562
G01 X5.95511 Y4.71183
G01 X5.96087 Y4.67299
G01 X5.96748 Y4.58625
G01 X5.96557 Y3.63454
G01 X5.95511 Y3.54815
G01 X5.93171 Y3.46436
G01 X5.90169 Y3.39189
G01 X5.85899 Y3.31610
G01 X5.77893 Y3.21854
G01 X5.71292 Y3.16187
G01 X5.64772 Y3.11831
G01 X5.57009 Y3.07899
G01 X5.53314 Y3.06575
G01 X5.48742 Y3.05189
G01 X5.41050 Y3.03660
G01 X5.32374 Y3.02999
G01 X4.83624 Y3.02999
G01 X4.74947 Y3.03660
G01 X4.67256 Y3.05189
G01 X4.62684 Y3.06575
G01 X4.55440 Y3.09578
G01 X4.51226 Y3.11831
G01 X4.44706 Y3.16187
G01 X4.38104 Y3.21854
G01 X4.30098 Y3.31610
G01 X4.25828 Y3.39189
G01 X4.22473 Y3.47596
G01 X2.23789 Y3.47596
G01 X2.20596 Y3.43695
G01 X2.15052 Y3.38150
G01 X2.08110 Y3.32699
G01 X2.00421 Y3.28374
G01 X1.93177 Y3.25369
G01 X1.84681 Y3.22997
G01 X1.71999 Y3.21749
G01 X0.81999 Y3.21749
G01 X0.69317 Y3.22997
G01 X0.60820 Y3.25369
G01 X0.53576 Y3.28374
G01 X0.49253 Y3.30685
G01 X0.42733 Y3.35041
G01 X0.38946 Y3.38150
G01 X0.33401 Y3.43695
G01 X0.27953 Y3.50637
G01 X0.25936 Y3.54002
G01 X0.23625 Y3.58325
G01 X0.20625 Y3.65569
G01 X0.19202 Y3.70261
G01 X0.17671 Y3.77952
G01 X0.16998 Y3.86748
G01 X-0.52972 Y3.86748
G01 X0.16998 Y3.86748
G01 X0.17191 Y4.43169
G01 X0.17671 Y4.48046
G01 X0.19202 Y4.55737
G01 X0.20625 Y4.60428
G01 X0.24475 Y4.69262
G01 X0.24475 Y5.39234
G01 X-0.49106 Y5.39234
G01 X-0.51961 Y5.53593
G01 X-0.52972 Y5.69250
G01 X-0.52972 Y6.21749
G01 X-0.51961 Y6.37403
G01 X-0.47755 Y6.58546
G01 X-0.42697 Y6.73400
G01 X-0.38082 Y6.83156
G01 X-0.35773 Y6.87479
G01 X-0.23795 Y7.05404
G01 X-0.13439 Y7.17189
G01 X-0.08372 Y7.21782
G01 X-0.03439 Y7.19823
G01 X-0.08372 Y7.21782
G01 X-0.08372 Y8.57303
G01 X-0.07026 Y8.57570
G01 X-0.08372 Y8.57303
G01 X-0.15192 Y8.73768
G01 X-0.20086 Y8.91741
G01 X-0.22441 Y9.10219
G01 X-0.22441 Y9.31779
G01 X-0.20086 Y9.50257
G01 X-0.17468 Y9.60725
G01 X-0.15192 Y9.68230
G01 X-0.06942 Y9.88146
G01 X0.02301 Y10.04319
G01 X0.08730 Y10.12988
G01 X0.20952 Y10.27044
G01 X0.35011 Y10.39266
G01 X0.52936 Y10.51245
G01 X0.69606 Y10.59556
G01 X0.87272 Y10.65466
G01 X1.08415 Y10.69673
G01 X1.27000 Y10.70971
G01 X1.37777 Y10.70442
G01 X1.45583 Y10.69673
G01 X1.66726 Y10.65466
G01 X1.74229 Y10.63191
G01 X1.94147 Y10.54941
G01 X2.01061 Y10.51245
G01 X2.10320 Y10.45695
G01 X2.25049 Y10.34293
G01 X2.40292 Y10.19048
G01 X2.48582 Y10.08517
G01 X2.54279 Y9.79767
G01 X2.57056 Y9.62596
G01 X2.59702 Y9.32734
G01 X2.59400 Y9.03145
G01 X2.57058 Y8.79409
G01 X2.53385 Y8.57555
G01 X2.52778 Y8.49780
G01 X2.52443 Y8.49787
G01 X2.52778 Y8.49780
G01 X2.54025 Y8.22604
G01 X2.56611 Y7.95594
G01 X2.59372 Y7.77245
G01 X2.62372 Y7.61982
G01 X2.62372 Y7.21782
G01 X2.57439 Y7.19823
G01 X2.62372 Y7.21782
G01 X2.67439 Y7.17189
G01 X2.74686 Y7.09191
G01 X2.77795 Y7.05404
G01 X2.89773 Y6.87479
G01 X2.96697 Y6.73400
G01 X3.01755 Y6.58546
G01 X3.04378 Y6.48081
G01 X3.05961 Y6.37403
G01 X3.06972 Y6.21749
G01 X3.06972 Y5.97847
G01 X2.87759 Y5.79559
G01 X2.68384 Y5.63598
G01 X2.49065 Y5.50393
G01 X2.29979 Y5.40090
G01 X2.33373 Y5.48071
G01 X2.34795 Y5.52760
G01 X2.36327 Y5.60451
G01 X2.37000 Y5.69250
G01 X2.37000 Y6.21749
G01 X2.36327 Y6.30547
G01 X2.34795 Y6.38239
G01 X2.32052 Y6.46623
G01 X2.28062 Y6.54494
G01 X2.23705 Y6.61012
G01 X2.17960 Y6.67710
G01 X2.11264 Y6.73456
G01 X2.04744 Y6.77812
G01 X1.96873 Y6.81802
G01 X1.92400 Y6.83359
G01 X1.92400 Y8.75045
G01 X1.95534 Y8.79919
G01 X1.99230 Y8.86836
G01 X2.02232 Y8.94080
G01 X2.05461 Y9.05391
G01 X2.06807 Y9.17077
G01 X2.06807 Y9.24921
G01 X2.05461 Y9.36607
G01 X2.02232 Y9.47918
G01 X1.99230 Y9.55162
G01 X1.93518 Y9.65444
G01 X1.86202 Y9.74659
G01 X1.80657 Y9.80204
G01 X1.71445 Y9.87516
G01 X1.61163 Y9.93231
G01 X1.53916 Y9.96231
G01 X1.46413 Y9.98507
G01 X1.38722 Y10.00039
G01 X1.27000 Y10.00999
G01 X1.15275 Y10.00039
G01 X1.07584 Y9.98507
G01 X1.00081 Y9.96231
G01 X0.92834 Y9.93231
G01 X0.85921 Y9.89533
G01 X0.79400 Y9.85177
G01 X0.70429 Y9.77567
G01 X0.60480 Y9.65444
G01 X0.54767 Y9.55162
G01 X0.51765 Y9.47918
G01 X0.49489 Y9.40415
G01 X0.47960 Y9.32724
G01 X0.47191 Y9.24921
G01 X0.47191 Y9.17077
G01 X0.48537 Y9.05391
G01 X0.51765 Y8.94080
G01 X0.54767 Y8.86836
G01 X0.58463 Y8.79919
G01 X0.61598 Y8.75045
G01 X0.61598 Y6.83359
G01 X0.57125 Y6.81802
G01 X0.49253 Y6.77812
G01 X0.42733 Y6.73456
G01 X0.36038 Y6.67710
G01 X0.30292 Y6.61012
G01 X0.25936 Y6.54494
G01 X0.21946 Y6.46623
G01 X0.19202 Y6.38239
G01 X0.17671 Y6.30547
G01 X0.16998 Y6.21749
G01 X0.16998 Y5.69250
G01 X0.17671 Y5.60451
G01 X0.19202 Y5.52760
G01 X0.20625 Y5.48071
G01 X0.23625 Y5.40827
G01 X0.27953 Y5.33136
G01 X0.33401 Y5.26197
G01 X0.38946 Y5.20652
G01 X0.42733 Y5.17543
G01 X0.49253 Y5.13184
G01 X0.57125 Y5.09196
G01 X0.65509 Y5.06451
G01 X0.73200 Y5.04922
G01 X0.81999 Y5.04248
G01 X1.71999 Y5.04248
G01 X1.80797 Y5.04922
G01 X1.88488 Y5.06451
G01 X1.96873 Y5.09196
G01 X2.08110 Y5.15203
G01 X2.15052 Y5.20652
G01 X2.20596 Y5.26197
G01 X2.26045 Y5.33136
G01 X2.29979 Y5.40090
G01 X6.69983 Y7.71726
G01 X6.69983 Y6.84571
G01 X6.77631 Y6.80481
G01 X6.97547 Y6.72231
G01 X7.13494 Y6.67395
G01 X7.34637 Y6.63189
G01 X7.51220 Y6.61556
G01 X7.62000 Y6.61027
G01 X7.72777 Y6.61556
G01 X7.89361 Y6.63189
G01 X8.10895 Y6.67515
G01 X8.29452 Y6.97354
G01 X8.51967 Y7.31350
G01 X8.78571 Y7.68558
G01 X8.97324 Y7.93140
G01 X9.21715 Y8.23247
G01 X9.56970 Y8.64022
G01 X9.56970 Y9.85998
G01 X9.56442 Y9.96777
G01 X9.54809 Y10.13361
G01 X9.53224 Y10.24037
G01 X9.50603 Y10.34504
G01 X9.45764 Y10.50450
G01 X9.37514 Y10.70366
G01 X9.29660 Y10.85063
G01 X9.17684 Y11.02987
G01 X9.07113 Y11.15868
G01 X8.99864 Y11.23864
G01 X8.91868 Y11.31113
G01 X8.81024 Y11.40010
G01 X6.69983 Y11.40010
G01 X6.69983 Y10.70272
G01 X6.60400 Y10.58598
G01 X6.56046 Y10.52078
G01 X6.48190 Y10.37382
G01 X6.45190 Y10.30138
G01 X6.40354 Y10.14194
G01 X6.38825 Y10.06503
G01 X6.36996 Y9.85998
G01 X6.37192 Y8.52079
G01 X6.38825 Y8.35495
G01 X6.40354 Y8.27804
G01 X6.45190 Y8.11860
G01 X6.48190 Y8.04614
G01 X6.56046 Y7.89920
G01 X6.60400 Y7.83399
G01 X6.70974 Y7.70519
G01 X6.76519 Y7.64974
G01 X6.92551 Y7.52066
G01 X7.10616 Y7.42193
G01 X7.17860 Y7.39191
G01 X7.33803 Y7.34355
G01 X7.41495 Y7.32826
G01 X7.62000 Y7.30999
G01 X7.82503 Y7.32826
G01 X7.90194 Y7.34355
G01 X8.06138 Y7.39191
G01 X8.13382 Y7.42193
G01 X8.31446 Y7.52066
G01 X8.47479 Y7.64974
G01 X8.53023 Y7.70519
G01 X8.65932 Y7.86552
G01 X8.77484 Y8.08164
G01 X8.83643 Y8.27804
G01 X8.85172 Y8.35495
G01 X8.86998 Y8.55998
G01 X8.86805 Y9.89919
G01 X8.85172 Y10.06503
G01 X8.83643 Y10.14194
G01 X8.78807 Y10.30138
G01 X8.75805 Y10.37382
G01 X8.67951 Y10.52078
G01 X8.63595 Y10.58598
G01 X8.50387 Y10.74387
G01 X8.34598 Y10.87595
G01 X8.28078 Y10.91951
G01 X8.09833 Y11.01484
G01 X7.90194 Y11.07643
G01 X7.82503 Y11.09172
G01 X7.65919 Y11.10806
G01 X7.58078 Y11.10806
G01 X7.41495 Y11.09172
G01 X7.33803 Y11.07643
G01 X7.17860 Y11.02807
G01 X7.10616 Y10.99805
G01 X6.95919 Y10.91951
G01 X6.89399 Y10.87595
G01 X6.76519 Y10.77023
G01 X6.73611 Y10.74387
G01 X6.69983 Y10.70272
G01 X6.00011 Y10.70275
G01 X6.00011 Y11.40010
G01 X3.88973 Y11.40010
G01 X3.78130 Y11.31113
G01 X3.70134 Y11.23864
G01 X3.62885 Y11.15868
G01 X3.52313 Y11.02987
G01 X3.40337 Y10.85063
G01 X3.32478 Y10.70366
G01 X3.24231 Y10.50450
G01 X3.19395 Y10.34504
G01 X3.16796 Y10.24133
G01 X3.25288 Y9.79866
G01 X3.26606 Y9.70323
G01 X3.29349 Y9.43158
G01 X3.29669 Y9.33592
G01 X3.29380 Y8.98835
G01 X3.26398 Y8.69991
G01 X3.22842 Y8.48225
G01 X3.23738 Y8.28619
G01 X3.26240 Y8.03328
G01 X3.28460 Y7.88368
G01 X3.31160 Y7.74822
G01 X3.32478 Y7.71629
G01 X3.40337 Y7.56935
G01 X3.45884 Y7.47677
G01 X3.52313 Y7.39010
G01 X3.62885 Y7.26130
G01 X3.78130 Y7.10885
G01 X3.91010 Y7.00314
G01 X3.99679 Y6.93885
G01 X4.08935 Y6.88337
G01 X4.23631 Y6.80481
G01 X4.33385 Y6.75869
G01 X4.43547 Y6.72231
G01 X4.59494 Y6.67395
G01 X4.80637 Y6.63189
G01 X4.94708 Y6.62330
G01 X5.21289 Y6.62330
G01 X5.31721 Y6.62831
G01 X5.35361 Y6.63189
G01 X5.56504 Y6.67395
G01 X5.72450 Y6.72231
G01 X5.82612 Y6.75869
G01 X6.00011 Y6.84568
G01 X6.00011 Y7.71721
G01 X6.11932 Y7.86552
G01 X6.21805 Y8.04614
G01 X6.24807 Y8.11860
G01 X6.29643 Y8.27804
G01 X6.31172 Y8.35495
G01 X6.32805 Y8.52079
G01 X6.32998 Y9.85998
G01 X6.31172 Y10.06503
G01 X6.29643 Y10.14194
G01 X6.23484 Y10.33833
G01 X6.13951 Y10.52078
G01 X6.09595 Y10.58598
G01 X5.96387 Y10.74387
G01 X5.80598 Y10.87595
G01 X5.74078 Y10.91951
G01 X5.55833 Y11.01484
G01 X5.36194 Y11.07643
G01 X5.28503 Y11.09172
G01 X5.11919 Y11.10806
G01 X5.04078 Y11.10806
G01 X4.87495 Y11.09172
G01 X4.79803 Y11.07643
G01 X4.60164 Y11.01484
G01 X4.41919 Y10.91951
G01 X4.35399 Y10.87595
G01 X4.19611 Y10.74387
G01 X4.06403 Y10.58598
G01 X4.02046 Y10.52078
G01 X3.94193 Y10.37382
G01 X3.91190 Y10.30138
G01 X3.85402 Y10.10384
G01 X3.82999 Y9.85998
G01 X3.82999 Y8.55998
G01 X3.25229 Y8.62147
G01 X3.82999 Y8.55998
G01 X3.84825 Y8.35495
G01 X3.86354 Y8.27804
G01 X3.91190 Y8.11860
G01 X3.94193 Y8.04614
G01 X4.04066 Y7.86552
G01 X4.16974 Y7.70519
G01 X4.22519 Y7.64974
G01 X4.35399 Y7.54403
G01 X4.41919 Y7.50047
G01 X4.56616 Y7.42193
G01 X4.63860 Y7.39191
G01 X4.79803 Y7.34355
G01 X4.87495 Y7.32826
G01 X5.04078 Y7.31192
G01 X5.11919 Y7.31192
G01 X5.28503 Y7.32826
G01 X5.36194 Y7.34355
G01 X5.55833 Y7.40514
G01 X5.74078 Y7.50047
G01 X5.80598 Y7.54403
G01 X5.93479 Y7.64974
G01 X6.00011 Y7.71721
G01 X6.36732 Y5.12836
G01 X6.36735 Y5.88223
G01 X6.55589 Y5.91972
G01 X6.71124 Y5.92971
G01 X7.19874 Y5.92971
G01 X7.35409 Y5.91972
G01 X7.56552 Y5.87766
G01 X7.71286 Y5.82745
G01 X7.81042 Y5.78129
G01 X7.85256 Y5.75876
G01 X8.03181 Y5.63900
G01 X8.14873 Y5.53621
G01 X8.19630 Y5.48371
G01 X8.17664 Y5.43420
G01 X8.19630 Y5.48371
G01 X8.32927 Y5.48371
G01 X8.35132 Y5.43044
G01 X8.32927 Y5.48371
G01 X8.80626 Y5.96069
G01 X8.85952 Y5.93865
G01 X8.80626 Y5.96069
G01 X8.80626 Y6.02874
G01 X8.81609 Y6.03042
G01 X8.80626 Y6.02874
G01 X8.77443 Y6.09608
G01 X8.73806 Y6.19768
G01 X8.71530 Y6.27271
G01 X8.70742 Y6.31241
G01 X8.88279 Y6.59468
G01 X9.14166 Y6.98210
G01 X9.34664 Y7.26689
G01 X9.52335 Y7.49894
G01 X9.75688 Y7.78683
G01 X10.08456 Y8.16600
G01 X10.16000 Y8.16971
G01 X10.26777 Y8.16442
G01 X10.34583 Y8.15673
G01 X10.55726 Y8.11467
G01 X10.63229 Y8.09191
G01 X10.83147 Y8.00941
G01 X10.99320 Y7.91695
G01 X11.14049 Y7.80293
G01 X11.29292 Y7.65048
G01 X11.34267 Y7.58988
G01 X11.46244 Y7.41063
G01 X11.54554 Y7.24390
G01 X11.60468 Y7.06725
G01 X11.64674 Y6.85582
G01 X11.65972 Y6.66999
G01 X11.65441 Y6.56217
G01 X11.64674 Y6.48416
G01 X11.60468 Y6.27271
G01 X11.54554 Y6.09608
G01 X11.51372 Y6.02874
G01 X11.50315 Y6.03070
G01 X11.51372 Y6.02874
G01 X11.51372 Y5.39999
G01 X11.50719 Y5.27395
G01 X11.47089 Y5.06476
G01 X11.41755 Y4.90065
G01 X11.40231 Y4.86382
G01 X11.32398 Y4.71005
G01 X11.30315 Y4.67609
G01 X11.20170 Y4.53647
G01 X11.11722 Y4.44274
G01 X9.84722 Y3.17274
G01 X9.72876 Y3.06868
G01 X9.64207 Y3.00439
G01 X9.50559 Y2.92544
G01 X9.30643 Y2.84295
G01 X9.25878 Y2.82849
G01 X9.15408 Y2.80228
G01 X8.99777 Y2.78155
G01 X8.89000 Y2.77625
G01 X8.19630 Y2.77625
G01 X8.17700 Y2.82397
G01 X8.19630 Y2.77625
G01 X8.14873 Y2.72377
G01 X8.03181 Y2.62098
G01 X7.94512 Y2.55669
G01 X7.85256 Y2.50119
G01 X7.81042 Y2.47868
G01 X7.61124 Y2.39619
G01 X7.56552 Y2.38232
G01 X7.35409 Y2.34025
G01 X7.19874 Y2.33027
G01 X6.71124 Y2.33027
G01 X6.55589 Y2.34025
G01 X6.36732 Y2.37774
G01 X6.36732 Y3.13162
G01 X6.32206 Y3.16187
G01 X6.25605 Y3.21854
G01 X6.19935 Y3.28455
G01 X6.15579 Y3.34975
G01 X6.11650 Y3.42737
G01 X6.08940 Y3.51008
G01 X6.07411 Y3.58699
G01 X6.06748 Y3.67373
G01 X6.06748 Y4.58625
G01 X6.07411 Y4.67299
G01 X6.08940 Y4.74990
G01 X6.11650 Y4.83258
G01 X6.13326 Y4.86806
G01 X6.15579 Y4.91023
G01 X6.19935 Y4.97540
G01 X6.25605 Y5.04144
G01 X6.32206 Y5.09811
G01 X6.38726 Y5.14167
G01 X6.42940 Y5.16420
G01 X6.46488 Y5.18099
G01 X6.54756 Y5.20809
G01 X6.62445 Y5.22338
G01 X6.71124 Y5.22999
G01 X7.19874 Y5.22999
G01 X7.28551 Y5.22338
G01 X7.36239 Y5.20809
G01 X7.44510 Y5.18099
G01 X7.52272 Y5.14167
G01 X7.58792 Y5.09811
G01 X7.62485 Y5.06781
G01 X7.68030 Y5.01236
G01 X7.71060 Y4.97540
G01 X7.75419 Y4.91023
G01 X7.79348 Y4.83258
G01 X7.81025 Y4.78399
G01 X8.61908 Y4.78399
G01 X9.50598 Y5.67088
G01 X9.50598 Y6.21228
G01 X9.47463 Y6.25920
G01 X9.42089 Y6.36384
G01 X9.38489 Y6.47583
G01 X9.36960 Y6.55274
G01 X9.36191 Y6.63077
G01 X9.36191 Y6.70921
G01 X9.36960 Y6.78724
G01 X9.38489 Y6.86415
G01 X9.40765 Y6.93918
G01 X9.43767 Y7.01162
G01 X9.47463 Y7.08078
G01 X9.51819 Y7.14599
G01 X9.56795 Y7.20659
G01 X9.62340 Y7.26204
G01 X9.68400 Y7.31177
G01 X9.74921 Y7.35533
G01 X9.81834 Y7.39231
G01 X9.89081 Y7.42231
G01 X9.96584 Y7.44507
G01 X10.04275 Y7.46039
G01 X10.16000 Y7.46999
G01 X10.27722 Y7.46039
G01 X10.35413 Y7.44507
G01 X10.42916 Y7.42231
G01 X10.50163 Y7.39231
G01 X10.60445 Y7.33516
G01 X10.69657 Y7.26204
G01 X10.75202 Y7.20659
G01 X10.80178 Y7.14599
G01 X10.84534 Y7.08078
G01 X10.89909 Y6.97614
G01 X10.93508 Y6.86415
G01 X10.95037 Y6.78724
G01 X10.96000 Y6.66999
G01 X10.95037 Y6.55274
G01 X10.93508 Y6.47583
G01 X10.89909 Y6.36384
G01 X10.84534 Y6.25920
G01 X10.81400 Y6.21228
G01 X10.81275 Y5.36859
G01 X10.80963 Y5.32887
G01 X10.79050 Y5.22811
G01 X10.75586 Y5.13159
G01 X10.70653 Y5.04167
G01 X10.66965 Y4.99090
G01 X10.62243 Y4.93753
G01 X9.35243 Y3.66753
G01 X9.28487 Y3.60957
G01 X9.21967 Y3.56601
G01 X9.17575 Y3.54254
G01 X9.10331 Y3.51254
G01 X9.01758 Y3.48854
G01 X8.92919 Y3.47789
G01 X7.81025 Y3.47596
G01 X7.79348 Y3.42737
G01 X7.75419 Y3.34975
G01 X7.71060 Y3.28455
G01 X7.68030 Y3.24762
G01 X7.62485 Y3.19217
G01 X7.55637 Y3.13847
G01 X7.48058 Y3.09578
G01 X7.40814 Y3.06575
G01 X7.36239 Y3.05189
G01 X7.28551 Y3.03660
G01 X7.19874 Y3.02999
G01 X6.71124 Y3.02999
G01 X6.62445 Y3.03660
G01 X6.54756 Y3.05189
G01 X6.46488 Y3.07899
G01 X6.38726 Y3.11831
G01 X6.32206 Y3.16187
G01 X6.28513 Y3.19217
G01 X6.25605 Y3.21854
G01 X6.19935 Y3.28455
G01 X6.15579 Y3.34975
G01 X6.11650 Y3.42737
G01 X6.07985 Y3.54815
G01 X6.06748 Y3.67373
G01 X6.06748 Y4.58625
G01 X6.07411 Y4.67299
G01 X6.08940 Y4.74990
G01 X6.11650 Y4.83258
G01 X6.15579 Y4.91023
G01 X6.19935 Y4.97540
G01 X6.25605 Y5.04144
G01 X6.32206 Y5.09811
G01 X6.36732 Y5.12836
G01 X6.00011 Y7.71721
G01 X6.11932 Y7.86552
G01 X6.21805 Y8.04614
G01 X6.24807 Y8.11860
G01 X6.29643 Y8.27804
G01 X6.31172 Y8.35495
G01 X6.32998 Y8.55998
G01 X6.32998 Y9.85998
G01 X6.31172 Y10.06503
G01 X6.29643 Y10.14194
G01 X6.23484 Y10.33833
G01 X6.13951 Y10.52078
G01 X6.09595 Y10.58598
G01 X6.00011 Y10.70275
G01 X6.00011 Y12.09982
G01 X3.88976 Y12.09982
G01 X3.78130 Y12.18885
G01 X3.62885 Y12.34130
G01 X3.52313 Y12.47010
G01 X3.45884 Y12.55677
G01 X3.40337 Y12.64935
G01 X3.32478 Y12.79629
G01 X3.24231 Y12.99548
G01 X3.19395 Y13.15494
G01 X3.16796 Y13.25862
G01 X3.25117 Y13.69413
G01 X3.26608 Y13.79685
G01 X3.29349 Y14.06837
G01 X3.29669 Y14.16403
G01 X3.29380 Y14.51160
G01 X3.26395 Y14.80017
G01 X3.22842 Y15.01767
G01 X3.23738 Y15.21374
G01 X3.26240 Y15.46667
G01 X3.28458 Y15.61628
G01 X3.31163 Y15.75178
G01 X3.32478 Y15.78366
G01 X3.40337 Y15.93063
G01 X3.45884 Y16.02318
G01 X3.52313 Y16.10987
G01 X3.62885 Y16.23868
G01 X3.78130 Y16.39113
G01 X3.91010 Y16.49684
G01 X3.99679 Y16.56113
G01 X4.08935 Y16.61660
G01 X4.23631 Y16.69514
G01 X4.33385 Y16.74129
G01 X4.43547 Y16.77764
G01 X4.59494 Y16.82603
G01 X4.80637 Y16.86809
G01 X4.94711 Y16.87665
G01 X5.21289 Y16.87665
G01 X5.35361 Y16.86809
G01 X5.46036 Y16.85224
G01 X5.56504 Y16.82603
G01 X5.72450 Y16.77764
G01 X5.92366 Y16.69514
G01 X6.00011 Y16.65430
G01 X6.00011 Y15.78275
G01 X6.09595 Y15.66598
G01 X6.13951 Y15.60078
G01 X6.23484 Y15.41833
G01 X6.29643 Y15.22194
G01 X6.31172 Y15.14503
G01 X6.32805 Y14.97919
G01 X6.32998 Y13.63998
G01 X6.31172 Y13.43495
G01 X6.29643 Y13.35804
G01 X6.24807 Y13.19860
G01 X6.21805 Y13.12614
G01 X6.11932 Y12.94549
G01 X6.00011 Y12.79723
G01 X6.00011 Y12.09982
G01 X6.00011 Y12.79723
G01 X5.93479 Y12.72974
G01 X5.80598 Y12.62403
G01 X5.74078 Y12.58047
G01 X5.55833 Y12.48514
G01 X5.36194 Y12.42355
G01 X5.28503 Y12.40826
G01 X5.11919 Y12.39192
G01 X5.04078 Y12.39192
G01 X4.87495 Y12.40826
G01 X4.79803 Y12.42355
G01 X4.63860 Y12.47191
G01 X4.56616 Y12.50193
G01 X4.41919 Y12.58047
G01 X4.35399 Y12.62403
G01 X4.22519 Y12.72974
G01 X4.16974 Y12.78517
G01 X4.04066 Y12.94549
G01 X3.94193 Y13.12614
G01 X3.91190 Y13.19860
G01 X3.85402 Y13.39611
G01 X3.82999 Y13.63998
G01 X3.25229 Y13.70147
G01 X3.82999 Y13.63998
G01 X3.82999 Y14.93998
G01 X3.85402 Y15.18384
G01 X3.91190 Y15.38138
G01 X3.94193 Y15.45382
G01 X4.04066 Y15.63446
G01 X4.16974 Y15.79479
G01 X4.22519 Y15.85023
G01 X4.38551 Y15.97932
G01 X4.60164 Y16.09484
G01 X4.79803 Y16.15643
G01 X4.87495 Y16.17172
G01 X5.04078 Y16.18805
G01 X5.11919 Y16.18805
G01 X5.32384 Y16.16596
G01 X5.52138 Y16.10807
G01 X5.59382 Y16.07805
G01 X5.74078 Y15.99951
G01 X5.80598 Y15.95595
G01 X5.93479 Y15.85023
G01 X5.96387 Y15.82387
G01 X6.00011 Y15.78275
G01 X6.69983 Y15.78272
G01 X6.36732 Y18.37162
G01 X6.36732 Y17.61658
G01 X6.44914 Y17.59608
G01 X6.60344 Y17.57556
G01 X6.71124 Y17.57027
G01 X7.19874 Y17.57027
G01 X7.30654 Y17.57556
G01 X7.46084 Y17.59608
G01 X7.61124 Y17.63619
G01 X7.71286 Y17.67253
G01 X7.85256 Y17.74119
G01 X7.94512 Y17.79669
G01 X8.06874 Y17.89128
G01 X8.14873 Y17.96377
G01 X8.19630 Y18.01625
G01 X8.17662 Y18.06572
G01 X8.19630 Y18.01625
G01 X8.32927 Y18.01625
G01 X8.35132 Y18.06951
G01 X8.32927 Y18.01625
G01 X8.80626 Y17.53926
G01 X8.85952 Y17.56131
G01 X8.80626 Y17.53926
G01 X8.80626 Y17.46694
G01 X8.81680 Y17.46509
G01 X8.80626 Y17.46694
G01 X8.73806 Y17.30230
G01 X8.70595 Y17.18988
G01 X8.88279 Y16.90527
G01 X9.14179 Y16.51767
G01 X9.34664 Y16.23306
G01 X9.52350 Y16.00081
G01 X9.75688 Y15.71313
G01 X10.08311 Y15.33555
G01 X10.26777 Y15.33555
G01 X10.34583 Y15.34325
G01 X10.55726 Y15.38531
G01 X10.73391 Y15.44442
G01 X10.90061 Y15.52753
G01 X11.07986 Y15.64731
G01 X11.22045 Y15.76951
G01 X11.34267 Y15.91010
G01 X11.46244 Y16.08935
G01 X11.49942 Y16.15851
G01 X11.58192 Y16.35768
G01 X11.63089 Y16.53741
G01 X11.64674 Y16.64416
G01 X11.65972 Y16.82999
G01 X11.65441 Y16.93779
G01 X11.64674 Y17.01582
G01 X11.60468 Y17.22725
G01 X11.54554 Y17.40390
G01 X11.51372 Y17.47124
G01 X11.50259 Y17.46923
G01 X11.51372 Y17.47124
G01 X11.51372 Y18.09996
G01 X11.50719 Y18.22600
G01 X11.48019 Y18.39643
G01 X11.47089 Y18.43519
G01 X11.41755 Y18.59930
G01 X11.40231 Y18.63613
G01 X11.32398 Y18.78990
G01 X11.20170 Y18.96349
G01 X11.17582 Y18.99379
G01 X11.11722 Y19.05721
G01 X9.84722 Y20.32721
G01 X9.72876 Y20.43128
G01 X9.64207 Y20.49556
G01 X9.50559 Y20.57451
G01 X9.30643 Y20.65701
G01 X9.25878 Y20.67146
G01 X9.04733 Y20.71352
G01 X8.99777 Y20.71840
G01 X8.89000 Y20.72371
G01 X8.19630 Y20.72371
G01 X8.17702 Y20.67598
G01 X8.19630 Y20.72371
G01 X8.14873 Y20.77621
G01 X8.03181 Y20.87900
G01 X7.85256 Y20.99876
G01 X7.71286 Y21.06745
G01 X7.61124 Y21.10379
G01 X7.46084 Y21.14390
G01 X7.30654 Y21.16442
G01 X7.19874 Y21.16971
G01 X6.71124 Y21.16971
G01 X6.55589 Y21.15972
G01 X6.36732 Y21.12221
G01 X6.36732 Y20.36836
G01 X6.32206 Y20.33811
G01 X6.25605 Y20.28144
G01 X6.19935 Y20.21540
G01 X6.15579 Y20.15023
G01 X6.11650 Y20.07258
G01 X6.08940 Y19.98990
G01 X6.07411 Y19.91299
G01 X6.06748 Y19.82625
G01 X6.06748 Y18.91373
G01 X6.07411 Y18.82699
G01 X6.08940 Y18.75008
G01 X6.11650 Y18.66737
G01 X6.13326 Y18.63189
G01 X6.15579 Y18.58975
G01 X6.19935 Y18.52455
G01 X6.25605 Y18.45854
G01 X6.32206 Y18.40187
G01 X6.38726 Y18.35831
G01 X6.42940 Y18.33578
G01 X6.50182 Y18.30575
G01 X6.58561 Y18.28236
G01 X6.71124 Y18.26999
G01 X7.19874 Y18.26999
G01 X7.28551 Y18.27660
G01 X7.36239 Y18.29189
G01 X7.44510 Y18.31899
G01 X7.55637 Y18.37847
G01 X7.62485 Y18.43217
G01 X7.68030 Y18.48762
G01 X7.71060 Y18.52455
G01 X7.75419 Y18.58975
G01 X7.79348 Y18.66737
G01 X7.81025 Y18.71596
G01 X8.61908 Y18.71596
G01 X9.50598 Y17.82907
G01 X9.50598 Y17.28950
G01 X9.47463 Y17.24078
G01 X9.43767 Y17.17162
G01 X9.40765 Y17.09918
G01 X9.38489 Y17.02415
G01 X9.36960 Y16.94724
G01 X9.35998 Y16.82999
G01 X9.36960 Y16.71274
G01 X9.38489 Y16.63583
G01 X9.40765 Y16.56080
G01 X9.43767 Y16.48836
G01 X9.47463 Y16.41919
G01 X9.51819 Y16.35399
G01 X9.59429 Y16.26431
G01 X9.68400 Y16.18821
G01 X9.74921 Y16.14462
G01 X9.85383 Y16.09087
G01 X9.89081 Y16.07767
G01 X9.96584 Y16.05491
G01 X10.04275 Y16.03959
G01 X10.12078 Y16.03192
G01 X10.19919 Y16.03192
G01 X10.27722 Y16.03959
G01 X10.35413 Y16.05491
G01 X10.46615 Y16.09087
G01 X10.57077 Y16.14462
G01 X10.63597 Y16.18821
G01 X10.72568 Y16.26431
G01 X10.80178 Y16.35399
G01 X10.84534 Y16.41919
G01 X10.88230 Y16.48836
G01 X10.91232 Y16.56080
G01 X10.93508 Y16.63583
G01 X10.95037 Y16.71274
G01 X10.96000 Y16.82999
G01 X10.95037 Y16.94724
G01 X10.93508 Y17.02415
G01 X10.91232 Y17.09918
G01 X10.88230 Y17.17162
G01 X10.84534 Y17.24078
G01 X10.81400 Y17.28770
G01 X10.81275 Y18.13136
G01 X10.80963 Y18.17108
G01 X10.79050 Y18.27185
G01 X10.75586 Y18.36837
G01 X10.72736 Y18.42430
G01 X10.66965 Y18.50906
G01 X10.62243 Y18.56242
G01 X9.35243 Y19.83242
G01 X9.25332 Y19.91375
G01 X9.17575 Y19.95741
G01 X9.10331 Y19.98741
G01 X9.05566 Y20.00186
G01 X8.97875 Y20.01718
G01 X8.92919 Y20.02206
G01 X7.81025 Y20.02399
G01 X7.79348 Y20.07258
G01 X7.75419 Y20.15023
G01 X7.71060 Y20.21540
G01 X7.68030 Y20.25236
G01 X7.62485 Y20.30781
G01 X7.58792 Y20.33811
G01 X7.52272 Y20.38167
G01 X7.44510 Y20.42099
G01 X7.36239 Y20.44809
G01 X7.28551 Y20.46338
G01 X7.19874 Y20.46999
G01 X6.71124 Y20.46999
G01 X6.62445 Y20.46338
G01 X6.54756 Y20.44809
G01 X6.46488 Y20.42099
G01 X6.38726 Y20.38167
G01 X6.32206 Y20.33811
G01 X6.28513 Y20.30781
G01 X6.22968 Y20.25236
G01 X6.19935 Y20.21540
G01 X6.15579 Y20.15023
G01 X6.11650 Y20.07258
G01 X6.08940 Y19.98990
G01 X6.07411 Y19.91299
G01 X6.06748 Y19.82625
G01 X6.06748 Y18.91373
G01 X6.07411 Y18.82699
G01 X6.08940 Y18.75008
G01 X6.10326 Y18.70436
G01 X6.11650 Y18.66737
G01 X6.15579 Y18.58975
G01 X6.19935 Y18.52455
G01 X6.25605 Y18.45854
G01 X6.32206 Y18.40187
G01 X6.36732 Y18.37162
G01 X6.69983 Y15.78272
G01 X6.60400 Y15.66598
G01 X6.56046 Y15.60078
G01 X6.48190 Y15.45382
G01 X6.45190 Y15.38138
G01 X6.40354 Y15.22194
G01 X6.38825 Y15.14503
G01 X6.36996 Y14.93998
G01 X6.37192 Y13.60079
G01 X6.38825 Y13.43495
G01 X6.40354 Y13.35804
G01 X6.45190 Y13.19860
G01 X6.48190 Y13.12614
G01 X6.58066 Y12.94549
G01 X6.69983 Y12.79723
G01 X6.69983 Y12.09985
G01 X8.81022 Y12.09985
G01 X8.91868 Y12.18885
G01 X9.07113 Y12.34130
G01 X9.17684 Y12.47010
G01 X9.24113 Y12.55677
G01 X9.29660 Y12.64935
G01 X9.37514 Y12.79629
G01 X9.45764 Y12.99548
G01 X9.50603 Y13.15494
G01 X9.54809 Y13.36637
G01 X9.56442 Y13.53221
G01 X9.56970 Y13.63998
G01 X9.56970 Y14.85974
G01 X9.21715 Y15.26748
G01 X8.97341 Y15.56832
G01 X8.78573 Y15.81434
G01 X8.51962 Y16.18653
G01 X8.29452 Y16.52641
G01 X8.10892 Y16.82483
G01 X7.89361 Y16.86809
G01 X7.72777 Y16.88442
G01 X7.62000 Y16.88970
G01 X7.51220 Y16.88442
G01 X7.34637 Y16.86809
G01 X7.13494 Y16.82603
G01 X6.97547 Y16.77764
G01 X6.87385 Y16.74129
G01 X6.69983 Y16.65427
G01 X6.69983 Y15.78272
G01 X6.60400 Y15.66598
G01 X6.56046 Y15.60078
G01 X6.46514 Y15.41833
G01 X6.40354 Y15.22194
G01 X6.38825 Y15.14503
G01 X6.36996 Y14.93998
G01 X6.36996 Y13.63998
G01 X6.38825 Y13.43495
G01 X6.40354 Y13.35804
G01 X6.45190 Y13.19860
G01 X6.48190 Y13.12614
G01 X6.58066 Y12.94549
G01 X6.70974 Y12.78517
G01 X6.76519 Y12.72974
G01 X6.89399 Y12.62403
G01 X6.95919 Y12.58047
G01 X7.14164 Y12.48514
G01 X7.33803 Y12.42355
G01 X7.41495 Y12.40826
G01 X7.62000 Y12.38999
G01 X7.82503 Y12.40826
G01 X7.90194 Y12.42355
G01 X8.06138 Y12.47191
G01 X8.13382 Y12.50193
G01 X8.28078 Y12.58047
G01 X8.34598 Y12.62403
G01 X8.47479 Y12.72974
G01 X8.53023 Y12.78517
G01 X8.63595 Y12.91399
G01 X8.67951 Y12.97920
G01 X8.75805 Y13.12614
G01 X8.78807 Y13.19860
G01 X8.83643 Y13.35804
G01 X8.85172 Y13.43495
G01 X8.86998 Y13.63998
G01 X8.86998 Y14.93998
G01 X8.85172 Y15.14503
G01 X8.83643 Y15.22194
G01 X8.77484 Y15.41833
G01 X8.67951 Y15.60078
G01 X8.63595 Y15.66598
G01 X8.50387 Y15.82387
G01 X8.34598 Y15.95595
G01 X8.28078 Y15.99951
G01 X8.13382 Y16.07805
G01 X8.06138 Y16.10807
G01 X7.90194 Y16.15643
G01 X7.82503 Y16.17172
G01 X7.65919 Y16.18805
G01 X7.58078 Y16.18805
G01 X7.41495 Y16.17172
G01 X7.33803 Y16.15643
G01 X7.14164 Y16.09484
G01 X6.92551 Y15.97932
G01 X6.76519 Y15.85023
G01 X6.69983 Y15.78272
G01 X2.63190 Y18.71596
G01 X2.85826 Y18.59244
G01 X3.10843 Y18.42110
G01 X3.34157 Y18.22879
G01 X3.56446 Y18.01625
G01 X3.83868 Y18.01625
G01 X3.85544 Y18.06092
G01 X3.83868 Y18.01625
G01 X3.88625 Y17.96377
G01 X3.96624 Y17.89128
G01 X4.08986 Y17.79669
G01 X4.18241 Y17.74119
G01 X4.32211 Y17.67253
G01 X4.46946 Y17.62232
G01 X4.68089 Y17.58025
G01 X4.82087 Y17.57103
G01 X4.93852 Y17.57637
G01 X5.22148 Y17.57637
G01 X5.33905 Y17.57101
G01 X5.43154 Y17.57556
G01 X5.47908 Y17.58025
G01 X5.66760 Y17.61774
G01 X5.66760 Y18.37019
G01 X5.71292 Y18.40187
G01 X5.77893 Y18.45854
G01 X5.83562 Y18.52455
G01 X5.87919 Y18.58975
G01 X5.91848 Y18.66737
G01 X5.93171 Y18.70436
G01 X5.95511 Y18.78815
G01 X5.96087 Y18.82699
G01 X5.96748 Y18.91373
G01 X5.96557 Y19.86544
G01 X5.95511 Y19.95183
G01 X5.91848 Y20.07258
G01 X5.87919 Y20.15023
G01 X5.83562 Y20.21540
G01 X5.80530 Y20.25236
G01 X5.74985 Y20.30781
G01 X5.68140 Y20.36150
G01 X5.57009 Y20.42099
G01 X5.48742 Y20.44809
G01 X5.41050 Y20.46338
G01 X5.32374 Y20.46999
G01 X4.83624 Y20.46999
G01 X4.74947 Y20.46338
G01 X4.67256 Y20.44809
G01 X4.62684 Y20.43420
G01 X4.55440 Y20.40420
G01 X4.47858 Y20.36150
G01 X4.38104 Y20.28144
G01 X4.32435 Y20.21540
G01 X4.28079 Y20.15023
G01 X4.24150 Y20.07258
G01 X4.22473 Y20.02399
G01 X2.23784 Y20.02399
G01 X2.17960 Y20.09211
G01 X2.15052 Y20.11848
G01 X2.11264 Y20.14957
G01 X2.04744 Y20.19313
G01 X2.00421 Y20.21622
G01 X1.93177 Y20.24624
G01 X1.84681 Y20.26999
G01 X1.71999 Y20.28248
G01 X0.81999 Y20.28248
G01 X0.69317 Y20.26999
G01 X0.57125 Y20.23300
G01 X0.49253 Y20.19313
G01 X0.42733 Y20.14957
G01 X0.36038 Y20.09211
G01 X0.33401 Y20.06303
G01 X0.30292 Y20.02513
G01 X0.25936 Y19.95993
G01 X0.21946 Y19.88124
G01 X0.19202 Y19.79737
G01 X0.17671 Y19.72046
G01 X0.16998 Y19.63250
G01 X0.16998 Y19.10748
G01 X0.17671 Y19.01952
G01 X0.19202 Y18.94261
G01 X0.21946 Y18.85874
G01 X0.25936 Y18.78002
G01 X0.30292 Y18.71485
G01 X0.33401 Y18.67695
G01 X0.36038 Y18.64787
G01 X0.42733 Y18.59041
G01 X0.49253 Y18.54685
G01 X0.53576 Y18.52374
G01 X0.60820 Y18.49374
G01 X0.69317 Y18.46997
G01 X0.81986 Y18.45747
G01 X0.73200 Y18.45076
G01 X0.65509 Y18.43547
G01 X0.60820 Y18.42122
G01 X0.53576 Y18.39123
G01 X0.45888 Y18.34794
G01 X0.38946 Y18.29346
G01 X0.33401 Y18.23801
G01 X0.30292 Y18.20014
G01 X0.24473 Y18.10761
G01 X-0.49106 Y18.10761
G01 X-0.51961 Y17.96405
G01 X-0.52441 Y17.91528
G01 X-0.52972 Y17.80748
G01 X-0.52972 Y17.28249
G01 X-0.52441 Y17.17469
G01 X-0.51961 Y17.12592
G01 X-0.47755 Y16.91449
G01 X-0.46332 Y16.86758
G01 X-0.42697 Y16.76598
G01 X-0.35773 Y16.62519
G01 X-0.23795 Y16.44594
G01 X-0.20686 Y16.40804
G01 X-0.08372 Y16.28491
G01 X-0.03330 Y16.30515
G01 X-0.08372 Y16.28491
G01 X-0.08372 Y14.92694
G01 X-0.07026 Y14.92425
G01 X-0.08372 Y14.92694
G01 X-0.15192 Y14.76230
G01 X-0.20086 Y14.58257
G01 X-0.22441 Y14.39779
G01 X-0.22441 Y14.18219
G01 X-0.21674 Y14.10416
G01 X-0.20086 Y13.99741
G01 X-0.15192 Y13.81768
G01 X-0.06942 Y13.61851
G01 X0.02301 Y13.45679
G01 X0.08730 Y13.37010
G01 X0.20952 Y13.22949
G01 X0.35011 Y13.10731
G01 X0.52936 Y12.98753
G01 X0.59850 Y12.95057
G01 X0.69606 Y12.90442
G01 X0.79769 Y12.86807
G01 X0.87272 Y12.84531
G01 X1.08415 Y12.80325
G01 X1.16220 Y12.79555
G01 X1.37777 Y12.79555
G01 X1.45583 Y12.80325
G01 X1.66726 Y12.84531
G01 X1.84391 Y12.90442
G01 X2.01061 Y12.98753
G01 X2.18986 Y13.10731
G01 X2.25049 Y13.15702
G01 X2.33045 Y13.22949
G01 X2.40292 Y13.30950
G01 X2.48582 Y13.41481
G01 X2.56075 Y13.80782
G01 X2.57058 Y13.87409
G01 X2.59403 Y14.11145
G01 X2.59702 Y14.40734
G01 X2.59400 Y14.46853
G01 X2.57056 Y14.70596
G01 X2.53385 Y14.92438
G01 X2.52778 Y15.00213
G01 X2.52443 Y15.00205
G01 X2.52778 Y15.00213
G01 X2.54025 Y15.27391
G01 X2.56611 Y15.54401
G01 X2.59372 Y15.72750
G01 X2.62372 Y15.88011
G01 X2.62372 Y16.28491
G01 X2.57330 Y16.30515
G01 X2.62372 Y16.28491
G01 X2.74686 Y16.40804
G01 X2.77795 Y16.44594
G01 X2.89773 Y16.62519
G01 X2.96697 Y16.76598
G01 X3.01755 Y16.91449
G01 X3.05961 Y17.12592
G01 X3.06972 Y17.28249
G01 X3.06972 Y17.52145
G01 X2.87757 Y17.70438
G01 X2.68399 Y17.86385
G01 X2.49044 Y17.99615
G01 X2.29982 Y18.09905
G01 X2.28062 Y18.13494
G01 X2.23705 Y18.20014
G01 X2.20596 Y18.23801
G01 X2.15052 Y18.29346
G01 X2.08110 Y18.34794
G01 X2.00421 Y18.39123
G01 X1.93177 Y18.42122
G01 X1.88488 Y18.43547
G01 X1.80797 Y18.45076
G01 X1.71999 Y18.45749
G01 X1.80797 Y18.45076
G01 X1.88488 Y18.43547
G01 X1.93177 Y18.42122
G01 X2.00421 Y18.39123
G01 X2.08110 Y18.34794
G01 X2.15052 Y18.29346
G01 X2.20596 Y18.23801
G01 X2.23705 Y18.20014
G01 X2.28062 Y18.13494
G01 X2.29982 Y18.09905
G01 X2.32052 Y18.05623
G01 X2.34795 Y17.97238
G01 X2.35750 Y17.93430
G01 X2.36807 Y17.84670
G01 X2.36807 Y17.24327
G01 X2.35750 Y17.15567
G01 X2.32052 Y17.03375
G01 X2.28062 Y16.95503
G01 X2.23705 Y16.88983
G01 X2.20596 Y16.85196
G01 X2.15052 Y16.79651
G01 X2.08110 Y16.74203
G01 X2.00421 Y16.69875
G01 X1.92400 Y16.66639
G01 X1.92400 Y14.74770
G01 X1.95534 Y14.70078
G01 X2.00909 Y14.59614
G01 X2.04508 Y14.48415
G01 X2.06037 Y14.40724
G01 X2.07000 Y14.28999
G01 X2.06037 Y14.17274
G01 X2.04508 Y14.09583
G01 X2.02232 Y14.02080
G01 X1.99230 Y13.94836
G01 X1.93518 Y13.84554
G01 X1.86202 Y13.75339
G01 X1.80657 Y13.69794
G01 X1.74597 Y13.64821
G01 X1.68077 Y13.60462
G01 X1.57615 Y13.55087
G01 X1.46413 Y13.51491
G01 X1.38722 Y13.49959
G01 X1.30919 Y13.49192
G01 X1.23078 Y13.49192
G01 X1.15275 Y13.49959
G01 X1.07584 Y13.51491
G01 X1.00081 Y13.53767
G01 X0.92834 Y13.56766
G01 X0.85921 Y13.60462
G01 X0.79400 Y13.64821
G01 X0.70429 Y13.72431
G01 X0.60480 Y13.84554
G01 X0.54767 Y13.94836
G01 X0.51765 Y14.02080
G01 X0.48537 Y14.13391
G01 X0.46998 Y14.28999
G01 X0.48537 Y14.44607
G01 X0.51765 Y14.55918
G01 X0.54767 Y14.63162
G01 X0.58463 Y14.70078
G01 X0.61598 Y14.74950
G01 X0.61598 Y16.66639
G01 X0.53576 Y16.69875
G01 X0.45888 Y16.74203
G01 X0.38946 Y16.79651
G01 X0.33401 Y16.85196
G01 X0.30292 Y16.88983
G01 X0.25936 Y16.95503
G01 X0.23625 Y16.99826
G01 X0.20625 Y17.07071
G01 X0.19202 Y17.11759
G01 X0.17671 Y17.19450
G01 X0.16998 Y17.28249
G01 X-0.52972 Y17.28249
G01 X0.16998 Y17.28249
G01 X0.17191 Y17.84670
G01 X0.17671 Y17.89547
G01 X0.19202 Y17.97238
G01 X0.21946 Y18.05623
G01 X0.25936 Y18.13494
G01 X0.30292 Y18.20014
G01 X0.33401 Y18.23801
G01 X0.38946 Y18.29346
G01 X0.42733 Y18.32455
G01 X0.45888 Y18.34794
G01 X0.53576 Y18.39123
G01 X0.60820 Y18.42122
G01 X0.69317 Y18.44500
G01 X0.81986 Y18.45747
G01 X1.71999 Y18.45749
G01 X1.84681 Y18.46997
G01 X1.96873 Y18.50697
G01 X2.04744 Y18.54685
G01 X2.11264 Y18.59041
G01 X2.15052 Y18.62150
G01 X2.17960 Y18.64787
G01 X2.23782 Y18.71596
G01 X4.22473 Y18.71596
G01 X4.24150 Y18.66737
G01 X4.28079 Y18.58975
G01 X4.32435 Y18.52455
G01 X4.38104 Y18.45854
G01 X4.44706 Y18.40187
G01 X4.51226 Y18.35831
G01 X4.58988 Y18.31899
G01 X4.67256 Y18.29189
G01 X4.74947 Y18.27660
G01 X4.83624 Y18.26999
G01 X5.36296 Y18.27192
G01 X5.41050 Y18.27660
G01 X5.48742 Y18.29189
G01 X5.53314 Y18.30575
G01 X5.60558 Y18.33578
G01 X5.68140 Y18.37847
G01 X5.77893 Y18.45854
G01 X5.83562 Y18.52455
G01 X5.87919 Y18.58975
G01 X5.91848 Y18.66737
G01 X5.95511 Y18.78815
G01 X5.96748 Y18.91373
G01 X5.96748 Y19.82625
G01 X5.96087 Y19.91299
G01 X5.94558 Y19.98990
G01 X5.91848 Y20.07258
G01 X5.87919 Y20.15023
G01 X5.83562 Y20.21540
G01 X5.77893 Y20.28144
G01 X5.71292 Y20.33811
G01 X5.66760 Y20.36976
G01 X5.66760 Y21.12223
G01 X5.47908 Y21.15972
G01 X5.43154 Y21.16442
G01 X5.32374 Y21.16971
G01 X4.83624 Y21.16971
G01 X4.68089 Y21.15972
G01 X4.46946 Y21.11766
G01 X4.32211 Y21.06745
G01 X4.22455 Y21.02129
G01 X4.08986 Y20.94329
G01 X3.96624 Y20.84870
G01 X3.88625 Y20.77621
G01 X3.83865 Y20.72371
G01 X3.85544 Y20.67903
G01 X3.83865 Y20.72371
G01 X2.50678 Y20.72371
G01 X2.49870 Y20.69589
G01 X2.50678 Y20.72371
G01 X2.37729 Y20.81022
G01 X2.23650 Y20.87946
G01 X2.13490 Y20.91583
G01 X1.98331 Y20.95627
G01 X1.82778 Y20.97692
G01 X1.71999 Y20.98220
G01 X0.81999 Y20.98220
G01 X0.71219 Y20.97692
G01 X0.55667 Y20.95627
G01 X0.40508 Y20.91583
G01 X0.30348 Y20.87946
G01 X0.16269 Y20.81022
G01 X-0.01654 Y20.69046
G01 X-0.13439 Y20.58688
G01 X-0.23795 Y20.46905
G01 X-0.35773 Y20.28977
G01 X-0.42697 Y20.14901
G01 X-0.46332 Y20.04738
G01 X-0.47755 Y20.00049
G01 X-0.51961 Y19.78906
G01 X-0.52972 Y19.63250
G01 X-0.52972 Y19.10748
G01 X-0.51961 Y18.95091
G01 X-0.49106 Y18.80733
G01 X0.24475 Y18.80733

G04 P0 ( dwell for no time -- G64 should not smooth over this point )
G00 Z17.835000 ( retract )

M5 ( Spindle off. )
G04 P1.000000
M9 ( Coolant off. )
M2 ( Program end. )

